;FLAVOR:Marlin
;TIME:5932
;Filament used: 3.8252m
;Layer height: 0.2
;MINX:89.101
;MINY:97.343
;MINZ:0.3
;MAXX:116.833
;MAXY:139.843
;MAXZ:44.1
;Generated with Cura_SteamEngine 4.7.1
M104 S190
M105
M109 S190
M82 ;absolute extrusion mode
G21 ;metric values
G90 ;absolute positioning
M82 ;set extruder to absolute mode
M107 ;start with the fan off
G28 X0 Y0 ;move X/Y to min endstops
G28 Z0 ;move Z to min endstops
G1 Z15.0 F100 ;move the platform down 15mm
G92 E0 ;zero the extruded length
G1 F200 E3 ;extrude 3mm of feed stock
G92 E0 ;zero the extruded length again
G1 F100
G0 Y20 F100
M117 Printing...
G5
G92 E0
G92 E0
;LAYER_COUNT:220
;LAYER:0
M106 S255
M204 S3000
M205 X10 Y10
G0 F600 X92.871 Y98.445 Z0.3
M204 S1800
M205 X8 Y8
;TYPE:SKIRT
G1 X93.368 Y98.082 E0.05527
G1 X93.909 Y97.786 E0.11065
G1 X94.483 Y97.563 E0.16595
G1 X95.081 Y97.416 E0.22125
G1 X95.913 Y97.343 E0.29625
G1 X99.948 Y97.343 E0.6586
G1 X100.563 Y97.383 E0.71395
G1 X101.167 Y97.502 E0.76923
G1 X101.751 Y97.699 E0.82458
G1 X102.305 Y97.969 E0.87993
G1 X102.819 Y98.309 E0.93527
G1 X103.285 Y98.712 E0.99059
G1 X103.694 Y99.172 E1.04587
G1 X104.041 Y99.682 E1.10127
G1 X104.318 Y100.232 E1.15657
G1 X104.522 Y100.813 E1.21187
G1 X104.65 Y101.416 E1.26722
G1 X104.698 Y102.095 E1.32835
G1 X104.697 Y104.095 E1.50796
G1 X104.657 Y104.71 E1.5633
G1 X104.537 Y105.315 E1.61869
G1 X104.34 Y105.898 E1.67395
G1 X104.07 Y106.452 E1.7293
G1 X103.73 Y106.966 E1.78464
G1 X103.664 Y107.042 E1.79368
G1 X103.664 Y110.506 E2.10475
G1 X103.624 Y111.121 E2.1601
G1 X103.505 Y111.725 E2.21538
G1 X103.308 Y112.309 E2.27073
G1 X103.038 Y112.863 E2.32608
G1 X102.698 Y113.377 E2.38142
G1 X102.295 Y113.843 E2.43674
G1 X101.835 Y114.252 E2.49202
G1 X101.325 Y114.599 E2.54742
G1 X100.775 Y114.876 E2.60272
G1 X100.194 Y115.08 E2.65802
G1 X99.591 Y115.208 E2.71337
G1 X98.977 Y115.256 E2.76868
G1 X98.103 Y115.186 E2.84742
G1 X97.408 Y115.085 E2.91049
G1 X96.893 Y115.095 E2.95674
G1 X96.367 Y115.184 E3.00465
G1 X95.878 Y115.344 E3.05086
G1 X95.761 Y115.395 E3.06232
G1 X95.182 Y115.606 E3.11766
G1 X94.581 Y115.74 E3.17295
G1 X93.967 Y115.796 E3.22832
G1 X93.352 Y115.771 E3.2836
G1 X92.744 Y115.667 E3.33899
G1 X92.156 Y115.485 E3.39426
G1 X91.595 Y115.229 E3.44964
G1 X91.073 Y114.902 E3.50496
G1 X90.597 Y114.511 E3.56027
G1 X90.176 Y114.061 E3.61561
G1 X89.817 Y113.56 E3.67096
G1 X89.526 Y113.017 E3.72629
G1 X89.307 Y112.441 E3.78162
G1 X89.165 Y111.842 E3.83691
G1 X89.101 Y111.229 E3.89226
G1 X89.118 Y110.613 E3.94759
G1 X89.219 Y109.982 E4.00498
G1 X89.636 Y108.169 E4.17204
G1 X89.659 Y108.074 E4.18082
G1 X91.284 Y101.026 E4.83035
G1 X91.462 Y100.436 E4.8857
G1 X91.714 Y99.873 E4.94109
G1 X92.036 Y99.348 E4.9964
G1 X92.424 Y98.87 E5.05168
G1 X92.871 Y98.445 E5.10707
M204 S3000
M205 X10 Y10
G0 X93.314 Y98.73
M204 S1800
M205 X8 Y8
G1 X93.798 Y98.406 E5.15938
G1 X94.322 Y98.152 E5.21167
G1 X94.877 Y97.971 E5.26409
G1 X95.45 Y97.868 E5.31638
G1 X95.913 Y97.843 E5.35801
G1 X99.948 Y97.843 E5.72037
G1 X100.529 Y97.883 E5.77267
G1 X101.1 Y98.002 E5.82504
G1 X101.649 Y98.198 E5.87739
G1 X102.165 Y98.467 E5.92965
G1 X102.641 Y98.805 E5.98208
G1 X103.065 Y99.204 E6.03436
G1 X103.431 Y99.658 E6.08673
G1 X103.731 Y100.157 E6.13902
G1 X103.961 Y100.693 E6.19139
G1 X104.115 Y101.255 E6.24372
G1 X104.198 Y102.095 E6.31953
G1 X104.197 Y104.095 E6.49913
G1 X104.157 Y104.676 E6.55143
G1 X104.037 Y105.247 E6.60383
G1 X103.841 Y105.796 E6.65618
G1 X103.572 Y106.312 E6.70843
G1 X103.234 Y106.787 E6.76079
G1 X103.164 Y106.861 E6.76993
G1 X103.164 Y110.506 E7.09726
G1 X103.124 Y111.087 E7.14956
G1 X103.005 Y111.658 E7.20194
G1 X102.809 Y112.207 E7.25429
G1 X102.54 Y112.723 E7.30655
G1 X102.202 Y113.199 E7.35897
G1 X101.803 Y113.623 E7.41126
G1 X101.349 Y113.989 E7.46363
G1 X100.85 Y114.289 E7.51591
G1 X100.314 Y114.519 E7.56829
G1 X99.752 Y114.673 E7.62062
G1 X99.174 Y114.748 E7.67296
G1 X98.592 Y114.744 E7.72523
G1 X97.712 Y114.611 E7.80515
G1 X97.137 Y114.58 E7.85686
G1 X96.554 Y114.635 E7.90945
G1 X95.986 Y114.772 E7.96192
G1 X95.56 Y114.937 E8.00294
G1 X95.011 Y115.135 E8.05535
G1 X94.441 Y115.255 E8.10766
G1 X93.86 Y115.297 E8.15998
G1 X93.279 Y115.259 E8.21226
G1 X92.708 Y115.141 E8.26462
G1 X92.158 Y114.947 E8.317
G1 X91.641 Y114.679 E8.36929
G1 X91.165 Y114.343 E8.42161
G1 X90.739 Y113.945 E8.47397
G1 X90.372 Y113.492 E8.52632
G1 X90.07 Y112.994 E8.57863
G1 X89.839 Y112.459 E8.63096
G1 X89.684 Y111.897 E8.68331
G1 X89.607 Y111.319 E8.73568
G1 X89.609 Y110.737 E8.78794
G1 X89.706 Y110.094 E8.84634
G1 X90.122 Y108.287 E9.01285
G1 X90.145 Y108.192 E9.02163
G1 X91.772 Y101.138 E9.67173
G1 X91.941 Y100.58 E9.72409
G1 X92.185 Y100.051 E9.7764
G1 X92.5 Y99.561 E9.82871
G1 X92.878 Y99.118 E9.88101
G1 X93.314 Y98.73 E9.93342
M204 S3000
M205 X10 Y10
G0 X93.33 Y99.374
M204 S1800
M205 X8 Y8
G1 X93.753 Y99.027 E9.98256
G1 X94.223 Y98.746 E10.03173
G1 X94.728 Y98.535 E10.08088
G1 X95.259 Y98.401 E10.13006
G1 X95.913 Y98.343 E10.18902
G1 X99.948 Y98.343 E10.55137
G1 X100.494 Y98.383 E10.60054
G1 X101.028 Y98.502 E10.64967
G1 X101.539 Y98.697 E10.69878
G1 X102.017 Y98.965 E10.748
G1 X102.45 Y99.3 E10.79716
G1 X102.83 Y99.694 E10.84632
G1 X103.149 Y100.139 E10.89549
G1 X103.399 Y100.626 E10.94465
G1 X103.576 Y101.144 E10.9938
G1 X103.675 Y101.682 E11.04293
G1 X103.698 Y102.095 E11.08007
G1 X103.697 Y104.095 E11.25968
G1 X103.657 Y104.641 E11.30884
G1 X103.538 Y105.175 E11.35797
G1 X103.342 Y105.686 E11.40712
G1 X103.074 Y106.163 E11.45626
G1 X102.739 Y106.596 E11.50542
G1 X102.664 Y106.668 E11.51476
G1 X102.664 Y110.506 E11.85942
G1 X102.624 Y111.052 E11.90858
G1 X102.505 Y111.586 E11.95771
G1 X102.31 Y112.097 E12.00683
G1 X102.042 Y112.575 E12.05604
G1 X101.707 Y113.008 E12.1052
G1 X101.313 Y113.388 E12.15436
G1 X100.868 Y113.707 E12.20353
G1 X100.381 Y113.957 E12.25269
G1 X99.863 Y114.134 E12.30185
G1 X99.325 Y114.233 E12.35097
G1 X98.778 Y114.254 E12.40013
G1 X98.273 Y114.201 E12.44573
G1 X97.78 Y114.116 E12.49066
G1 X97.132 Y114.08 E12.54894
G1 X96.471 Y114.141 E12.60855
G1 X95.841 Y114.293 E12.66675
G1 X95.358 Y114.479 E12.71323
G1 X94.843 Y114.663 E12.76234
G1 X94.306 Y114.769 E12.81149
G1 X93.759 Y114.796 E12.86068
G1 X93.214 Y114.743 E12.90985
G1 X92.683 Y114.611 E12.95898
G1 X92.176 Y114.404 E13.00816
G1 X91.705 Y114.125 E13.05732
G1 X91.28 Y113.78 E13.10648
G1 X90.91 Y113.377 E13.15561
G1 X90.602 Y112.925 E13.20473
G1 X90.363 Y112.432 E13.25393
G1 X90.199 Y111.91 E13.30307
G1 X90.112 Y111.37 E13.35219
G1 X90.105 Y110.822 E13.4014
G1 X90.194 Y110.206 E13.45729
G1 X90.608 Y108.405 E13.62325
G1 X90.631 Y108.31 E13.63202
G1 X92.259 Y101.25 E14.28267
G1 X92.42 Y100.727 E14.33181
G1 X92.656 Y100.234 E14.38089
G1 X92.962 Y99.779 E14.43013
G1 X93.33 Y99.374 E14.47927
M204 S3000
M205 X10 Y10
G0 X93.779 Y99.642
M204 S1800
M205 X8 Y8
G1 X94.188 Y99.339 E14.52498
G1 X94.64 Y99.103 E14.57078
G1 X95.123 Y98.941 E14.61652
G1 X95.625 Y98.856 E14.66225
G1 X95.913 Y98.843 E14.68814
G1 X99.948 Y98.843 E15.05049
G1 X100.456 Y98.883 E15.09625
G1 X100.951 Y99.002 E15.14197
G1 X101.422 Y99.197 E15.18775
G1 X101.857 Y99.463 E15.23354
G1 X102.244 Y99.793 E15.27921
G1 X102.576 Y100.18 E15.325
G1 X102.842 Y100.615 E15.37079
G1 X103.038 Y101.085 E15.41652
G1 X103.157 Y101.58 E15.46224
G1 X103.198 Y102.095 E15.50863
G1 X103.197 Y104.095 E15.68824
G1 X103.157 Y104.603 E15.734
G1 X103.038 Y105.098 E15.77971
G1 X102.843 Y105.569 E15.82549
G1 X102.576 Y106.003 E15.87125
G1 X102.246 Y106.391 E15.91699
G1 X102.164 Y106.461 E15.92668
G1 X102.164 Y110.506 E16.28993
G1 X102.124 Y111.014 E16.33569
G1 X102.005 Y111.509 E16.38141
G1 X101.81 Y111.98 E16.42718
G1 X101.544 Y112.415 E16.47297
G1 X101.214 Y112.802 E16.51865
G1 X100.827 Y113.134 E16.56444
G1 X100.392 Y113.4 E16.61022
G1 X99.922 Y113.596 E16.65596
G1 X99.427 Y113.715 E16.70167
G1 X98.919 Y113.756 E16.74744
G1 X98.359 Y113.708 E16.79792
G1 X97.85 Y113.62 E16.8443
G1 X97.126 Y113.579 E16.90942
G1 X96.39 Y113.648 E16.97581
G1 X95.676 Y113.82 E17.04176
G1 X95.157 Y114.022 E17.09177
G1 X94.676 Y114.19 E17.13753
G1 X94.175 Y114.281 E17.18326
G1 X93.665 Y114.292 E17.22907
G1 X93.16 Y114.223 E17.27484
G1 X92.672 Y114.077 E17.32058
G1 X92.213 Y113.856 E17.36633
G1 X91.794 Y113.566 E17.41209
G1 X91.426 Y113.214 E17.45782
G1 X91.117 Y112.809 E17.50357
G1 X90.875 Y112.36 E17.54937
G1 X90.706 Y111.879 E17.59516
G1 X90.615 Y111.378 E17.64088
G1 X90.603 Y110.869 E17.6866
G1 X90.681 Y110.318 E17.73658
G1 X91.094 Y108.522 E17.90207
G1 X91.117 Y108.427 E17.91085
G1 X92.746 Y101.363 E18.56186
G1 X92.899 Y100.877 E18.60762
G1 X93.126 Y100.421 E18.65336
G1 X93.422 Y100.006 E18.69914
G1 X93.779 Y99.642 E18.74492
M204 S3000
M205 X10 Y10
G0 X94.223 Y99.923
M204 S1800
M205 X8 Y8
G1 X94.616 Y99.668 E18.787
G1 X95.047 Y99.483 E18.82912
G1 X95.502 Y99.374 E18.87113
G1 X95.913 Y99.343 E18.90814
G1 X99.948 Y99.343 E19.2705
G1 X100.415 Y99.383 E19.31259
G1 X100.868 Y99.502 E19.35465
G1 X101.295 Y99.695 E19.39673
G1 X101.682 Y99.959 E19.4388
G1 X102.02 Y100.284 E19.48091
G1 X102.297 Y100.662 E19.52299
G1 X102.505 Y101.082 E19.56508
G1 X102.64 Y101.531 E19.60719
G1 X102.698 Y102.094 E19.65801
G1 X102.697 Y104.094 E19.83762
G1 X102.657 Y104.561 E19.87971
G1 X102.538 Y105.015 E19.92186
G1 X102.344 Y105.441 E19.96389
G1 X102.08 Y105.828 E20.00596
G1 X101.664 Y106.232 E20.05804
G1 X101.664 Y110.506 E20.44185
G1 X101.624 Y110.973 E20.48394
G1 X101.505 Y111.426 E20.526
G1 X101.312 Y111.853 E20.56808
G1 X101.048 Y112.24 E20.61015
G1 X100.723 Y112.578 E20.65226
G1 X100.345 Y112.855 E20.69435
G1 X99.925 Y113.063 E20.73644
G1 X99.476 Y113.198 E20.77854
G1 X99.011 Y113.254 E20.8206
G1 X98.444 Y113.216 E20.87163
G1 X97.906 Y113.123 E20.92066
G1 X97.107 Y113.08 E20.99252
G1 X96.295 Y113.156 E21.06576
G1 X95.526 Y113.343 E21.13683
G1 X94.956 Y113.564 E21.19173
G1 X94.512 Y113.716 E21.23387
G1 X94.049 Y113.79 E21.27598
G1 X93.581 Y113.784 E21.31801
G1 X93.12 Y113.699 E21.3601
G1 X92.68 Y113.537 E21.40221
G1 X92.274 Y113.302 E21.44434
G1 X91.914 Y113.002 E21.48642
G1 X91.61 Y112.646 E21.52846
G1 X91.372 Y112.243 E21.57049
G1 X91.204 Y111.805 E21.61262
G1 X91.114 Y111.345 E21.65471
G1 X91.103 Y110.876 E21.69684
G1 X91.168 Y110.43 E21.73731
G1 X91.58 Y108.64 E21.90226
G1 X91.603 Y108.545 E21.91104
G1 X93.233 Y101.475 E22.5626
G1 X93.377 Y101.029 E22.60469
G1 X93.595 Y100.614 E22.64678
G1 X93.879 Y100.242 E22.68881
G1 X94.223 Y99.923 E22.73094
M204 S3000
M205 X10 Y10
G0 X94.333 Y100.491
M204 S1800
M205 X8 Y8
G1 X94.662 Y100.223 E22.76905
G1 X95.035 Y100.021 E22.80714
G1 X95.439 Y99.894 E22.84517
G1 X95.913 Y99.843 E22.88799
G1 X99.948 Y99.843 E23.25034
G1 X100.37 Y99.883 E23.2884
G1 X100.777 Y100.001 E23.32646
G1 X101.154 Y100.194 E23.36449
G1 X101.489 Y100.454 E23.40257
G1 X101.769 Y100.772 E23.44062
G1 X101.985 Y101.137 E23.47871
G1 X102.128 Y101.536 E23.51677
G1 X102.198 Y102.094 E23.56728
G1 X102.197 Y104.094 E23.74688
G1 X102.157 Y104.516 E23.78495
G1 X102.038 Y104.923 E23.82303
G1 X101.846 Y105.3 E23.86102
G1 X101.586 Y105.635 E23.8991
G1 X101.164 Y105.976 E23.94783
G1 X101.164 Y110.506 E24.35463
G1 X101.124 Y110.928 E24.3927
G1 X101.006 Y111.335 E24.43075
G1 X100.813 Y111.712 E24.46879
G1 X100.553 Y112.047 E24.50687
G1 X100.235 Y112.327 E24.54492
G1 X99.87 Y112.543 E24.583
G1 X99.471 Y112.686 E24.62107
G1 X99.053 Y112.752 E24.65907
G1 X98.53 Y112.723 E24.70611
G1 X97.977 Y112.627 E24.75651
G1 X97.088 Y112.579 E24.83646
G1 X96.215 Y112.662 E24.91521
G1 X95.369 Y112.868 E24.9934
G1 X94.754 Y113.106 E25.05262
G1 X94.352 Y113.24 E25.09068
G1 X93.932 Y113.295 E25.12872
G1 X93.509 Y113.271 E25.16676
G1 X93.098 Y113.168 E25.20481
G1 X92.713 Y112.99 E25.24291
G1 X92.369 Y112.743 E25.28094
G1 X92.077 Y112.435 E25.31905
G1 X91.848 Y112.079 E25.35706
G1 X91.69 Y111.685 E25.39518
G1 X91.609 Y111.269 E25.43324
G1 X91.607 Y110.846 E25.47123
G1 X91.655 Y110.542 E25.49887
G1 X92.066 Y108.758 E25.66327
G1 X92.089 Y108.663 E25.67205
G1 X93.721 Y101.587 E26.32417
G1 X93.854 Y101.185 E26.3622
G1 X94.061 Y100.815 E26.40027
G1 X94.333 Y100.491 E26.43826
M204 S3000
M205 X10 Y10
G0 X94.782 Y100.757
M204 S1800
M205 X8 Y8
G1 X95.092 Y100.548 E26.47184
G1 X95.438 Y100.409 E26.50532
G1 X95.913 Y100.343 E26.54839
G1 X99.948 Y100.343 E26.91074
G1 X100.319 Y100.383 E26.94425
G1 X100.674 Y100.501 E26.97784
G1 X100.996 Y100.691 E27.01142
G1 X101.269 Y100.945 E27.0449
G1 X101.483 Y101.252 E27.07851
G1 X101.626 Y101.597 E27.11205
G1 X101.698 Y102.094 E27.15715
G1 X101.697 Y104.094 E27.33675
G1 X101.657 Y104.465 E27.37026
G1 X101.539 Y104.82 E27.40386
G1 X101.348 Y105.141 E27.4374
G1 X101.094 Y105.415 E27.47095
G1 X100.664 Y105.679 E27.51626
G1 X100.664 Y110.506 E27.94974
G1 X100.624 Y110.877 E27.98325
G1 X100.506 Y111.232 E28.01684
G1 X100.316 Y111.554 E28.05042
G1 X100.062 Y111.827 E28.08391
G1 X99.755 Y112.041 E28.11751
G1 X99.41 Y112.184 E28.15105
G1 X99.042 Y112.251 E28.18464
G1 X98.615 Y112.23 E28.22303
G1 X98.044 Y112.131 E28.27507
G1 X97.083 Y112.079 E28.3615
G1 X96.147 Y112.167 E28.44593
G1 X95.653 Y112.268 E28.49121
G1 X95.227 Y112.388 E28.53095
G1 X94.75 Y112.563 E28.57658
G1 X94.197 Y112.762 E28.62936
G1 X93.825 Y112.797 E28.66291
G1 X93.454 Y112.752 E28.69647
G1 X93.101 Y112.629 E28.73004
G1 X92.782 Y112.435 E28.76357
G1 X92.512 Y112.177 E28.79711
G1 X92.302 Y111.867 E28.83073
G1 X92.163 Y111.521 E28.86422
G1 X92.101 Y111.152 E28.89782
G1 X92.143 Y110.655 E28.94261
G1 X92.552 Y108.875 E29.10662
G1 X92.575 Y108.78 E29.1154
G1 X94.208 Y101.7 E29.76789
G1 X94.33 Y101.347 E29.80143
G1 X94.525 Y101.028 E29.83501
G1 X94.782 Y100.757 E29.86855
M204 S3000
M205 X10 Y10
G0 X95.223 Y101.051
M204 S1800
M205 X8 Y8
G1 X95.506 Y100.911 E29.8969
G1 X95.913 Y100.843 E29.93396
G1 X99.948 Y100.843 E30.29631
G1 X100.261 Y100.883 E30.32465
G1 X100.554 Y101 E30.35298
G1 X100.809 Y101.186 E30.38132
G1 X101.008 Y101.431 E30.40967
G1 X101.14 Y101.718 E30.43804
G1 X101.198 Y102.094 E30.4722
G1 X101.197 Y104.094 E30.65181
G1 X101.157 Y104.407 E30.68014
G1 X101.04 Y104.7 E30.70848
G1 X100.853 Y104.954 E30.7368
G1 X100.609 Y105.154 E30.76513
G1 X100.322 Y105.285 E30.79346
G1 X100.164 Y105.309 E30.80782
G1 X100.164 Y110.506 E31.27452
G1 X100.124 Y110.819 E31.30286
G1 X100.007 Y111.112 E31.33119
G1 X99.821 Y111.367 E31.35953
G1 X99.576 Y111.566 E31.38788
G1 X99.289 Y111.698 E31.41625
G1 X98.979 Y111.754 E31.44454
G1 X98.7 Y111.738 E31.46963
G1 X98.1 Y111.634 E31.52432
G1 X97.596 Y111.588 E31.56976
G1 X97.077 Y111.579 E31.61638
G1 X96.564 Y111.608 E31.66252
G1 X96.064 Y111.673 E31.7078
G1 X95.541 Y111.78 E31.75574
G1 X95.065 Y111.914 E31.80015
G1 X94.561 Y112.098 E31.84833
G1 X94.049 Y112.281 E31.89716
G1 X93.733 Y112.292 E31.92555
G1 X93.425 Y112.223 E31.9539
G1 X93.144 Y112.08 E31.98221
G1 X92.908 Y111.871 E32.01052
G1 X92.732 Y111.609 E32.03886
G1 X92.626 Y111.312 E32.06718
G1 X92.599 Y110.997 E32.09557
G1 X92.63 Y110.767 E32.11642
G1 X93.038 Y108.993 E32.27988
G1 X93.061 Y108.898 E32.28866
G1 X94.695 Y101.812 E32.9417
G1 X94.804 Y101.516 E32.97003
G1 X94.984 Y101.257 E32.99835
G1 X95.223 Y101.051 E33.02669
M204 S3000
M205 X10 Y10
G0 X95.435 Y101.515
M204 S1800
M205 X8 Y8
G1 X95.646 Y101.392 E33.04862
G1 X95.913 Y101.343 E33.073
G1 X99.948 Y101.343 E33.43535
G1 X100.189 Y101.383 E33.45729
G1 X100.404 Y101.498 E33.47918
G1 X100.571 Y101.676 E33.5011
G1 X100.672 Y101.898 E33.523
G1 X100.698 Y102.093 E33.54067
G1 X100.697 Y104.093 E33.72028
G1 X100.657 Y104.334 E33.74221
G1 X100.542 Y104.55 E33.76419
G1 X100.364 Y104.716 E33.78605
G1 X100.142 Y104.817 E33.80795
G1 X99.664 Y104.843 E33.85094
G1 X99.664 Y110.506 E34.35949
G1 X99.624 Y110.747 E34.38143
G1 X99.509 Y110.962 E34.40332
G1 X99.331 Y111.129 E34.42524
G1 X99.109 Y111.23 E34.44714
G1 X98.786 Y111.245 E34.47618
G1 X98.171 Y111.138 E34.53224
G1 X97.623 Y111.089 E34.58165
G1 X97.072 Y111.079 E34.63114
G1 X96.524 Y111.109 E34.68042
G1 X95.969 Y111.182 E34.73069
G1 X95.426 Y111.293 E34.78046
G1 X94.908 Y111.439 E34.82879
G1 X94.374 Y111.634 E34.87984
G1 X93.914 Y111.794 E34.92358
G1 X93.67 Y111.776 E34.94555
G1 X93.446 Y111.68 E34.96744
G1 X93.264 Y111.517 E34.98938
G1 X93.144 Y111.305 E35.01126
