;FLAVOR:Marlin
;TIME:10308
;Filament used: 5.66674m
;Layer height: 0.2
;MINX:63.793
;MINY:75.033
;MINZ:0.3
;MAXX:155.552
;MAXY:135.62
;MAXZ:10.9
;Generated with Cura_SteamEngine 4.8.0
M140 S60
M105
M190 S60
M104 S190
M105
M109 S190
M82 ;absolute extrusion mode
G21 ;metric values
G90 ;absolute positioning
M82 ;set extruder to absolute mode
M107 ;start with the fan off
G28 X0 Y0 ;move X/Y to min endstops
G28 Z0 ;move Z to min endstops
G1 Z15.0 F100 ;move the platform down 15mm
G92 E0 ;zero the extruded length
G1 F200 E3 ;extrude 3mm of feed stock
G92 E0 ;zero the extruded length again
G1 F100
G0 Y20 F100
M117 Printing...
G5
G92 E0
G92 E0
;LAYER_COUNT:54
;LAYER:0
M106 S255
M204 S3000
M205 X10 Y10
G0 F600 X66.898 Y91.852 Z0.3
M204 S1800
M205 X8 Y8
;TYPE:SKIRT
G1 X67.544 Y91.449 E0.06838
G1 X68.229 Y91.116 E0.13677
G1 X69.265 Y90.767 E0.23495
G1 X70.265 Y90.514 E0.32758
G1 X77.466 Y88.811 E0.99208
G1 X86.618 Y86.64 E1.83676
G1 X133.217 Y75.603 E6.13724
G1 X133.996 Y75.43 E6.2089
G1 X134.688 Y75.297 E6.27218
G1 X135.207 Y75.213 E6.31939
G1 X135.858 Y75.132 E6.3783
G1 X136.503 Y75.076 E6.43644
G1 X137.013 Y75.046 E6.48232
G1 X137.94 Y75.033 E6.56558
G1 X138.713 Y75.06 E6.63504
G1 X138.916 Y75.073 E6.6533
G1 X139.502 Y75.12 E6.7061
G1 X140.153 Y75.197 E6.76497
G1 X140.809 Y75.299 E6.82458
G1 X141.526 Y75.439 E6.89019
G1 X142.237 Y75.609 E6.95584
G1 X142.929 Y75.805 E7.02043
G1 X143.602 Y76.025 E7.08401
G1 X144.321 Y76.294 E7.15295
G1 X144.952 Y76.559 E7.21441
G1 X145.541 Y76.833 E7.27275
G1 X146.212 Y77.177 E7.34046
G1 X146.657 Y77.426 E7.38625
G1 X147.06 Y77.669 E7.42851
G1 X147.559 Y77.985 E7.48155
G1 X148.107 Y78.362 E7.54129
G1 X148.642 Y78.76 E7.60117
G1 X149.25 Y79.251 E7.67135
G1 X149.74 Y79.682 E7.72995
G1 X150.29 Y80.206 E7.79817
G1 X150.78 Y80.712 E7.86142
G1 X151.212 Y81.193 E7.91948
G1 X151.368 Y81.377 E7.94115
G1 X151.717 Y81.804 E7.99067
G1 X152.166 Y82.397 E8.05747
G1 X152.278 Y82.554 E8.07478
G1 X152.584 Y82.998 E8.12321
G1 X152.979 Y83.624 E8.18968
G1 X153.33 Y84.237 E8.25312
G1 X153.595 Y84.732 E8.30354
G1 X153.87 Y85.286 E8.35908
G1 X154.095 Y85.787 E8.4084
G1 X154.354 Y86.42 E8.46982
G1 X154.586 Y87.05 E8.53011
G1 X154.818 Y87.781 E8.59898
G1 X154.967 Y88.312 E8.64851
G1 X155.097 Y88.836 E8.69699
G1 X155.215 Y89.387 E8.74759
G1 X155.364 Y90.242 E8.82553
G1 X155.44 Y90.828 E8.8786
G1 X155.522 Y91.768 E8.96333
G1 X155.551 Y92.522 E9.03109
G1 X155.552 Y93.041 E9.0777
G1 X155.535 Y93.695 E9.13645
G1 X155.484 Y94.437 E9.20324
G1 X155.43 Y94.952 E9.24974
G1 X155.346 Y95.577 E9.30637
G1 X155.215 Y96.308 E9.37307
G1 X155.104 Y96.832 E9.42117
G1 X154.942 Y97.486 E9.48167
G1 X154.735 Y98.195 E9.548
G1 X154.514 Y98.852 E9.61025
G1 X154.252 Y99.537 E9.67611
G1 X154.004 Y100.114 E9.73251
G1 X153.743 Y100.675 E9.78807
G1 X153.382 Y101.378 E9.85904
G1 X153.09 Y101.89 E9.91197
G1 X152.602 Y102.676 E9.99505
G1 X152.146 Y103.331 E10.06673
G1 X151.757 Y103.847 E10.12476
G1 X151.183 Y104.538 E10.20543
G1 X150.792 Y104.977 E10.25822
G1 X150.297 Y105.488 E10.32211
G1 X149.826 Y105.941 E10.38079
G1 X149.365 Y106.353 E10.43632
G1 X148.925 Y106.719 E10.48771
G1 X148.385 Y107.134 E10.54887
G1 X147.847 Y107.521 E10.60839
G1 X147.573 Y107.705 E10.63803
G1 X147.117 Y107.998 E10.6867
G1 X146.467 Y108.381 E10.75445
G1 X145.891 Y108.692 E10.81324
G1 X145.431 Y108.921 E10.85938
G1 X144.765 Y109.221 E10.92498
G1 X144.586 Y109.296 E10.94241
G1 X143.8 Y109.611 E11.01845
G1 X143.511 Y109.721 E11.04622
G1 X135.239 Y112.8 E11.83885
G1 X75.805 Y134.947 E17.53468
G1 X75.127 Y135.189 E17.59933
G1 X74.398 Y135.407 E17.66766
G1 X73.649 Y135.547 E17.73609
G1 X72.944 Y135.607 E17.79963
G1 X72.482 Y135.619 E17.84113
G1 X71.646 Y135.62 E17.9162
G1 X70.948 Y135.61 E17.97889
G1 X70.189 Y135.559 E18.04721
G1 X69.438 Y135.429 E18.11565
G1 X68.706 Y135.221 E18.18399
G1 X68 Y134.937 E18.25233
G1 X67.327 Y134.581 E18.3207
G1 X66.695 Y134.156 E18.38909
G1 X66.112 Y133.667 E18.45742
G1 X65.582 Y133.12 E18.52582
G1 X65.114 Y132.52 E18.59416
G1 X64.71 Y131.874 E18.66258
G1 X64.377 Y131.19 E18.7309
G1 X64.117 Y130.474 E18.7993
G1 X63.933 Y129.735 E18.86769
G1 X63.829 Y128.981 E18.93604
G1 X63.796 Y128.225 E19.004
G1 X63.793 Y128.029 E19.0216
G1 X63.794 Y98.349 E21.68694
G1 X63.804 Y97.684 E21.74666
G1 X63.855 Y96.924 E21.81507
G1 X63.986 Y96.174 E21.88344
G1 X64.195 Y95.442 E21.9518
G1 X64.479 Y94.736 E22.02014
G1 X64.836 Y94.064 E22.08847
G1 X65.261 Y93.432 E22.15687
G1 X65.75 Y92.849 E22.2252
G1 X66.298 Y92.32 E22.2936
G1 X66.898 Y91.852 E22.36193
M204 S3000
M205 X10 Y10
G0 X67.377 Y92.132
M204 S1800
M205 X8 Y8
G1 X68.014 Y91.766 E22.42791
G1 X68.687 Y91.471 E22.4939
G1 X69.388 Y91.252 E22.55985
G1 X70.38 Y91 E22.65176
G1 X77.581 Y89.297 E23.31627
G1 X86.733 Y87.127 E24.16092
G1 X133.326 Y76.092 E28.46083
G1 X134.105 Y75.919 E28.53249
G1 X134.768 Y75.791 E28.59313
G1 X135.287 Y75.707 E28.64035
G1 X135.912 Y75.63 E28.6969
G1 X136.545 Y75.574 E28.75396
G1 X137.289 Y75.538 E28.82086
G1 X137.943 Y75.533 E28.87959
G1 X138.687 Y75.559 E28.94644
G1 X138.876 Y75.572 E28.96345
G1 X139.462 Y75.619 E29.01625
G1 X140.086 Y75.693 E29.07268
G1 X140.731 Y75.792 E29.13128
G1 X141.424 Y75.929 E29.19472
G1 X142.117 Y76.095 E29.25871
G1 X142.785 Y76.284 E29.32105
G1 X143.444 Y76.5 E29.38333
G1 X144.138 Y76.759 E29.44985
G1 X144.756 Y77.019 E29.51006
G1 X145.326 Y77.284 E29.56651
G1 X145.981 Y77.62 E29.63262
G1 X146.636 Y77.995 E29.7004
G1 X146.792 Y78.091 E29.71685
G1 X147.291 Y78.407 E29.76989
G1 X147.818 Y78.77 E29.82735
G1 X148.342 Y79.16 E29.88601
G1 X148.928 Y79.634 E29.9537
G1 X149.408 Y80.056 E30.01109
G1 X149.938 Y80.561 E30.07683
G1 X150.42 Y81.059 E30.13907
G1 X150.835 Y81.522 E30.19491
G1 X150.98 Y81.693 E30.21504
G1 X151.329 Y82.12 E30.26457
G1 X151.762 Y82.691 E30.32892
G1 X151.866 Y82.838 E30.34509
G1 X152.172 Y83.282 E30.39351
G1 X152.552 Y83.884 E30.45744
G1 X152.889 Y84.473 E30.51838
G1 X153.154 Y84.968 E30.56881
G1 X153.415 Y85.494 E30.62154
G1 X153.634 Y85.981 E30.66949
G1 X153.89 Y86.605 E30.73006
G1 X154.116 Y87.221 E30.78898
G1 X154.34 Y87.925 E30.85533
G1 X154.485 Y88.445 E30.9038
G1 X154.611 Y88.954 E30.95089
G1 X154.724 Y89.479 E30.99912
G1 X154.869 Y90.308 E31.0747
G1 X154.942 Y90.88 E31.12648
G1 X155.024 Y91.807 E31.21005
G1 X155.051 Y92.534 E31.27538
G1 X155.052 Y93.039 E31.32073
G1 X155.035 Y93.68 E31.37832
G1 X154.985 Y94.397 E31.44286
G1 X154.933 Y94.896 E31.48792
G1 X154.85 Y95.509 E31.54347
G1 X154.724 Y96.214 E31.60778
G1 X154.615 Y96.726 E31.65479
G1 X154.458 Y97.363 E31.71371
G1 X154.256 Y98.049 E31.77792
G1 X154.045 Y98.679 E31.83759
G1 X153.788 Y99.352 E31.90228
G1 X153.55 Y99.905 E31.95635
G1 X153.295 Y100.453 E32.01063
G1 X152.947 Y101.133 E32.07922
G1 X152.662 Y101.632 E32.13083
G1 X152.18 Y102.407 E32.21279
G1 X151.739 Y103.041 E32.28214
G1 X151.367 Y103.535 E32.33768
G1 X150.803 Y104.214 E32.41694
G1 X150.421 Y104.642 E32.46846
G1 X149.942 Y105.137 E32.53032
G1 X149.49 Y105.57 E32.58653
G1 X149.041 Y105.973 E32.64071
G1 X148.609 Y106.331 E32.69109
G1 X148.082 Y106.736 E32.75078
G1 X147.557 Y107.113 E32.80882
G1 X147.303 Y107.285 E32.83637
G1 X146.847 Y107.578 E32.88505
G1 X146.219 Y107.947 E32.95046
G1 X145.665 Y108.246 E33.00699
G1 X145.021 Y108.562 E33.07141
G1 X144.399 Y108.832 E33.1323
G1 X143.623 Y109.143 E33.20738
G1 X143.337 Y109.252 E33.23486
G1 X135.065 Y112.331 E34.0275
G1 X75.725 Y134.444 E39.71435
G1 X74.959 Y134.718 E39.78741
G1 X74.255 Y134.927 E39.85336
G1 X73.532 Y135.058 E39.91934
G1 X72.927 Y135.107 E39.97385
G1 X72.481 Y135.119 E40.01391
G1 X71.653 Y135.12 E40.08827
G1 X70.955 Y135.11 E40.15096
G1 X70.222 Y135.06 E40.21694
G1 X69.499 Y134.93 E40.28291
G1 X68.795 Y134.722 E40.34883
G1 X68.117 Y134.439 E40.41481
G1 X67.474 Y134.085 E40.48072
G1 X66.873 Y133.662 E40.54672
G1 X66.322 Y133.176 E40.6127
G1 X65.827 Y132.634 E40.67862
G1 X65.393 Y132.041 E40.74461
G1 X65.027 Y131.404 E40.81058
G1 X64.732 Y130.731 E40.87657
G1 X64.512 Y130.03 E40.94255
G1 X64.369 Y129.31 E41.00847
G1 X64.304 Y128.544 E41.0775
G1 X64.293 Y128.029 E41.12376
G1 X64.294 Y98.357 E43.78838
G1 X64.304 Y97.692 E43.8481
G1 X64.355 Y96.959 E43.91409
G1 X64.485 Y96.236 E43.98006
G1 X64.693 Y95.531 E44.04607
G1 X64.977 Y94.854 E44.11199
G1 X65.332 Y94.211 E44.17795
G1 X65.755 Y93.61 E44.24395
G1 X66.241 Y93.059 E44.30993
G1 X66.784 Y92.564 E44.37591
G1 X67.377 Y92.132 E44.4418
M204 S3000
M205 X10 Y10
G0 X67.268 Y92.82
M204 S1800
M205 X8 Y8
G1 X67.854 Y92.424 E44.50531
G1 X68.48 Y92.097 E44.56874
G1 X69.14 Y91.843 E44.63224
G1 X69.511 Y91.736 E44.66692
G1 X70.495 Y91.487 E44.75807
G1 X77.701 Y89.783 E45.42303
G1 X86.848 Y87.613 E46.26725
G1 X133.434 Y76.58 E50.56651
G1 X134.213 Y76.407 E50.63817
G1 X134.847 Y76.284 E50.69617
G1 X135.366 Y76.2 E50.74338
G1 X135.966 Y76.127 E50.79766
G1 X136.587 Y76.072 E50.85364
G1 X137.305 Y76.038 E50.9182
G1 X137.945 Y76.033 E50.97567
G1 X138.661 Y76.058 E51.04001
G1 X138.836 Y76.07 E51.05576
G1 X139.422 Y76.117 E51.10855
G1 X140.02 Y76.188 E51.16263
G1 X140.653 Y76.286 E51.22015
G1 X141.322 Y76.418 E51.28139
G1 X141.998 Y76.58 E51.34382
G1 X142.642 Y76.763 E51.40394
G1 X143.287 Y76.974 E51.46488
G1 X143.955 Y77.225 E51.52896
G1 X144.56 Y77.479 E51.58789
G1 X145.111 Y77.736 E51.64249
G1 X145.75 Y78.064 E51.70699
G1 X146.38 Y78.425 E51.7722
G1 X146.525 Y78.514 E51.78747
G1 X147.024 Y78.83 E51.84051
G1 X147.528 Y79.177 E51.89546
G1 X148.042 Y79.56 E51.95303
G1 X148.607 Y80.018 E52.01834
G1 X149.076 Y80.43 E52.0744
G1 X149.586 Y80.917 E52.13773
G1 X149.692 Y81.024 E52.15126
G1 X150.06 Y81.406 E52.19889
G1 X150.459 Y81.851 E52.25256
G1 X150.593 Y82.01 E52.27124
G1 X151.029 Y82.546 E52.33328
G1 X151.358 Y82.986 E52.38262
G1 X151.454 Y83.121 E52.3975
G1 X151.76 Y83.565 E52.44592
G1 X152.125 Y84.145 E52.50746
G1 X152.448 Y84.709 E52.56583
G1 X152.713 Y85.204 E52.61625
G1 X152.96 Y85.701 E52.66609
G1 X153.174 Y86.176 E52.71287
G1 X153.425 Y86.789 E52.77236
G1 X153.646 Y87.391 E52.82995
G1 X153.861 Y88.07 E52.89391
G1 X154.002 Y88.577 E52.94117
G1 X154.125 Y89.072 E52.98697
G1 X154.232 Y89.57 E53.03271
G1 X154.373 Y90.374 E53.10601
G1 X154.445 Y90.932 E53.15654
G1 X154.525 Y91.846 E53.23893
G1 X154.551 Y92.547 E53.30193
G1 X154.549 Y93.211 E53.36156
G1 X154.518 Y93.97 E53.42977
G1 X154.468 Y94.555 E53.4825
G1 X154.355 Y95.44 E53.56262
G1 X154.233 Y96.119 E53.62457
G1 X154.126 Y96.62 E53.67058
G1 X153.973 Y97.24 E53.72793
G1 X153.778 Y97.904 E53.79007
G1 X153.576 Y98.506 E53.8471
G1 X153.323 Y99.167 E53.91065
G1 X153.096 Y99.696 E53.96235
G1 X152.847 Y100.23 E54.01526
G1 X152.511 Y100.888 E54.08161
G1 X152.234 Y101.374 E54.13184
G1 X151.758 Y102.138 E54.21268
G1 X151.332 Y102.751 E54.27972
G1 X150.976 Y103.222 E54.33274
G1 X150.422 Y103.89 E54.41067
G1 X150.049 Y104.308 E54.46098
G1 X149.586 Y104.785 E54.52068
G1 X149.155 Y105.199 E54.57434
G1 X148.716 Y105.593 E54.62732
G1 X148.294 Y105.943 E54.67655
G1 X147.779 Y106.338 E54.73484
G1 X147.268 Y106.705 E54.79133
G1 X147.033 Y106.864 E54.81681
G1 X146.577 Y107.157 E54.86549
G1 X145.97 Y107.514 E54.92873
G1 X145.438 Y107.8 E54.98297
G1 X144.808 Y108.109 E55.04598
G1 X144.212 Y108.368 E55.10434
G1 X143.445 Y108.676 E55.17856
G1 X143.162 Y108.783 E55.20573
G1 X134.892 Y111.862 E55.9982
G1 X75.469 Y134.005 E61.69298
G1 X74.791 Y134.247 E61.75763
G1 X74.113 Y134.447 E61.82111
G1 X73.417 Y134.569 E61.88456
G1 X72.909 Y134.607 E61.93031
G1 X72.48 Y134.619 E61.96885
G1 X71.66 Y134.62 E62.04249
G1 X70.962 Y134.61 E62.10518
G1 X70.257 Y134.56 E62.16865
G1 X69.563 Y134.431 E62.23204
G1 X68.887 Y134.224 E62.29552
G1 X68.239 Y133.942 E62.35899
G1 X67.626 Y133.589 E62.42251
G1 X67.058 Y133.168 E62.486
G1 X66.541 Y132.687 E62.54942
G1 X66.081 Y132.15 E62.61292
G1 X65.685 Y131.564 E62.67643
G1 X65.358 Y130.938 E62.73985
G1 X65.103 Y130.278 E62.80339
G1 X64.925 Y129.594 E62.86686
G1 X64.825 Y128.895 E62.93027
G1 X64.795 Y128.198 E62.99292
G1 X64.793 Y128.029 E63.0081
G1 X64.794 Y98.364 E65.67209
G1 X64.804 Y97.699 E65.73181
G1 X64.854 Y96.994 E65.79528
G1 X64.984 Y96.299 E65.85878
G1 X65.192 Y95.624 E65.92221
G1 X65.474 Y94.976 E65.98567
G1 X65.828 Y94.364 E66.04916
G1 X66.248 Y93.796 E66.1126
G1 X66.731 Y93.279 E66.17614
G1 X67.268 Y92.82 E66.23958
M204 S3000
M205 X10 Y10
G0 X67.75 Y93.087
M204 S1800
M205 X8 Y8
G1 X68.327 Y92.731 E66.30046
G1 X68.941 Y92.445 E66.36129
G1 X69.635 Y92.221 E66.42678
G1 X70.61 Y91.973 E66.51712
G1 X77.816 Y90.269 E67.18208
G1 X86.964 Y88.1 E68.02637
G1 X133.542 Y77.068 E72.32491
G1 X134.321 Y76.895 E72.39657
G1 X134.927 Y76.778 E72.452
G1 X135.446 Y76.694 E72.49921
G1 X136.02 Y76.624 E72.55114
G1 X136.629 Y76.57 E72.60604
G1 X137.32 Y76.538 E72.66816
G1 X137.947 Y76.533 E72.72447
G1 X138.635 Y76.558 E72.78629
G1 X138.796 Y76.568 E72.80078
G1 X139.382 Y76.615 E72.85357
G1 X139.954 Y76.684 E72.90531
G1 X140.575 Y76.78 E72.96174
G1 X141.221 Y76.908 E73.02088
G1 X141.878 Y77.066 E73.08157
G1 X142.498 Y77.242 E73.13944
G1 X143.129 Y77.449 E73.19908
G1 X143.772 Y77.69 E73.26074
G1 X144.364 Y77.939 E73.31842
G1 X144.896 Y78.187 E73.37113
G1 X145.52 Y78.507 E73.43411
G1 X146.124 Y78.854 E73.49666
G1 X146.257 Y78.936 E73.51069
G1 X146.756 Y79.252 E73.56373
G1 X147.238 Y79.585 E73.61634
G1 X147.742 Y79.96 E73.67276
G1 X148.286 Y80.401 E73.73564
G1 X148.744 Y80.804 E73.79043
G1 X149.235 Y81.272 E73.85134
G1 X149.7 Y81.753 E73.91142
G1 X150.083 Y82.18 E73.96293
G1 X150.206 Y82.326 E73.98008
G1 X150.635 Y82.853 E74.0411
G1 X150.954 Y83.281 E74.08904
G1 X151.043 Y83.405 E74.10275
G1 X151.349 Y83.849 E74.15117
G1 X151.698 Y84.405 E74.21012
G1 X152.007 Y84.945 E74.26599
G1 X152.272 Y85.44 E74.31641
G1 X152.505 Y85.909 E74.36344
G1 X152.713 Y86.37 E74.40886
G1 X152.96 Y86.973 E74.46738
G1 X153.176 Y87.562 E74.52372
G1 X153.383 Y88.215 E74.58523
G1 X153.52 Y88.709 E74.63127
G1 X153.675 Y89.347 E74.69023
G1 X153.831 Y90.151 E74.76378
G1 X153.928 Y90.822 E74.82466
G1 X153.989 Y91.396 E74.8765
G1 X154.042 Y92.19 E74.94796
G1 X154.053 Y92.717 E74.9953
G1 X154.035 Y93.649 E75.07901
G1 X153.989 Y94.317 E75.13914
G1 X153.921 Y94.931 E75.19461
G1 X153.81 Y95.672 E75.2619
G1 X153.638 Y96.515 E75.33916
G1 X153.488 Y97.117 E75.39488
G1 X153.3 Y97.758 E75.45486
G1 X153.107 Y98.333 E75.50933
G1 X152.858 Y98.983 E75.57184
G1 X152.642 Y99.487 E75.62108
G1 X152.399 Y100.007 E75.67263
G1 X152.075 Y100.642 E75.73664
G1 X151.806 Y101.115 E75.78551
G1 X151.336 Y101.87 E75.86537
G1 X150.924 Y102.461 E75.93007
G1 X150.586 Y102.91 E75.98054
G1 X150.041 Y103.567 E76.0572
G1 X149.678 Y103.973 E76.10611
G1 X149.231 Y104.434 E76.16377
G1 X148.819 Y104.828 E76.21496
G1 X148.391 Y105.212 E76.2666
G1 X147.979 Y105.554 E76.31469
G1 X147.476 Y105.94 E76.37162
G1 X146.979 Y106.297 E76.42658
G1 X146.762 Y106.443 E76.45006
G1 X146.306 Y106.736 E76.49874
G1 X145.722 Y107.08 E76.55961
G1 X145.212 Y107.354 E76.6116
G1 X144.596 Y107.656 E76.6732
G1 X144.025 Y107.905 E76.72915
G1 X143.267 Y108.209 E76.80249
G1 X142.988 Y108.315 E76.82929
G1 X134.716 Y111.394 E77.62192
G1 X75.376 Y133.507 E83.30878
G1 X74.623 Y133.776 E83.38058
G1 X73.972 Y133.966 E83.44148
G1 X73.303 Y134.078 E83.5024
G1 X72.664 Y134.115 E83.55988
G1 X72.478 Y134.119 E83.57658
G1 X71.668 Y134.12 E83.64932
G1 X70.97 Y134.11 E83.71201
G1 X70.294 Y134.061 E83.77288
G1 X69.628 Y133.932 E83.8338
G1 X68.982 Y133.726 E83.89469
G1 X68.365 Y133.445 E83.95557
G1 X67.786 Y133.093 E84.01642
G1 X67.251 Y132.676 E84.07734
G1 X66.77 Y132.198 E84.13823
G1 X66.348 Y131.668 E84.19907
G1 X65.991 Y131.091 E84.26
G1 X65.705 Y130.477 E84.32083
G1 X65.493 Y129.833 E84.38172
G1 X65.359 Y129.168 E84.44264
G1 X65.304 Y128.517 E84.50131
G1 X65.293 Y128.029 E84.54514
G1 X65.294 Y98.372 E87.20841
G1 X65.304 Y97.707 E87.26813
G1 X65.354 Y97.03 E87.3291
G1 X65.483 Y96.365 E87.38993
G1 X65.69 Y95.719 E87.45085
G1 X65.971 Y95.103 E87.51165
G1 X66.323 Y94.523 E87.57257
G1 X66.741 Y93.989 E87.63347
G1 X67.219 Y93.508 E87.69437
G1 X67.75 Y93.087 E87.75522
M204 S3000
M205 X10 Y10
G0 X68.229 Y93.368
M204 S1800
M205 X8 Y8
G1 X68.795 Y93.053 E87.81339
G1 X69.396 Y92.811 E87.87158
G1 X69.758 Y92.705 E87.90545
G1 X70.725 Y92.46 E87.99503
G1 X77.931 Y90.756 E88.66
