;FLAVOR:Marlin
;TIME:10283
;Filament used: 5.66834m
;Layer height: 0.2
;MINX:64.446
;MINY:75.033
;MINZ:0.3
;MAXX:156.207
;MAXY:135.621
;MAXZ:10.9
;Generated with Cura_SteamEngine 4.8.0
M140 S60
M105
M190 S60
M104 S190
M105
M109 S190
M82 ;absolute extrusion mode
G21 ;metric values
G90 ;absolute positioning
M82 ;set extruder to absolute mode
M107 ;start with the fan off
G28 X0 Y0 ;move X/Y to min endstops
G28 Z0 ;move Z to min endstops
G1 Z15.0 F100 ;move the platform down 15mm
G92 E0 ;zero the extruded length
G1 F200 E3 ;extrude 3mm of feed stock
G92 E0 ;zero the extruded length again
G1 F100
G0 Y20 F100
M117 Printing...
G5
G92 E0
G92 E0
;LAYER_COUNT:54
;LAYER:0
M106 S255
M204 S3000
M205 X10 Y10
G0 F600 X70.564 Y79.412 Z0.3
M204 S1800
M205 X8 Y8
;TYPE:SKIRT
G1 X71.03 Y79.02 E0.05469
G1 X71.46 Y78.68 E0.10391
G1 X71.84 Y78.402 E0.14619
G1 X72.281 Y78.092 E0.1946
G1 X72.873 Y77.709 E0.25792
G1 X73.423 Y77.382 E0.31538
G1 X73.983 Y77.075 E0.37273
G1 X74.226 Y76.95 E0.39727
G1 X74.694 Y76.721 E0.44406
G1 X75.356 Y76.425 E0.50918
G1 X76.019 Y76.162 E0.57324
G1 X76.802 Y75.89 E0.64767
G1 X77.393 Y75.71 E0.70315
G1 X78.055 Y75.536 E0.76462
G1 X78.319 Y75.475 E0.78895
G1 X78.899 Y75.352 E0.8422
G1 X79.617 Y75.23 E0.9076
G1 X80.231 Y75.149 E0.96322
G1 X80.732 Y75.098 E1.00844
G1 X81.666 Y75.042 E1.09247
G1 X82.051 Y75.033 E1.12705
G1 X82.624 Y75.037 E1.17851
G1 X83.3 Y75.061 E1.23925
G1 X83.872 Y75.106 E1.29078
G1 X84.529 Y75.178 E1.35013
G1 X85.051 Y75.251 E1.39746
G1 X85.446 Y75.321 E1.43349
G1 X86.001 Y75.43 E1.48428
G1 X86.657 Y75.574 E1.54459
G1 X149.988 Y90.573 E7.38919
G1 X150.733 Y90.762 E7.45822
G1 X151.46 Y90.989 E7.52661
G1 X152.159 Y91.291 E7.59499
G1 X152.822 Y91.664 E7.66331
G1 X153.443 Y92.105 E7.7317
G1 X154.014 Y92.608 E7.80004
G1 X154.529 Y93.169 E7.86843
G1 X154.982 Y93.78 E7.93673
G1 X155.369 Y94.436 E8.00513
G1 X155.685 Y95.129 E8.07353
G1 X155.927 Y95.851 E8.14191
G1 X156.091 Y96.594 E8.21024
G1 X156.189 Y97.654 E8.30584
G1 X156.207 Y98.712 E8.40086
G1 X156.205 Y127.743 E11.00791
G1 X156.195 Y128.462 E11.07249
G1 X156.145 Y129.221 E11.1408
G1 X156.015 Y129.972 E11.20924
G1 X155.807 Y130.704 E11.27758
G1 X155.523 Y131.411 E11.346
G1 X155.167 Y132.083 E11.41429
G1 X154.743 Y132.715 E11.48264
G1 X154.254 Y133.299 E11.55104
G1 X153.707 Y133.829 E11.61944
G1 X153.107 Y134.298 E11.68782
G1 X152.462 Y134.701 E11.75612
G1 X151.778 Y135.035 E11.82448
G1 X151.062 Y135.295 E11.89289
G1 X150.323 Y135.479 E11.96128
G1 X149.569 Y135.584 E12.02964
G1 X148.847 Y135.618 E12.09455
G1 X148.623 Y135.621 E12.11467
G1 X147.907 Y135.62 E12.17897
G1 X147.209 Y135.61 E12.24165
G1 X146.45 Y135.559 E12.30997
G1 X145.699 Y135.429 E12.37841
G1 X145.034 Y135.243 E12.44042
G1 X144.489 Y135.058 E12.49211
G1 X143.68 Y134.758 E12.56959
G1 X141.657 Y134 E12.7636
G1 X80.169 Y111.09 E18.65619
G1 X76.421 Y109.696 E19.0153
G1 X75.918 Y109.502 E19.06371
G1 X75.275 Y109.241 E19.12603
G1 X74.596 Y108.934 E19.19295
G1 X74.129 Y108.702 E19.23978
G1 X73.525 Y108.377 E19.30137
G1 X72.911 Y108.015 E19.36538
G1 X72.323 Y107.637 E19.42815
G1 X71.866 Y107.321 E19.47805
G1 X71.543 Y107.081 E19.51419
G1 X71.136 Y106.766 E19.5604
G1 X70.85 Y106.534 E19.59348
G1 X70.433 Y106.176 E19.64283
G1 X69.872 Y105.655 E19.71158
G1 X69.468 Y105.249 E19.76302
G1 X69.049 Y104.801 E19.8181
G1 X68.45 Y104.107 E19.90043
G1 X67.956 Y103.469 E19.97289
G1 X67.547 Y102.894 E20.03626
G1 X67.097 Y102.205 E20.11016
G1 X66.819 Y101.734 E20.15928
G1 X66.538 Y101.226 E20.21141
G1 X66.188 Y100.537 E20.28081
G1 X65.943 Y100 E20.33381
G1 X65.632 Y99.246 E20.40706
G1 X65.436 Y98.71 E20.45831
G1 X65.242 Y98.124 E20.51374
G1 X65.044 Y97.432 E20.57838
G1 X64.901 Y96.855 E20.63176
G1 X64.785 Y96.323 E20.68066
G1 X64.649 Y95.539 E20.75212
G1 X64.564 Y94.918 E20.8084
G1 X64.506 Y94.346 E20.86004
G1 X64.462 Y93.614 E20.92589
G1 X64.446 Y93.029 E20.97844
G1 X64.448 Y92.408 E21.03421
G1 X64.479 Y91.739 E21.09435
G1 X64.531 Y91.099 E21.15202
G1 X64.587 Y90.601 E21.19702
G1 X64.729 Y89.673 E21.28133
G1 X64.878 Y88.951 E21.34753
G1 X65.016 Y88.381 E21.4002
G1 X65.172 Y87.81 E21.45335
G1 X65.389 Y87.13 E21.51745
G1 X65.595 Y86.559 E21.57196
G1 X65.824 Y85.977 E21.62813
G1 X66.104 Y85.344 E21.69029
G1 X66.349 Y84.839 E21.74069
G1 X66.613 Y84.339 E21.79147
G1 X66.966 Y83.722 E21.8553
G1 X67.272 Y83.219 E21.90818
G1 X67.679 Y82.615 E21.97358
G1 X68.072 Y82.075 E22.03356
G1 X68.541 Y81.486 E22.10117
G1 X68.968 Y80.989 E22.16001
G1 X69.533 Y80.385 E22.23429
G1 X69.67 Y80.248 E22.25169
G1 X70.061 Y79.866 E22.30077
G1 X70.564 Y79.412 E22.36162
M204 S3000
M205 X10 Y10
G0 X70.892 Y79.789
M204 S1800
M205 X8 Y8
G1 X71.35 Y79.404 E22.41535
G1 X71.758 Y79.082 E22.46203
G1 X72.127 Y78.811 E22.50314
G1 X72.568 Y78.501 E22.55155
G1 X73.139 Y78.132 E22.6126
G1 X73.676 Y77.813 E22.66869
G1 X74.22 Y77.515 E22.7244
G1 X74.446 Y77.399 E22.74721
G1 X74.914 Y77.17 E22.794
G1 X75.553 Y76.885 E22.85683
G1 X76.201 Y76.628 E22.91943
G1 X76.958 Y76.365 E22.9914
G1 X77.537 Y76.189 E23.04574
G1 X78.177 Y76.021 E23.10516
G1 X78.423 Y75.964 E23.12784
G1 X79.003 Y75.841 E23.18108
G1 X79.693 Y75.724 E23.24393
G1 X80.295 Y75.645 E23.29846
G1 X81.039 Y75.576 E23.36556
G1 X81.691 Y75.542 E23.42419
G1 X82.05 Y75.533 E23.45644
G1 X82.609 Y75.537 E23.50664
G1 X83.27 Y75.56 E23.56603
G1 X83.828 Y75.604 E23.6163
G1 X84.473 Y75.675 E23.67457
G1 X85.184 Y75.781 E23.73913
G1 X85.905 Y75.921 E23.80508
G1 X86.548 Y76.062 E23.8642
G1 X149.986 Y91.088 E29.71871
G1 X150.609 Y91.247 E29.77645
G1 X151.31 Y91.467 E29.84242
G1 X151.983 Y91.762 E29.90841
G1 X152.619 Y92.128 E29.97431
G1 X153.213 Y92.561 E30.04032
G1 X153.755 Y93.057 E30.1063
G1 X154.241 Y93.608 E30.17228
G1 X154.663 Y94.209 E30.23822
G1 X155.018 Y94.852 E30.30418
G1 X155.301 Y95.53 E30.37016
G1 X155.509 Y96.234 E30.43608
G1 X155.639 Y96.957 E30.50205
G1 X155.689 Y97.663 E30.56561
G1 X155.707 Y98.712 E30.65983
G1 X155.705 Y127.736 E33.26625
G1 X155.695 Y128.455 E33.33082
G1 X155.645 Y129.188 E33.3968
G1 X155.516 Y129.911 E33.46275
G1 X155.308 Y130.616 E33.52876
G1 X155.026 Y131.294 E33.59471
G1 X154.671 Y131.937 E33.66066
G1 X154.249 Y132.538 E33.72661
G1 X153.763 Y133.089 E33.79259
G1 X153.221 Y133.585 E33.85857
G1 X152.628 Y134.018 E33.92451
G1 X151.991 Y134.385 E33.99053
G1 X151.319 Y134.68 E34.05643
G1 X150.618 Y134.901 E34.12244
G1 X149.898 Y135.044 E34.18836
G1 X149.155 Y135.108 E34.25533
G1 X148.623 Y135.121 E34.30312
G1 X147.914 Y135.12 E34.36679
G1 X147.216 Y135.11 E34.42948
G1 X146.483 Y135.06 E34.49545
G1 X145.76 Y134.93 E34.56142
G1 X145.191 Y134.769 E34.61453
G1 X144.663 Y134.589 E34.66462
G1 X143.856 Y134.29 E34.74191
G1 X141.833 Y133.532 E34.93591
G1 X80.343 Y110.621 E40.82871
G1 X76.6 Y109.229 E41.18733
G1 X76.106 Y109.038 E41.23489
G1 X75.463 Y108.777 E41.29721
G1 X74.808 Y108.481 E41.36176
G1 X74.353 Y108.255 E41.40738
G1 X73.773 Y107.944 E41.46648
G1 X73.17 Y107.588 E41.52937
G1 X72.605 Y107.225 E41.58967
G1 X72.161 Y106.917 E41.6382
G1 X71.849 Y106.686 E41.67306
G1 X71.442 Y106.371 E41.71928
G1 X71.176 Y106.155 E41.75005
G1 X70.759 Y105.797 E41.79941
G1 X70.217 Y105.293 E41.86587
G1 X69.831 Y104.905 E41.91502
G1 X69.423 Y104.469 E41.96864
G1 X68.833 Y103.784 E42.04983
G1 X68.355 Y103.168 E42.11985
G1 X67.963 Y102.617 E42.18057
G1 X67.526 Y101.948 E42.25233
G1 X67.255 Y101.49 E42.30012
G1 X66.981 Y100.995 E42.35093
G1 X66.642 Y100.328 E42.41812
G1 X66.402 Y99.803 E42.46996
G1 X66.097 Y99.061 E42.542
G1 X65.91 Y98.55 E42.59087
G1 X65.72 Y97.978 E42.645
G1 X65.526 Y97.299 E42.70841
G1 X65.389 Y96.746 E42.75957
G1 X65.276 Y96.227 E42.80727
G1 X65.142 Y95.459 E42.87728
G1 X65.061 Y94.864 E42.93121
G1 X65.004 Y94.308 E42.9814
G1 X64.961 Y93.587 E43.04626
G1 X64.946 Y93.029 E43.09639
G1 X64.948 Y92.421 E43.15099
G1 X64.978 Y91.765 E43.20996
G1 X65.028 Y91.153 E43.2651
G1 X65.122 Y90.383 E43.33477
G1 X65.223 Y89.754 E43.39198
G1 X65.366 Y89.058 E43.45578
G1 X65.502 Y88.501 E43.50727
G1 X65.654 Y87.944 E43.55912
G1 X65.863 Y87.288 E43.62095
G1 X66.064 Y86.73 E43.67421
G1 X66.288 Y86.163 E43.72896
G1 X66.559 Y85.552 E43.78898
G1 X66.798 Y85.059 E43.83818
G1 X67.047 Y84.587 E43.88611
G1 X67.4 Y83.97 E43.94994
G1 X67.697 Y83.482 E44.00124
G1 X68.089 Y82.9 E44.06426
G1 X68.475 Y82.372 E44.12299
G1 X68.926 Y81.804 E44.18812
G1 X69.346 Y81.316 E44.24594
G1 X69.892 Y80.733 E44.31767
G1 X70.019 Y80.606 E44.3338
G1 X70.41 Y80.224 E44.38289
G1 X70.892 Y79.789 E44.4412
M204 S3000
M205 X10 Y10
G0 X71.221 Y80.165
M204 S1800
M205 X8 Y8
G1 X71.671 Y79.787 E44.49397
G1 X72.293 Y79.308 E44.56447
G1 X72.415 Y79.22 E44.57798
G1 X72.856 Y78.91 E44.62639
G1 X73.404 Y78.556 E44.68498
G1 X73.93 Y78.244 E44.7399
G1 X74.456 Y77.956 E44.79375
G1 X74.666 Y77.848 E44.81496
G1 X75.134 Y77.619 E44.86175
G1 X75.749 Y77.345 E44.92221
G1 X76.383 Y77.094 E44.98344
G1 X77.114 Y76.84 E45.05294
G1 X77.681 Y76.668 E45.10615
G1 X78.299 Y76.506 E45.16352
G1 X78.526 Y76.453 E45.18445
G1 X79.106 Y76.33 E45.2377
G1 X79.768 Y76.219 E45.29798
G1 X80.359 Y76.141 E45.35151
G1 X81.076 Y76.075 E45.41617
G1 X81.716 Y76.041 E45.47373
G1 X82.049 Y76.033 E45.50364
G1 X82.594 Y76.037 E45.55258
G1 X83.241 Y76.059 E45.61072
G1 X83.783 Y76.102 E45.65954
G1 X84.417 Y76.172 E45.71682
G1 X85.1 Y76.274 E45.77884
G1 X85.253 Y76.302 E45.79281
G1 X85.808 Y76.411 E45.8436
G1 X86.438 Y76.55 E45.90154
G1 X149.757 Y91.546 E51.74502
G1 X150.486 Y91.731 E51.81257
G1 X151.159 Y91.944 E51.87596
G1 X151.805 Y92.232 E51.93947
G1 X152.414 Y92.591 E52.00296
G1 X152.978 Y93.017 E52.06643
G1 X153.491 Y93.503 E52.12989
G1 X153.946 Y94.045 E52.19344
G1 X154.336 Y94.634 E52.25688
G1 X154.658 Y95.263 E52.32034
G1 X154.906 Y95.925 E52.38382
G1 X155.078 Y96.61 E52.44724
G1 X155.172 Y97.311 E52.51076
G1 X155.189 Y97.672 E52.54321
G1 X155.207 Y98.712 E52.63662
G1 X155.205 Y127.729 E55.24242
G1 X155.195 Y128.448 E55.30699
G1 X155.146 Y129.153 E55.37045
G1 X155.017 Y129.848 E55.43393
G1 X154.81 Y130.524 E55.49742
G1 X154.528 Y131.172 E55.56088
G1 X154.175 Y131.784 E55.62433
G1 X153.755 Y132.353 E55.68784
G1 X153.274 Y132.87 E55.75125
G1 X152.737 Y133.33 E55.81475
G1 X152.151 Y133.726 E55.87827
G1 X151.525 Y134.054 E55.94173
G1 X150.866 Y134.309 E56.00519
G1 X150.182 Y134.488 E56.06868
G1 X149.139 Y134.608 E56.16296
G1 X148.623 Y134.621 E56.20932
G1 X147.921 Y134.62 E56.27236
G1 X147.223 Y134.61 E56.33505
G1 X146.518 Y134.56 E56.39851
G1 X145.824 Y134.431 E56.46191
G1 X145.046 Y134.194 E56.53494
G1 X144.837 Y134.121 E56.55482
G1 X144.031 Y133.822 E56.63202
G1 X142.008 Y133.064 E56.82603
G1 X80.518 Y110.153 E62.71882
G1 X76.78 Y108.763 E63.07696
G1 X76.294 Y108.575 E63.12376
G1 X75.651 Y108.314 E63.18608
G1 X75.02 Y108.028 E63.24829
G1 X74.418 Y107.726 E63.30877
G1 X73.804 Y107.385 E63.37184
G1 X73.303 Y107.082 E63.42442
G1 X72.608 Y106.621 E63.49932
G1 X72.155 Y106.291 E63.54965
G1 X71.748 Y105.976 E63.59587
G1 X71.502 Y105.775 E63.62439
G1 X71.085 Y105.417 E63.67375
G1 X70.561 Y104.93 E63.73799
G1 X70.194 Y104.561 E63.78473
G1 X69.797 Y104.138 E63.83682
G1 X69.215 Y103.462 E63.91693
G1 X68.754 Y102.866 E63.98459
G1 X68.379 Y102.339 E64.04268
G1 X67.955 Y101.691 E64.11222
G1 X67.692 Y101.246 E64.15864
G1 X67.424 Y100.763 E64.20824
G1 X67.096 Y100.118 E64.27322
G1 X66.862 Y99.605 E64.32386
G1 X66.562 Y98.877 E64.39457
G1 X66.384 Y98.391 E64.44105
G1 X66.199 Y97.833 E64.49384
G1 X66.008 Y97.166 E64.55614
G1 X65.877 Y96.638 E64.605
G1 X65.767 Y96.132 E64.6515
G1 X65.636 Y95.379 E64.72014
G1 X65.559 Y94.81 E64.7717
G1 X65.503 Y94.269 E64.82054
G1 X65.46 Y93.559 E64.88442
G1 X65.446 Y93.029 E64.93203
G1 X65.448 Y92.434 E64.98546
G1 X65.478 Y91.792 E65.04318
G1 X65.525 Y91.207 E65.09588
G1 X65.617 Y90.451 E65.16427
G1 X65.716 Y89.836 E65.22021
G1 X65.855 Y89.165 E65.28175
G1 X65.987 Y88.621 E65.33202
G1 X66.135 Y88.078 E65.38256
G1 X66.338 Y87.447 E65.44209
G1 X66.534 Y86.902 E65.4941
G1 X66.752 Y86.349 E65.54748
G1 X67.013 Y85.761 E65.60525
G1 X67.247 Y85.278 E65.65345
G1 X67.481 Y84.835 E65.69844
G1 X67.834 Y84.218 E65.76227
G1 X68.123 Y83.744 E65.81213
G1 X68.5 Y83.185 E65.87268
G1 X68.877 Y82.668 E65.93014
G1 X69.312 Y82.122 E65.99283
G1 X69.724 Y81.643 E66.04957
G1 X70.251 Y81.082 E66.11869
G1 X70.368 Y80.963 E66.13368
G1 X70.759 Y80.581 E66.18276
G1 X71.221 Y80.165 E66.23859
M204 S3000
M205 X10 Y10
G0 X71.55 Y80.542
M204 S1800
M205 X8 Y8
G1 X71.992 Y80.171 E66.29042
G1 X72.59 Y79.71 E66.35822
G1 X72.702 Y79.629 E66.37063
G1 X73.143 Y79.319 E66.41904
G1 X73.669 Y78.98 E66.47524
G1 X74.184 Y78.675 E66.52899
G1 X74.693 Y78.396 E66.58112
G1 X74.886 Y78.297 E66.60059
G1 X75.354 Y78.068 E66.64738
G1 X75.946 Y77.804 E66.70559
G1 X76.565 Y77.559 E66.76538
G1 X77.27 Y77.315 E66.83237
G1 X77.825 Y77.147 E66.88445
G1 X78.421 Y76.991 E66.93977
G1 X78.63 Y76.942 E66.95905
G1 X79.21 Y76.819 E67.01229
G1 X79.844 Y76.713 E67.07002
G1 X80.423 Y76.636 E67.12247
G1 X81.113 Y76.574 E67.18468
G1 X81.741 Y76.54 E67.24116
G1 X82.047 Y76.533 E67.26865
G1 X82.579 Y76.537 E67.31643
G1 X83.212 Y76.558 E67.3733
G1 X83.739 Y76.6 E67.42078
G1 X84.361 Y76.668 E67.47697
G1 X85.015 Y76.767 E67.53637
G1 X85.157 Y76.793 E67.54933
G1 X85.712 Y76.902 E67.60012
G1 X86.329 Y77.038 E67.65686
G1 X149.739 Y92.057 E73.50878
G1 X150.362 Y92.216 E73.56652
G1 X151.008 Y92.422 E73.62741
G1 X151.625 Y92.702 E73.68826
G1 X152.205 Y93.054 E73.74918
G1 X152.739 Y93.471 E73.81003
G1 X153.221 Y93.948 E73.87092
G1 X153.643 Y94.478 E73.93176
G1 X153.999 Y95.055 E73.99265
G1 X154.286 Y95.669 E74.05351
G1 X154.498 Y96.313 E74.1144
G1 X154.633 Y96.978 E74.17534
G1 X154.689 Y97.681 E74.23867
G1 X154.707 Y98.712 E74.33127
G1 X154.705 Y127.722 E76.93643
G1 X154.695 Y128.441 E77.00101
G1 X154.646 Y129.117 E77.06187
G1 X154.517 Y129.783 E77.12279
G1 X154.311 Y130.429 E77.18368
G1 X154.031 Y131.046 E77.24453
G1 X153.679 Y131.626 E77.30546
G1 X153.262 Y132.16 E77.3663
G1 X152.785 Y132.642 E77.4272
G1 X152.255 Y133.064 E77.48804
G1 X151.678 Y133.42 E77.54892
G1 X151.064 Y133.707 E77.60979
G1 X150.42 Y133.919 E77.67067
G1 X149.755 Y134.054 E77.73161
G1 X149.124 Y134.108 E77.78848
G1 X148.623 Y134.121 E77.83349
G1 X147.929 Y134.12 E77.89581
G1 X147.231 Y134.11 E77.9585
G1 X146.555 Y134.061 E78.01937
G1 X145.889 Y133.932 E78.08029
G1 X145.204 Y133.72 E78.14468
G1 X145.011 Y133.652 E78.16305
G1 X144.206 Y133.353 E78.24017
G1 X142.193 Y132.599 E78.43321
G1 X80.696 Y109.686 E84.32666
G1 X76.959 Y108.296 E84.68471
G1 X76.482 Y108.112 E84.73062
G1 X75.839 Y107.851 E84.79294
G1 X75.233 Y107.575 E84.85274
G1 X74.655 Y107.285 E84.91081
G1 X74.053 Y106.951 E84.97264
G1 X73.572 Y106.66 E85.02312
G1 X72.891 Y106.209 E85.09647
G1 X72.461 Y105.895 E85.14429
G1 X72.054 Y105.58 E85.19051
G1 X71.828 Y105.396 E85.21668
G1 X71.411 Y105.038 E85.26603
G1 X70.906 Y104.568 E85.32798
G1 X70.3 Y103.946 E85.40597
G1 X69.872 Y103.466 E85.46372
G1 X69.402 Y102.895 E85.53013
G1 X69.06 Y102.438 E85.58139
G1 X68.532 Y101.667 E85.66531
G1 X68.218 Y101.158 E85.71902
G1 X67.941 Y100.668 E85.76957
G1 X67.676 Y100.166 E85.82054
G1 X67.383 Y99.547 E85.88204
G1 X67.149 Y99.003 E85.93522
G1 X66.967 Y98.537 E85.98015
G1 X66.728 Y97.845 E86.04589
G1 X66.489 Y97.033 E86.12191
G1 X66.365 Y96.529 E86.16852
G1 X66.258 Y96.037 E86.21373
G1 X66.129 Y95.299 E86.28101
G1 X66.056 Y94.756 E86.33021
G1 X66.001 Y94.23 E86.37771
G1 X65.959 Y93.532 E86.4405
G1 X65.946 Y93.029 E86.48569
G1 X65.948 Y92.447 E86.53795
G1 X65.977 Y91.818 E86.5945
G1 X66.022 Y91.261 E86.64468
G1 X66.113 Y90.518 E86.7119
G1 X66.21 Y89.917 E86.76657
G1 X66.343 Y89.272 E86.82571
G1 X66.472 Y88.741 E86.87479
G1 X66.617 Y88.212 E86.92404
G1 X66.812 Y87.605 E86.9813
G1 X67.004 Y87.073 E87.03209
G1 X67.216 Y86.535 E87.08402
G1 X67.468 Y85.969 E87.13966
G1 X67.696 Y85.497 E87.18673
G1 X67.915 Y85.084 E87.22871
G1 X68.268 Y84.467 E87.29254
G1 X68.548 Y84.007 E87.3409
G1 X68.911 Y83.47 E87.39911
G1 X69.28 Y82.965 E87.45528
G1 X69.698 Y82.44 E87.51554
G1 X70.102 Y81.97 E87.5712
G1 X70.609 Y81.43 E87.63772
G1 X71.109 Y80.939 E87.70065
G1 X71.55 Y80.542 E87.75394
M204 S3000
M205 X10 Y10
G0 X71.879 Y80.918
M204 S1800
M205 X8 Y8
G1 X72.312 Y80.555 E87.80468
G1 X72.887 Y80.112 E87.86986
