;FLAVOR:Marlin
;TIME:12121
;Filament used: 7.03451m
;Layer height: 0.2
;MINX:81.95
;MINY:89.15
;MINZ:0.3
;MAXX:138.05
;MAXY:119.611
;MAXZ:27.5
;Generated with Cura_SteamEngine 4.8.0
M140 S60
M105
M190 S60
M104 S190
M105
M109 S190
M82 ;absolute extrusion mode
G21 ;metric values
G90 ;absolute positioning
M82 ;set extruder to absolute mode
M107 ;start with the fan off
G28 X0 Y0 ;move X/Y to min endstops
G28 Z0 ;move Z to min endstops
G1 Z15.0 F100 ;move the platform down 15mm
G92 E0 ;zero the extruded length
G1 F200 E3 ;extrude 3mm of feed stock
G92 E0 ;zero the extruded length again
G1 F100
G0 Y20 F100
M117 Printing...
G5
G92 E0
G92 E0
;LAYER_COUNT:137
;LAYER:0
M106 S255
M204 S3000
M205 X10 Y10
G0 F600 X86.078 Y90.564 Z0.3
M204 S1800
M205 X8 Y8
;TYPE:SKIRT
G1 X86.538 Y90.154 E0.05534
G1 X87.048 Y89.808 E0.11068
G1 X87.598 Y89.53 E0.16602
G1 X88.179 Y89.326 E0.22132
G1 X88.782 Y89.199 E0.27666
G1 X89.459 Y89.15 E0.33761
G1 X130.542 Y89.15 E4.02697
G1 X131.157 Y89.19 E4.08231
G1 X131.761 Y89.309 E4.13759
G1 X132.345 Y89.506 E4.19294
G1 X132.899 Y89.776 E4.24829
G1 X133.413 Y90.116 E4.30363
G1 X133.879 Y90.519 E4.35896
G1 X134.288 Y90.979 E4.41423
G1 X134.635 Y91.489 E4.46963
G1 X134.912 Y92.039 E4.52493
G1 X135.116 Y92.62 E4.58023
G1 X135.244 Y93.223 E4.63558
G1 X135.292 Y93.837 E4.69089
G1 X135.255 Y94.674 E4.76613
G1 X135.179 Y95.286 E4.82151
G1 X135.025 Y95.882 E4.87679
G1 X134.795 Y96.454 E4.93215
G1 X134.493 Y96.991 E4.98748
G1 X134.085 Y97.529 E5.04812
G1 X133.929 Y97.707 E5.06937
G1 X133.539 Y98.098 E5.11896
G1 X133.71 Y98.242 E5.13904
G1 X134.126 Y98.697 E5.1944
G1 X134.489 Y99.209 E5.25077
G1 X134.796 Y99.743 E5.30608
G1 X135.031 Y100.312 E5.36136
G1 X135.191 Y100.907 E5.4167
G1 X135.272 Y101.518 E5.47204
G1 X135.28 Y102.017 E5.51686
G1 X135.261 Y102.522 E5.56224
G1 X135.198 Y103.134 E5.61749
G1 X135.056 Y103.734 E5.67286
G1 X134.812 Y104.388 E5.73555
G1 X134.548 Y104.945 E5.7909
G1 X134.214 Y105.462 E5.84618
G1 X133.751 Y105.997 E5.90971
G1 X133.487 Y106.26 E5.94318
G1 X133.024 Y106.666 E5.99848
G1 X132.516 Y107.005 E6.05332
G1 X130.841 Y107.975 E6.22714
G1 X129.033 Y109.014 E6.41441
G1 X118.097 Y115.325 E7.54828
G1 X117.177 Y115.858 E7.64376
G1 X115.148 Y117.028 E7.8541
G1 X114.595 Y117.3 E7.90944
G1 X114.012 Y117.499 E7.96476
G1 X113.598 Y117.591 E8.00285
G1 X112.916 Y117.711 E8.06503
G1 X112.039 Y117.783 E8.14405
G1 X111.864 Y117.781 E8.15977
G1 X111.249 Y117.734 E8.21516
G1 X111.218 Y117.728 E8.21799
G1 X110.871 Y118.121 E8.26508
G1 X110.407 Y118.527 E8.32044
G1 X109.895 Y118.869 E8.37574
G1 X109.432 Y119.103 E8.42232
G1 X109.191 Y119.209 E8.44597
G1 X108.613 Y119.42 E8.50122
G1 X108.011 Y119.554 E8.55661
G1 X107.275 Y119.611 E8.6229
G1 X103.332 Y119.608 E8.97699
G1 X94.219 Y119.609 E9.79536
G1 X90.086 Y119.603 E10.16651
G1 X89.325 Y119.541 E10.23508
G1 X89.154 Y119.513 E10.25064
G1 X88.554 Y119.374 E10.30595
G1 X87.718 Y119.033 E10.38703
G1 X87.529 Y118.934 E10.40619
G1 X87.003 Y118.613 E10.46152
G1 X86.523 Y118.227 E10.51684
G1 X86.055 Y117.732 E10.57801
G1 X85.894 Y117.535 E10.60086
G1 X85.536 Y117.034 E10.65616
G1 X85.246 Y116.49 E10.71152
G1 X84.981 Y115.747 E10.78236
G1 X84.868 Y115.321 E10.82194
G1 X84.749 Y114.716 E10.87731
G1 X84.709 Y114.103 E10.93247
G1 X84.709 Y112.692 E11.05919
G1 X84.749 Y112.077 E11.11453
G1 X84.868 Y111.473 E11.16981
G1 X85.088 Y110.834 E11.2305
G1 X85.159 Y110.667 E11.2468
G1 X85.436 Y110.116 E11.30218
G1 X85.782 Y109.607 E11.35745
G1 X86.191 Y109.146 E11.41279
G1 X86.466 Y108.91 E11.44534
G1 X86.277 Y108.751 E11.46752
G1 X85.86 Y108.296 E11.52294
G1 X85.506 Y107.792 E11.57825
G1 X85.254 Y107.32 E11.6263
G1 X85.151 Y107.098 E11.64828
G1 X84.929 Y106.524 E11.70355
G1 X84.782 Y105.925 E11.75893
G1 X84.71 Y105.099 E11.83339
G1 X84.709 Y93.9 E12.83909
G1 X84.749 Y93.286 E12.89434
G1 X84.868 Y92.681 E12.94972
G1 X85.064 Y92.097 E13.00503
G1 X85.335 Y91.543 E13.06042
G1 X85.674 Y91.029 E13.11571
G1 X86.078 Y90.564 E13.17103
M204 S3000
M205 X10 Y10
G0 X86.57 Y90.783
M204 S1800
M205 X8 Y8
G1 X87.023 Y90.417 E13.22333
G1 X87.523 Y90.117 E13.27569
G1 X88.058 Y89.887 E13.32799
G1 X88.62 Y89.734 E13.38029
G1 X89.459 Y89.65 E13.45601
G1 X130.542 Y89.65 E17.14536
G1 X131.123 Y89.69 E17.19766
G1 X131.694 Y89.809 E17.25004
G1 X132.243 Y90.005 E17.30239
G1 X132.759 Y90.274 E17.35465
G1 X133.235 Y90.612 E17.40707
G1 X133.659 Y91.011 E17.45936
G1 X134.025 Y91.465 E17.51173
G1 X134.325 Y91.964 E17.56401
G1 X134.555 Y92.5 E17.61639
G1 X134.709 Y93.062 E17.66872
G1 X134.784 Y93.64 E17.72106
G1 X134.785 Y94.147 E17.76659
G1 X134.756 Y94.645 E17.81139
G1 X134.682 Y95.223 E17.86372
G1 X134.53 Y95.786 E17.91609
G1 X134.302 Y96.322 E17.9684
G1 X134.004 Y96.822 E18.02067
G1 X133.553 Y97.377 E18.08489
G1 X133.14 Y97.788 E18.13721
G1 X132.719 Y98.105 E18.18454
G1 X132.993 Y98.285 E18.21398
G1 X133.432 Y98.669 E18.26636
G1 X133.959 Y99.315 E18.34122
G1 X134.072 Y99.485 E18.35956
G1 X134.361 Y99.992 E18.41196
G1 X134.578 Y100.533 E18.46431
G1 X134.718 Y101.098 E18.51658
G1 X134.78 Y101.678 E18.56896
G1 X134.78 Y101.998 E18.5977
G1 X134.761 Y102.503 E18.64308
G1 X134.699 Y103.082 E18.69537
G1 X134.463 Y103.914 E18.77304
G1 X134.348 Y104.203 E18.80097
G1 X134.096 Y104.729 E18.85335
G1 X133.774 Y105.215 E18.9057
G1 X133.398 Y105.643 E18.95686
G1 X133.134 Y105.906 E18.99033
G1 X132.694 Y106.288 E19.04265
G1 X132.265 Y106.573 E19.0889
G1 X130.592 Y107.542 E19.26253
G1 X128.784 Y108.581 E19.44979
G1 X117.839 Y114.896 E20.58454
G1 X116.927 Y115.425 E20.67922
G1 X114.898 Y116.595 E20.88956
G1 X114.374 Y116.851 E20.94193
G1 X113.821 Y117.032 E20.99418
G1 X113.511 Y117.099 E21.02266
G1 X112.829 Y117.219 E21.08485
G1 X112.044 Y117.283 E21.15558
G1 X111.869 Y117.281 E21.17129
G1 X111.289 Y117.234 E21.22355
G1 X111.021 Y117.175 E21.24819
G1 X110.883 Y117.354 E21.26849
G1 X110.496 Y117.789 E21.32078
G1 X110.053 Y118.168 E21.37313
G1 X109.562 Y118.482 E21.42547
G1 X108.99 Y118.751 E21.48223
G1 X108.442 Y118.949 E21.53456
G1 X107.872 Y119.069 E21.58687
G1 X107.276 Y119.111 E21.64052
G1 X103.332 Y119.108 E21.9947
G1 X94.22 Y119.109 E22.81298
G1 X90.087 Y119.103 E23.18414
G1 X89.406 Y119.047 E23.2455
G1 X89.235 Y119.019 E23.26106
G1 X88.668 Y118.886 E23.31336
G1 X87.95 Y118.59 E23.3831
G1 X87.761 Y118.491 E23.40226
G1 X87.265 Y118.186 E23.45455
G1 X86.814 Y117.815 E23.50699
G1 X86.442 Y117.415 E23.55605
G1 X86.281 Y117.218 E23.5789
G1 X85.944 Y116.743 E23.6312
G1 X85.675 Y116.226 E23.68353
G1 X85.464 Y115.619 E23.74124
G1 X85.351 Y115.193 E23.78082
G1 X85.241 Y114.62 E23.83322
G1 X85.209 Y114.103 E23.87974
G1 X85.209 Y112.692 E24.00645
G1 X85.249 Y112.111 E24.05875
G1 X85.368 Y111.54 E24.11112
G1 X85.548 Y111.029 E24.15978
G1 X85.619 Y110.862 E24.17607
G1 X85.883 Y110.343 E24.22836
G1 X86.216 Y109.864 E24.28075
G1 X86.611 Y109.436 E24.33305
G1 X87.002 Y109.109 E24.37883
G1 X87.291 Y108.901 E24.4108
G1 X86.994 Y108.707 E24.44266
G1 X86.555 Y108.323 E24.49504
G1 X86.172 Y107.884 E24.54736
G1 X85.854 Y107.396 E24.59966
G1 X85.605 Y106.888 E24.65047
G1 X85.396 Y106.344 E24.7028
G1 X85.264 Y105.776 E24.75517
G1 X85.21 Y105.099 E24.81616
G1 X85.209 Y93.9 E25.82185
G1 X85.249 Y93.319 E25.87415
G1 X85.368 Y92.749 E25.92644
G1 X85.564 Y92.2 E25.97879
G1 X85.833 Y91.683 E26.03113
G1 X86.171 Y91.208 E26.08348
G1 X86.57 Y90.783 E26.13583
M204 S3000
M205 X10 Y10
G0 X86.666 Y91.398
M204 S1800
M205 X8 Y8
G1 X87.059 Y91.018 E26.18493
G1 X87.505 Y90.7 E26.23412
G1 X87.991 Y90.449 E26.28324
G1 X88.509 Y90.272 E26.3324
G1 X89.047 Y90.173 E26.38152
G1 X89.459 Y90.15 E26.41858
G1 X130.542 Y90.15 E30.10793
G1 X131.088 Y90.19 E30.15709
G1 X131.622 Y90.309 E30.20622
G1 X132.133 Y90.504 E30.25534
G1 X132.611 Y90.772 E30.30455
G1 X133.044 Y91.107 E30.35371
G1 X133.424 Y91.501 E30.40287
G1 X133.743 Y91.946 E30.45204
G1 X133.993 Y92.433 E30.5012
G1 X134.17 Y92.951 E30.55036
G1 X134.269 Y93.489 E30.59948
G1 X134.286 Y94.118 E30.65599
G1 X134.257 Y94.616 E30.70079
G1 X134.185 Y95.159 E30.74998
G1 X134.035 Y95.685 E30.79909
G1 X133.81 Y96.184 E30.84825
G1 X133.515 Y96.645 E30.8974
G1 X133.177 Y97.048 E30.94463
G1 X132.787 Y97.432 E30.99378
G1 X132.346 Y97.755 E31.04287
G1 X131.674 Y98.087 E31.11018
G1 X131.616 Y98.109 E31.11575
G1 X131.797 Y98.18 E31.13321
G1 X132.29 Y98.417 E31.18234
G1 X132.743 Y98.724 E31.23148
G1 X133.147 Y99.094 E31.28068
G1 X133.543 Y99.592 E31.33781
G1 X133.656 Y99.762 E31.35614
G1 X133.925 Y100.239 E31.40532
G1 X134.122 Y100.75 E31.4545
G1 X134.242 Y101.284 E31.50365
G1 X134.28 Y101.979 E31.56616
G1 X134.261 Y102.484 E31.61154
G1 X134.201 Y103.028 E31.66069
G1 X133.998 Y103.729 E31.72623
G1 X133.883 Y104.018 E31.75416
G1 X133.644 Y104.511 E31.80336
G1 X133.336 Y104.963 E31.85248
G1 X132.782 Y105.552 E31.92509
G1 X132.367 Y105.909 E31.97425
G1 X132.014 Y106.14 E32.01214
G1 X130.342 Y107.108 E32.18564
G1 X128.54 Y108.144 E32.3723
G1 X117.589 Y114.463 E33.5077
G1 X114.648 Y116.162 E33.81271
G1 X114.155 Y116.4 E33.86187
G1 X113.425 Y116.606 E33.92999
G1 X112.743 Y116.726 E33.99218
G1 X112.05 Y116.783 E34.05462
G1 X111.875 Y116.781 E34.07034
G1 X111.33 Y116.735 E34.11945
G1 X110.809 Y116.612 E34.16752
G1 X110.487 Y117.048 E34.2162
G1 X110.122 Y117.455 E34.26529
G1 X109.701 Y117.805 E34.31446
G1 X109.03 Y118.188 E34.38384
G1 X108.789 Y118.294 E34.40748
G1 X108.273 Y118.477 E34.45665
G1 X107.736 Y118.583 E34.5058
G1 X107.276 Y118.611 E34.54719
G1 X103.332 Y118.608 E34.90137
G1 X94.221 Y118.609 E35.71956
G1 X90.088 Y118.603 E36.09071
G1 X89.487 Y118.554 E36.14486
G1 X89.316 Y118.526 E36.16042
G1 X88.784 Y118.398 E36.20956
G1 X88.182 Y118.147 E36.26814
G1 X87.993 Y118.048 E36.2873
G1 X87.528 Y117.759 E36.33646
G1 X87.11 Y117.406 E36.38559
G1 X86.668 Y116.902 E36.44579
G1 X86.354 Y116.454 E36.49492
G1 X86.108 Y115.965 E36.54408
G1 X85.947 Y115.49 E36.58912
G1 X85.834 Y115.064 E36.6287
G1 X85.733 Y114.527 E36.67777
G1 X85.709 Y114.103 E36.7159
G1 X85.709 Y112.692 E36.84262
G1 X85.749 Y112.146 E36.89178
G1 X85.868 Y111.612 E36.94091
G1 X86.079 Y111.058 E36.99415
G1 X86.329 Y110.571 E37.04331
G1 X86.648 Y110.126 E37.09248
G1 X87.028 Y109.732 E37.14163
G1 X87.526 Y109.343 E37.19838
G1 X87.989 Y109.05 E37.24759
G1 X88.383 Y108.886 E37.28591
G1 X88.191 Y108.811 E37.30442
G1 X87.697 Y108.574 E37.35362
G1 X87.244 Y108.268 E37.40272
G1 X86.839 Y107.899 E37.45192
G1 X86.493 Y107.475 E37.50106
G1 X86.161 Y106.899 E37.56077
G1 X86.058 Y106.677 E37.58274
G1 X85.865 Y106.165 E37.63188
G1 X85.748 Y105.631 E37.68097
G1 X85.71 Y105.099 E37.72887
G1 X85.709 Y93.9 E38.73457
G1 X85.749 Y93.354 E38.78373
G1 X85.868 Y92.82 E38.83286
G1 X86.063 Y92.309 E38.88198
G1 X86.331 Y91.832 E38.93111
G1 X86.666 Y91.398 E38.98035
M204 S3000
M205 X10 Y10
G0 X87.159 Y91.604
M204 S1800
M205 X8 Y8
G1 X87.546 Y91.273 E39.02608
G1 X87.98 Y91.006 E39.07184
G1 X88.451 Y90.81 E39.11765
G1 X88.946 Y90.691 E39.16337
G1 X89.459 Y90.65 E39.20958
G1 X130.542 Y90.65 E42.89893
G1 X131.05 Y90.69 E42.94469
G1 X131.545 Y90.809 E42.99041
G1 X132.016 Y91.004 E43.03619
G1 X132.451 Y91.27 E43.08198
G1 X132.838 Y91.6 E43.12765
G1 X133.17 Y91.987 E43.17344
G1 X133.436 Y92.422 E43.21923
G1 X133.632 Y92.892 E43.26496
G1 X133.751 Y93.387 E43.31068
G1 X133.787 Y94.089 E43.37381
G1 X133.758 Y94.587 E43.4186
G1 X133.688 Y95.092 E43.46439
G1 X133.541 Y95.579 E43.51007
G1 X133.319 Y96.038 E43.55586
G1 X132.957 Y96.54 E43.61144
G1 X132.801 Y96.718 E43.63269
G1 X132.436 Y97.074 E43.67848
G1 X132.02 Y97.368 E43.72422
G1 X131.498 Y97.619 E43.77624
G1 X130.742 Y97.886 E43.84824
G1 X91.003 Y108.533 E47.54276
G1 X90.474 Y108.629 E47.59104
G1 X90.142 Y108.661 E47.62099
G1 X89.632 Y108.67 E47.6668
G1 X89.128 Y108.599 E47.71251
G1 X88.641 Y108.451 E47.75821
G1 X88.374 Y108.346 E47.78398
G1 X87.915 Y108.122 E47.82985
G1 X87.498 Y107.831 E47.87551
G1 X87.131 Y107.477 E47.9213
G1 X86.824 Y107.07 E47.96708
G1 X86.512 Y106.467 E48.02805
G1 X86.334 Y105.989 E48.07386
G1 X86.234 Y105.49 E48.11956
G1 X86.21 Y105.099 E48.15474
G1 X86.209 Y93.9 E49.16044
G1 X86.249 Y93.392 E49.2062
G1 X86.368 Y92.897 E49.25191
G1 X86.562 Y92.426 E49.29766
G1 X86.828 Y91.991 E49.34345
G1 X87.159 Y91.604 E49.38918
M204 S3000
M205 X10 Y10
G0 X87.65 Y91.829
M204 S1800
M205 X8 Y8
G1 X88.028 Y91.552 E49.43126
G1 X88.448 Y91.343 E49.47339
G1 X88.897 Y91.208 E49.5155
G1 X89.459 Y91.15 E49.56623
G1 X130.542 Y91.15 E53.25558
G1 X131.009 Y91.19 E53.29767
G1 X131.462 Y91.309 E53.33974
G1 X131.889 Y91.502 E53.38182
G1 X132.276 Y91.766 E53.42389
G1 X132.614 Y92.091 E53.46599
G1 X132.891 Y92.469 E53.50808
G1 X133.099 Y92.889 E53.55017
G1 X133.234 Y93.338 E53.59227
G1 X133.287 Y94.06 E53.65728
G1 X133.191 Y95.022 E53.7441
G1 X133.047 Y95.467 E53.7861
G1 X132.828 Y95.882 E53.82824
G1 X132.425 Y96.389 E53.8864
G1 X132.087 Y96.713 E53.92845
G1 X131.699 Y96.976 E53.97054
G1 X130.867 Y97.322 E54.05146
G1 X130.613 Y97.403 E54.0754
G1 X90.874 Y108.05 E57.76993
G1 X90.094 Y108.163 E57.8407
G1 X89.625 Y108.168 E57.88282
G1 X89.163 Y108.094 E57.92484
G1 X88.557 Y107.88 E57.98255
G1 X88.137 Y107.672 E58.02464
G1 X87.758 Y107.396 E58.06675
G1 X87.432 Y107.059 E58.10885
G1 X87.068 Y106.478 E58.17042
G1 X86.805 Y105.816 E58.23439
G1 X86.71 Y105.099 E58.29934
G1 X86.709 Y93.9 E59.30504
G1 X86.749 Y93.433 E59.34713
G1 X86.867 Y92.98 E59.38917
G1 X87.061 Y92.553 E59.43128
G1 X87.325 Y92.166 E59.47335
G1 X87.65 Y91.829 E59.5154
M204 S3000
M205 X10 Y10
G0 X87.82 Y92.359
M204 S1800
M205 X8 Y8
G1 X88.138 Y92.079 E59.55345
G1 X88.502 Y91.863 E59.59146
G1 X88.901 Y91.72 E59.62952
G1 X89.459 Y91.65 E59.68002
G1 X130.542 Y91.65 E63.36937
G1 X130.964 Y91.69 E63.40744
G1 X131.371 Y91.808 E63.4455
G1 X131.748 Y92.001 E63.48353
G1 X132.083 Y92.261 E63.52161
G1 X132.363 Y92.579 E63.55966
G1 X132.579 Y92.944 E63.59775
G1 X132.722 Y93.343 E63.63581
G1 X132.788 Y93.761 E63.67381
G1 X132.759 Y94.529 E63.74283
G1 X132.695 Y94.948 E63.78089
G1 X132.553 Y95.347 E63.81893
G1 X132.205 Y95.881 E63.87616
G1 X131.741 Y96.35 E63.93541
G1 X131.147 Y96.683 E63.99656
G1 X130.483 Y96.92 E64.05988
G1 X90.744 Y107.567 E67.7544
G1 X90.046 Y107.666 E67.81771
G1 X89.622 Y107.666 E67.85578
G1 X89.007 Y107.52 E67.91255
G1 X88.362 Y107.223 E67.97632
G1 X88.026 Y106.964 E68.01441
G1 X87.745 Y106.647 E68.05245
G1 X87.419 Y106.046 E68.11385
G1 X87.278 Y105.646 E68.15194
G1 X87.21 Y105.099 E68.20144
G1 X87.209 Y93.9 E69.20714
G1 X87.249 Y93.478 E69.2452
G1 X87.367 Y93.071 E69.28326
G1 X87.56 Y92.694 E69.32129
G1 X87.82 Y92.359 E69.35937
M204 S3000
M205 X10 Y10
G0 X88.311 Y92.579
M204 S1800
M205 X8 Y8
G1 X88.618 Y92.365 E69.39298
G1 X88.963 Y92.222 E69.42652
G1 X89.459 Y92.15 E69.47153
G1 X130.542 Y92.15 E73.16088
G1 X130.913 Y92.19 E73.19439
G1 X131.268 Y92.308 E73.22798
G1 X131.59 Y92.498 E73.26156
G1 X131.863 Y92.752 E73.29504
G1 X132.077 Y93.059 E73.32865
G1 X132.22 Y93.404 E73.36219
G1 X132.289 Y94.002 E73.41625
G1 X132.199 Y94.868 E73.49443
G1 X132.06 Y95.215 E73.528
G1 X131.673 Y95.729 E73.58578
G1 X131.398 Y95.983 E73.6194
G1 X130.971 Y96.215 E73.66304
G1 X130.354 Y96.437 E73.72193
G1 X90.615 Y107.084 E77.41645
G1 X89.998 Y107.168 E77.47237
G1 X89.624 Y107.164 E77.50595
G1 X88.923 Y106.95 E77.57177
G1 X88.591 Y106.777 E77.60539
G1 X88.305 Y106.537 E77.63892
G1 X87.976 Y106.058 E77.6911
G1 X87.752 Y105.482 E77.7466
G1 X87.71 Y105.099 E77.78121
G1 X87.709 Y93.9 E78.7869
G1 X87.749 Y93.529 E78.82041
G1 X87.867 Y93.174 E78.85401
G1 X88.057 Y92.853 E78.8875
G1 X88.311 Y92.579 E78.92106
M204 S3000
M205 X10 Y10
G0 X88.552 Y93.039
M204 S1800
M205 X8 Y8
G1 X88.797 Y92.84 E78.9494
G1 X89.083 Y92.708 E78.97769
G1 X89.459 Y92.65 E79.01185
G1 X130.542 Y92.65 E82.7012
G1 X130.855 Y92.69 E82.72954
G1 X131.148 Y92.807 E82.75787
G1 X131.403 Y92.993 E82.78622
G1 X131.602 Y93.238 E82.81456
G1 X131.734 Y93.525 E82.84293
G1 X131.79 Y93.973 E82.88347
G1 X131.703 Y94.781 E82.95645
G1 X131.453 Y95.222 E83.00198
G1 X131.061 Y95.609 E83.05145
G1 X130.34 Y95.917 E83.12185
G1 X130.224 Y95.954 E83.13279
G1 X90.485 Y106.601 E86.82731
G1 X89.95 Y106.67 E86.87575
G1 X89.634 Y106.661 E86.90414
G1 X89.106 Y106.484 E86.95415
G1 X88.829 Y106.333 E86.98248
G1 X88.599 Y106.116 E87.01088
G1 X88.326 Y105.625 E87.06133
