;FLAVOR:Marlin
;TIME:12118
;Filament used: 7.03378m
;Layer height: 0.2
;MINX:81.95
;MINY:90.389
;MINZ:0.3
;MAXX:138.05
;MAXY:120.85
;MAXZ:27.5
;Generated with Cura_SteamEngine 4.8.0
M140 S60
M105
M190 S60
M104 S190
M105
M109 S190
M82 ;absolute extrusion mode
G21 ;metric values
G90 ;absolute positioning
M82 ;set extruder to absolute mode
M107 ;start with the fan off
G28 X0 Y0 ;move X/Y to min endstops
G28 Z0 ;move Z to min endstops
G1 Z15.0 F100 ;move the platform down 15mm
G92 E0 ;zero the extruded length
G1 F200 E3 ;extrude 3mm of feed stock
G92 E0 ;zero the extruded length again
G1 F100
G0 Y20 F100
M117 Printing...
G5
G92 E0
G92 E0
;LAYER_COUNT:137
;LAYER:0
M106 S255
M204 S3000
M205 X10 Y10
G0 F600 X86.35 Y91.95 Z0.3
M204 S1800
M205 X8 Y8
;TYPE:SKIRT
G1 X86.839 Y91.534 E0.05765
G1 X87.028 Y91.394 E0.07878
G1 X87.545 Y91.06 E0.13405
G1 X88.102 Y90.796 E0.1894
G1 X88.62 Y90.624 E0.23842
G1 X88.854 Y90.561 E0.26018
G1 X89.458 Y90.44 E0.3155
G1 X90.08 Y90.398 E0.37148
G1 X94.263 Y90.39 E0.74713
G1 X94.52 Y90.392 E0.77021
G1 X107.276 Y90.389 E1.91573
G1 X107.891 Y90.429 E1.97107
G1 X108.495 Y90.548 E2.02635
G1 X109.069 Y90.735 E2.08057
G1 X109.635 Y90.98 E2.13595
G1 X110.164 Y91.296 E2.19129
G1 X110.647 Y91.677 E2.24653
G1 X111.08 Y92.109 E2.30146
G1 X111.203 Y92.254 E2.31854
G1 X111.78 Y92.2 E2.37058
G1 X112.629 Y92.251 E2.44696
G1 X113.409 Y92.369 E2.5178
G1 X113.882 Y92.465 E2.56114
G1 X114.47 Y92.647 E2.61642
G1 X115.148 Y92.97 E2.68386
G1 X117.186 Y94.147 E2.89521
G1 X118.089 Y94.671 E2.98896
G1 X129.032 Y100.985 E4.12352
G1 X130.855 Y102.032 E4.31231
G1 X132.515 Y102.994 E4.4846
G1 X133.027 Y103.337 E4.53995
G1 X133.64 Y103.883 E4.61367
G1 X134.059 Y104.334 E4.66895
G1 X134.416 Y104.837 E4.72434
G1 X134.729 Y105.434 E4.78487
G1 X134.869 Y105.755 E4.81632
G1 X135.078 Y106.335 E4.87169
G1 X135.21 Y106.936 E4.92694
G1 X135.262 Y107.486 E4.97655
G1 X135.28 Y107.994 E5.0222
G1 X135.262 Y108.61 E5.07754
G1 X135.164 Y109.218 E5.13285
G1 X134.989 Y109.809 E5.1882
G1 X134.738 Y110.371 E5.24347
G1 X134.376 Y110.961 E5.30564
G1 X134.002 Y111.451 E5.36099
G1 X133.568 Y111.889 E5.41636
G1 X133.543 Y111.908 E5.41918
G1 X133.886 Y112.227 E5.46125
G1 X134.278 Y112.702 E5.51655
G1 X134.608 Y113.218 E5.57156
G1 X134.889 Y113.766 E5.62686
G1 X135.097 Y114.347 E5.68228
G1 X135.228 Y114.949 E5.73761
G1 X135.28 Y115.548 E5.7916
G1 X135.29 Y115.993 E5.83157
G1 X135.264 Y116.609 E5.88694
G1 X135.158 Y117.216 E5.94228
G1 X134.975 Y117.804 E5.99758
G1 X134.717 Y118.364 E6.05295
G1 X134.389 Y118.885 E6.10823
G1 X133.996 Y119.36 E6.1636
G1 X133.545 Y119.779 E6.21888
G1 X133.043 Y120.137 E6.27425
G1 X132.5 Y120.427 E6.32953
G1 X131.923 Y120.644 E6.38489
G1 X131.323 Y120.785 E6.44024
G1 X130.541 Y120.85 E6.51071
G1 X89.458 Y120.85 E10.20006
G1 X88.843 Y120.81 E10.2554
G1 X88.239 Y120.691 E10.31069
G1 X87.655 Y120.494 E10.36603
G1 X87.101 Y120.224 E10.42138
G1 X86.587 Y119.884 E10.47672
G1 X86.121 Y119.481 E10.53205
G1 X85.712 Y119.021 E10.58732
G1 X85.365 Y118.511 E10.64272
G1 X85.088 Y117.961 E10.69802
G1 X84.884 Y117.38 E10.75332
G1 X84.756 Y116.777 E10.80868
G1 X84.708 Y116.1 E10.86962
G1 X84.709 Y104.902 E11.87523
G1 X84.749 Y104.287 E11.93058
G1 X84.868 Y103.682 E11.98595
G1 X85.057 Y103.118 E12.03936
G1 X85.134 Y102.928 E12.05778
G1 X85.402 Y102.373 E12.11312
G1 X85.739 Y101.858 E12.16839
G1 X86.141 Y101.39 E12.2238
G1 X86.467 Y101.097 E12.26316
G1 X86.381 Y101.022 E12.27341
G1 X85.946 Y100.586 E12.32871
G1 X85.57 Y100.098 E12.38404
G1 X85.261 Y99.565 E12.43936
G1 X84.979 Y98.863 E12.5073
G1 X84.923 Y98.683 E12.52423
G1 X84.779 Y98.084 E12.57955
G1 X84.709 Y97.272 E12.65274
G1 X84.709 Y95.902 E12.77577
G1 X84.749 Y95.287 E12.83112
G1 X84.885 Y94.581 E12.89568
G1 X85.053 Y93.988 E12.95103
G1 X85.297 Y93.422 E13.00638
G1 X85.588 Y92.915 E13.05888
G1 X85.938 Y92.408 E13.1142
G1 X86.35 Y91.95 E13.16953
M204 S3000
M205 X10 Y10
G0 X86.745 Y92.264
M204 S1800
M205 X8 Y8
G1 X87.136 Y91.936 E13.21536
G1 X87.325 Y91.796 E13.23648
G1 X87.816 Y91.482 E13.28882
G1 X88.346 Y91.238 E13.34121
G1 X88.984 Y91.044 E13.4011
G1 X89.556 Y90.932 E13.45344
G1 X90.081 Y90.898 E13.50069
G1 X94.259 Y90.89 E13.87588
G1 X94.516 Y90.892 E13.89896
G1 X107.276 Y90.889 E15.04484
G1 X107.857 Y90.929 E15.09714
G1 X108.428 Y91.048 E15.14952
G1 X108.901 Y91.206 E15.1943
G1 X109.435 Y91.439 E15.24662
G1 X109.932 Y91.744 E15.29899
G1 X110.529 Y92.257 E15.36967
G1 X111.007 Y92.797 E15.43444
G1 X111.59 Y92.711 E15.48736
G1 X112.173 Y92.706 E15.53971
G1 X112.554 Y92.746 E15.57412
G1 X113.334 Y92.864 E15.64496
G1 X113.765 Y92.951 E15.68445
G1 X114.321 Y93.126 E15.73679
G1 X114.898 Y93.403 E15.79427
G1 X116.935 Y94.58 E16.00554
G1 X117.839 Y95.104 E16.09937
G1 X128.783 Y101.419 E17.23405
G1 X130.604 Y102.465 E17.42264
G1 X132.264 Y103.427 E17.59493
G1 X132.747 Y103.753 E17.64726
G1 X133.296 Y104.246 E17.71352
G1 X133.691 Y104.675 E17.76589
G1 X134.023 Y105.153 E17.81816
G1 X134.271 Y105.634 E17.86675
G1 X134.411 Y105.955 E17.8982
G1 X134.606 Y106.504 E17.95052
G1 X134.725 Y107.074 E18.00281
G1 X134.762 Y107.504 E18.04157
G1 X134.78 Y108.012 E18.08722
G1 X134.761 Y108.594 E18.13951
G1 X134.662 Y109.168 E18.19182
G1 X134.486 Y109.724 E18.24419
G1 X134.235 Y110.25 E18.29653
G1 X133.959 Y110.685 E18.34279
G1 X133.604 Y111.147 E18.39512
G1 X133.189 Y111.556 E18.44744
G1 X132.716 Y111.907 E18.50034
G1 X133.143 Y112.215 E18.54762
G1 X133.565 Y112.616 E18.59989
G1 X134.078 Y113.306 E18.67711
G1 X134.179 Y113.475 E18.69479
G1 X134.443 Y113.994 E18.74708
G1 X134.634 Y114.545 E18.79945
G1 X134.747 Y115.117 E18.85181
G1 X134.79 Y116.005 E18.93164
G1 X134.763 Y116.587 E18.98397
G1 X134.657 Y117.16 E19.03629
G1 X134.473 Y117.713 E19.08863
G1 X134.216 Y118.235 E19.14088
G1 X133.889 Y118.718 E19.19326
G1 X133.499 Y119.151 E19.24559
G1 X133.054 Y119.527 E19.29791
G1 X132.562 Y119.839 E19.35023
G1 X132.031 Y120.08 E19.4026
G1 X131.473 Y120.247 E19.4549
G1 X130.897 Y120.335 E19.50723
G1 X130.541 Y120.35 E19.53923
G1 X89.458 Y120.35 E23.22858
G1 X88.877 Y120.31 E23.28088
G1 X88.306 Y120.191 E23.33325
G1 X87.757 Y119.995 E23.3856
G1 X87.241 Y119.726 E23.43786
G1 X86.765 Y119.388 E23.49029
G1 X86.341 Y118.989 E23.54257
G1 X85.975 Y118.535 E23.59494
G1 X85.675 Y118.036 E23.64723
G1 X85.445 Y117.5 E23.6996
G1 X85.291 Y116.938 E23.75193
G1 X85.208 Y116.1 E23.82756
G1 X85.209 Y104.902 E24.83316
G1 X85.249 Y104.32 E24.88555
G1 X85.368 Y103.75 E24.93784
G1 X85.597 Y103.116 E24.99838
G1 X85.853 Y102.592 E25.05075
G1 X86.177 Y102.108 E25.10305
G1 X86.565 Y101.673 E25.1554
G1 X87.241 Y101.135 E25.23298
G1 X87.282 Y101.109 E25.23734
G1 X86.711 Y100.646 E25.30336
G1 X86.301 Y100.232 E25.35568
G1 X85.951 Y99.767 E25.40795
G1 X85.667 Y99.257 E25.46037
G1 X85.457 Y98.715 E25.51257
G1 X85.401 Y98.535 E25.5295
G1 X85.266 Y97.968 E25.58184
G1 X85.209 Y97.272 E25.64455
G1 X85.209 Y95.902 E25.76758
G1 X85.249 Y95.321 E25.81988
G1 X85.373 Y94.686 E25.87798
G1 X85.535 Y94.126 E25.93033
G1 X85.879 Y93.402 E26.00232
G1 X86.017 Y93.171 E26.02648
G1 X86.35 Y92.693 E26.07879
G1 X86.745 Y92.264 E26.13116
M204 S3000
M205 X10 Y10
G0 X87.137 Y92.582
M204 S1800
M205 X8 Y8
G1 X87.623 Y92.198 E26.18679
G1 X88.085 Y91.905 E26.23591
G1 X88.585 Y91.682 E26.28508
G1 X89.114 Y91.527 E26.33458
G1 X89.652 Y91.424 E26.38377
G1 X90.082 Y91.398 E26.42246
G1 X94.255 Y91.39 E26.7972
G1 X94.512 Y91.392 E26.82028
G1 X107.276 Y91.389 E27.96652
G1 X107.822 Y91.429 E28.01569
G1 X108.539 Y91.608 E28.08205
G1 X108.732 Y91.677 E28.10046
G1 X109.233 Y91.898 E28.14963
G1 X109.696 Y92.19 E28.19879
G1 X110.169 Y92.604 E28.25524
G1 X110.361 Y92.803 E28.28007
G1 X110.711 Y93.224 E28.32923
G1 X110.803 Y93.375 E28.34511
G1 X110.911 Y93.336 E28.35542
G1 X111.448 Y93.228 E28.40461
G1 X111.994 Y93.199 E28.45371
G1 X112.479 Y93.24 E28.49742
G1 X113.259 Y93.358 E28.56827
G1 X113.648 Y93.438 E28.60393
G1 X114.17 Y93.604 E28.65312
G1 X114.648 Y93.836 E28.70084
G1 X116.685 Y95.012 E28.91206
G1 X117.597 Y95.541 E29.00674
G1 X128.534 Y101.852 E30.14069
G1 X130.353 Y102.897 E30.32908
G1 X132.013 Y103.859 E30.50138
G1 X132.466 Y104.168 E30.55062
G1 X132.952 Y104.609 E30.60955
G1 X133.322 Y105.013 E30.65875
G1 X133.628 Y105.467 E30.70792
G1 X133.952 Y106.155 E30.77621
G1 X134.134 Y106.671 E30.82534
G1 X134.238 Y107.208 E30.87446
G1 X134.263 Y107.521 E30.90266
G1 X134.281 Y108.029 E30.94831
G1 X134.26 Y108.576 E30.99747
G1 X134.16 Y109.114 E31.04661
G1 X133.983 Y109.632 E31.09577
G1 X133.656 Y110.238 E31.15761
G1 X133.543 Y110.408 E31.17594
G1 X133.208 Y110.84 E31.22503
G1 X132.813 Y111.219 E31.27419
G1 X132.367 Y111.537 E31.32338
G1 X131.737 Y111.843 E31.38627
G1 X131.667 Y111.887 E31.3937
G1 X132.148 Y112.139 E31.44246
G1 X132.406 Y112.299 E31.46973
G1 X132.849 Y112.621 E31.51891
G1 X133.241 Y113.003 E31.56806
G1 X133.649 Y113.562 E31.63021
G1 X133.75 Y113.731 E31.64789
G1 X133.996 Y114.22 E31.69705
G1 X134.168 Y114.74 E31.74623
G1 X134.262 Y115.279 E31.79537
G1 X134.29 Y116.016 E31.8616
G1 X134.262 Y116.562 E31.91069
G1 X134.155 Y117.099 E31.95987
G1 X133.971 Y117.615 E32.00906
G1 X133.714 Y118.098 E32.0582
G1 X133.39 Y118.539 E32.10734
G1 X133.004 Y118.927 E32.15649
G1 X132.567 Y119.256 E32.20561
G1 X132.086 Y119.517 E32.25475
G1 X131.572 Y119.706 E32.30393
G1 X131.036 Y119.817 E32.35309
G1 X130.541 Y119.85 E32.39764
G1 X89.458 Y119.85 E36.08699
G1 X88.912 Y119.81 E36.13615
G1 X88.378 Y119.691 E36.18528
G1 X87.867 Y119.496 E36.2344
G1 X87.389 Y119.228 E36.28361
G1 X86.956 Y118.893 E36.33278
G1 X86.576 Y118.499 E36.38193
G1 X86.257 Y118.054 E36.4311
G1 X86.007 Y117.567 E36.48026
G1 X85.83 Y117.049 E36.52942
G1 X85.731 Y116.511 E36.57854
G1 X85.708 Y116.1 E36.61551
G1 X85.709 Y104.902 E37.62112
G1 X85.749 Y104.356 E37.67028
G1 X85.868 Y103.822 E37.71941
G1 X86.061 Y103.304 E37.76905
G1 X86.303 Y102.813 E37.81821
G1 X86.614 Y102.362 E37.86741
G1 X86.987 Y101.962 E37.91652
G1 X87.511 Y101.556 E37.97605
G1 X87.684 Y101.445 E37.99451
G1 X88.165 Y101.184 E38.04366
G1 X88.368 Y101.109 E38.06309
G1 X87.981 Y100.945 E38.10083
G1 X87.513 Y100.66 E38.15004
G1 X87.041 Y100.27 E38.20503
G1 X86.657 Y99.88 E38.25418
G1 X86.334 Y99.438 E38.30334
G1 X86.079 Y98.954 E38.35247
G1 X85.878 Y98.386 E38.40657
G1 X85.754 Y97.853 E38.45572
G1 X85.709 Y97.272 E38.50805
G1 X85.709 Y95.902 E38.63108
G1 X85.793 Y95.112 E38.70242
G1 X85.862 Y94.792 E38.73182
G1 X86.016 Y94.266 E38.78104
G1 X86.309 Y93.659 E38.84156
G1 X86.447 Y93.428 E38.86573
G1 X86.761 Y92.98 E38.91486
G1 X87.137 Y92.582 E38.96403
M204 S3000
M205 X10 Y10
G0 X87.527 Y92.904
M204 S1800
M205 X8 Y8
G1 X87.921 Y92.599 E39.00877
G1 X88.352 Y92.329 E39.05444
G1 X89.01 Y92.073 E39.11785
G1 X89.244 Y92.01 E39.13961
G1 X89.745 Y91.916 E39.18539
G1 X90.083 Y91.898 E39.21578
G1 X94.251 Y91.89 E39.59008
G1 X94.508 Y91.892 E39.61316
G1 X107.276 Y91.889 E40.75976
G1 X107.784 Y91.929 E40.80552
G1 X108.371 Y92.079 E40.85992
G1 X108.564 Y92.148 E40.87833
G1 X109.029 Y92.356 E40.92408
G1 X109.455 Y92.635 E40.96981
G1 X110.001 Y93.15 E41.03721
G1 X110.325 Y93.544 E41.08302
G1 X110.571 Y94.001 E41.12963
G1 X110.861 Y93.875 E41.15802
G1 X111.354 Y93.747 E41.20376
G1 X111.862 Y93.698 E41.24959
G1 X112.404 Y93.735 E41.29838
G1 X113.184 Y93.853 E41.36922
G1 X113.531 Y93.924 E41.40103
G1 X114.016 Y94.081 E41.44681
G1 X114.398 Y94.269 E41.48504
G1 X116.434 Y95.445 E41.69619
G1 X117.339 Y95.97 E41.79014
G1 X128.285 Y102.286 E42.92502
G1 X130.103 Y103.33 E43.11329
G1 X131.763 Y104.292 E43.28558
G1 X132.367 Y104.743 E43.35328
G1 X132.609 Y104.972 E43.3832
G1 X132.95 Y105.351 E43.42898
G1 X133.229 Y105.777 E43.47471
G1 X133.494 Y106.355 E43.53181
G1 X133.66 Y106.836 E43.57751
G1 X133.763 Y107.539 E43.64131
G1 X133.781 Y108.047 E43.68696
G1 X133.759 Y108.556 E43.73271
G1 X133.658 Y109.055 E43.77843
G1 X133.48 Y109.533 E43.82424
G1 X133.127 Y110.131 E43.8866
G1 X132.812 Y110.532 E43.93239
G1 X132.439 Y110.879 E43.97814
G1 X132.016 Y111.163 E44.02389
G1 X131.561 Y111.375 E44.06897
G1 X131.313 Y111.468 E44.09276
G1 X130.824 Y111.609 E44.13846
G1 X130.318 Y111.672 E44.18425
G1 X129.538 Y111.63 E44.2544
G1 X129.001 Y111.534 E44.30338
G1 X89.241 Y100.881 E47.99987
G1 X88.646 Y100.686 E48.05609
G1 X88.178 Y100.484 E48.10187
G1 X87.551 Y100.053 E48.1702
G1 X87.371 Y99.895 E48.1917
G1 X87.016 Y99.529 E48.23749
G1 X86.722 Y99.113 E48.28324
G1 X86.412 Y98.417 E48.35166
G1 X86.356 Y98.237 E48.36859
G1 X86.243 Y97.741 E48.41427
G1 X86.209 Y97.272 E48.4565
G1 X86.209 Y95.902 E48.57953
G1 X86.282 Y95.217 E48.64139
G1 X86.351 Y94.897 E48.67079
G1 X86.497 Y94.409 E48.71653
G1 X86.738 Y93.915 E48.76589
G1 X86.876 Y93.684 E48.79006
G1 X87.171 Y93.269 E48.83578
G1 X87.527 Y92.904 E48.88157
M204 S3000
M205 X10 Y10
G0 X87.579 Y93.56
M204 S1800
M205 X8 Y8
G1 X88.029 Y93.141 E48.93678
G1 X88.617 Y92.755 E48.99995
G1 X89.14 Y92.556 E49.0502
G1 X89.835 Y92.41 E49.11398
G1 X90.084 Y92.398 E49.13636
G1 X94.247 Y92.39 E49.51021
G1 X94.504 Y92.392 E49.53329
G1 X107.276 Y92.389 E50.68025
G1 X107.743 Y92.429 E50.72234
G1 X108.396 Y92.619 E50.78341
G1 X108.822 Y92.813 E50.82545
G1 X109.209 Y93.078 E50.86757
G1 X109.641 Y93.498 E50.92167
G1 X109.936 Y93.861 E50.96368
G1 X110.218 Y94.391 E51.01759
G1 X110.342 Y94.704 E51.04783
G1 X110.866 Y94.407 E51.10192
G1 X111.313 Y94.265 E51.14403
G1 X111.777 Y94.202 E51.18608
G1 X112.329 Y94.229 E51.23572
G1 X113.109 Y94.347 E51.30656
G1 X113.859 Y94.558 E51.37652
G1 X114.148 Y94.702 E51.40552
G1 X116.183 Y95.877 E51.61654
G1 X117.095 Y96.406 E51.71122
G1 X128.036 Y102.719 E52.84558
G1 X129.852 Y103.763 E53.03369
G1 X131.512 Y104.725 E53.20598
G1 X132.023 Y105.107 E53.26328
G1 X132.577 Y105.685 E53.33518
G1 X132.896 Y106.234 E53.3922
G1 X133.186 Y106.999 E53.46567
G1 X133.263 Y107.557 E53.51625
G1 X133.281 Y108.065 E53.5619
G1 X133.258 Y108.533 E53.60398
G1 X133.155 Y108.99 E53.64605
G1 X132.977 Y109.423 E53.68809
G1 X132.71 Y109.854 E53.73362
G1 X132.418 Y110.221 E53.77573
G1 X132.069 Y110.533 E53.81777
G1 X131.671 Y110.781 E53.85988
G1 X131.138 Y111 E53.91163
G1 X130.686 Y111.126 E53.95377
G1 X130.22 Y111.175 E53.99585
G1 X129.584 Y111.132 E54.05309
G1 X129.13 Y111.051 E54.09451
G1 X128.275 Y110.823 E54.17397
G1 X128.159 Y110.79 E54.1848
G1 X89.37 Y100.398 E57.79099
G1 X88.807 Y100.213 E57.84421
G1 X88.378 Y100.024 E57.88631
G1 X87.881 Y99.677 E57.94074
G1 X87.376 Y99.181 E58.00431
G1 X87.114 Y98.792 E58.04643
G1 X86.889 Y98.269 E58.09755
G1 X86.733 Y97.631 E58.15654
G1 X86.709 Y97.272 E58.18885
G1 X86.709 Y95.902 E58.31188
G1 X86.771 Y95.322 E58.36426
G1 X86.977 Y94.554 E58.43566
G1 X87.305 Y93.941 E58.4981
G1 X87.579 Y93.56 E58.54024
M204 S3000
M205 X10 Y10
G0 X87.985 Y93.855
M204 S1800
M205 X8 Y8
G1 X88.516 Y93.403 E58.60286
G1 X88.879 Y93.184 E58.64093
G1 X89.504 Y92.975 E58.70012
G1 X90.085 Y92.898 E58.75275
G1 X94.243 Y92.89 E59.12615
G1 X94.5 Y92.892 E59.14923
G1 X107.276 Y92.889 E60.29654
G1 X107.698 Y92.929 E60.33461
G1 X108.227 Y93.089 E60.38424
G1 X108.611 Y93.269 E60.42232
G1 X109.089 Y93.646 E60.47699
G1 X109.545 Y94.176 E60.53978
G1 X109.875 Y94.883 E60.60985
G1 X110.022 Y95.484 E60.66541
G1 X110.043 Y95.714 E60.68615
G1 X110.254 Y95.433 E60.71771
G1 X110.568 Y95.148 E60.75579
G1 X110.929 Y94.927 E60.7938
G1 X111.326 Y94.777 E60.83191
G1 X111.743 Y94.705 E60.86991
G1 X112.255 Y94.723 E60.91592
G1 X113.035 Y94.841 E60.98676
G1 X113.699 Y95.033 E61.04883
G1 X113.898 Y95.135 E61.06891
G1 X115.932 Y96.31 E61.27986
G1 X116.84 Y96.836 E61.37409
G1 X127.791 Y103.155 E62.5095
G1 X129.601 Y104.195 E62.69696
G1 X131.261 Y105.157 E62.86925
G1 X131.679 Y105.47 E62.91615
G1 X132.201 Y106.018 E62.98411
G1 X132.577 Y106.755 E63.05841
G1 X132.709 Y107.157 E63.09641
G1 X132.764 Y107.574 E63.13418
G1 X132.782 Y108.082 E63.17983
G1 X132.757 Y108.505 E63.21788
G1 X132.653 Y108.916 E63.25596
G1 X132.407 Y109.408 E63.30535
G1 X132.027 Y109.907 E63.36168
G1 X131.703 Y110.18 E63.39973
G1 X131.21 Y110.439 E63.44974
G1 X130.553 Y110.643 E63.51152
G1 X129.964 Y110.665 E63.56445
G1 X129.259 Y110.568 E63.62835
G1 X128.411 Y110.342 E63.70716
G1 X128.283 Y110.306 E63.7191
G1 X89.5 Y99.915 E67.32475
G1 X88.969 Y99.74 E67.37496
