;FLAVOR:Marlin
;TIME:2895
;Filament used: 2.23456m
;Layer height: 0.2
;MINX:76.231
;MINY:51.85
;MINZ:0.2
;MAXX:143.77
;MAXY:173.027
;MAXZ:13.5
;Generated with Cura_SteamEngine 4.8.0
M140 S60
M105
M190 S60
M104 S200
M105
M109 S200
M82 ;absolute extrusion mode
G21 ;metric values
G90 ;absolute positioning
M82 ;set extruder to absolute mode
M107 ;start with the fan off
G28 X0 Y0 ;move X/Y to min endstops
G28 Z0 ;move Z to min endstops
G1 Z15.0 F100 ;move the platform down 15mm
G92 E0 ;zero the extruded length
G1 F200 E3 ;extrude 3mm of feed stock
G92 E0 ;zero the extruded length again
G1 F100
G0 Y20 F100
M117 Printing...
G5
G92 E0
G92 E0
G1 F2400 E-3
;LAYER_COUNT:42
;LAYER:0
M106 S255
M204 S3000
M205 X10 Y10
G1 F600 Z0.275
G0 F500 X78.446 Y54.987 Z0.275
M204 S1800
M205 X8 Y8
;TYPE:SKIRT
G1 F600 Z0.2
G1 F2400 E0
G1 X78.942 Y54.391 E0.05055
G1 X79.497 Y53.849 E0.10112
G1 X80.104 Y53.367 E0.15165
G1 X80.758 Y52.95 E0.20221
G1 X81.736 Y52.484 E0.27283
G1 X82 Y52.381 E0.29131
G1 X82.736 Y52.137 E0.34185
G1 X83.493 Y51.97 E0.39239
G1 X84.595 Y51.868 E0.46454
G1 X85.467 Y51.852 E0.52139
G1 X88.898 Y51.855 E0.74506
G1 X132.073 Y51.856 E3.55963
G1 X134.049 Y51.85 E3.68845
G1 X134.701 Y51.852 E3.73095
G1 X135.368 Y51.863 E3.77444
G1 X136.142 Y51.916 E3.82501
G1 X137.093 Y52.093 E3.88807
G1 X137.298 Y52.145 E3.90186
G1 X138.039 Y52.374 E3.95242
G1 X138.752 Y52.678 E4.00295
G1 X139.43 Y53.054 E4.05349
G1 X140.066 Y53.498 E4.10405
G1 X140.686 Y54.037 E4.15761
G1 X140.854 Y54.2 E4.17287
G1 X141.381 Y54.768 E4.22338
G1 X141.848 Y55.387 E4.27393
G1 X142.248 Y56.051 E4.32446
G1 X142.578 Y56.753 E4.37503
G1 X142.886 Y57.67 E4.43809
G1 X142.943 Y57.885 E4.45259
G1 X143.103 Y58.644 E4.50316
G1 X143.188 Y59.514 E4.56014
G1 X143.203 Y60.269 E4.60937
G1 X143.205 Y61.034 E4.65924
G1 X143.201 Y63.961 E4.85005
G1 X143.2 Y75.641 E5.61147
G1 X143.206 Y77.602 E5.73931
G1 X143.204 Y78.271 E5.78292
G1 X143.192 Y78.946 E5.82693
G1 X143.138 Y79.719 E5.87744
G1 X143.005 Y80.483 E5.928
G1 X142.832 Y81.113 E5.97059
G1 X142.769 Y81.309 E5.98401
G1 X142.494 Y82.034 E6.03456
G1 X142.146 Y82.727 E6.08511
G1 X141.728 Y83.38 E6.13565
G1 X141.143 Y84.101 E6.19618
G1 X141.004 Y84.252 E6.20956
G1 X140.45 Y84.795 E6.26013
G1 X139.843 Y85.277 E6.31066
G1 X139.19 Y85.695 E6.3612
G1 X138.497 Y86.043 E6.41176
G1 X137.751 Y86.325 E6.46375
G1 X137.531 Y86.395 E6.4788
G1 X136.781 Y86.592 E6.52935
G1 X136.381 Y86.664 E6.55584
G1 X135.469 Y86.747 E6.61554
G1 X134.922 Y86.761 E6.65121
G1 X134.026 Y86.762 E6.70962
G1 X131.101 Y86.758 E6.9003
G1 X87.927 Y86.757 E9.71481
G1 X85.951 Y86.763 E9.84362
G1 X85.283 Y86.761 E9.88717
G1 X84.611 Y86.749 E9.93099
G1 X83.837 Y86.695 E9.98157
G1 X83.073 Y86.562 E10.03212
G1 X82.491 Y86.404 E10.07143
G1 X82.3 Y86.344 E10.08448
G1 X81.574 Y86.074 E10.13498
G1 X80.878 Y85.731 E10.18556
G1 X80.222 Y85.317 E10.23613
G1 X79.487 Y84.726 E10.29761
G1 X79.328 Y84.581 E10.31164
G1 X78.783 Y84.03 E10.36216
G1 X78.297 Y83.426 E10.4127
G1 X77.876 Y82.774 E10.4633
G1 X77.525 Y82.083 E10.51382
G1 X77.222 Y81.284 E10.56953
G1 X77.165 Y81.103 E10.5819
G1 X76.971 Y80.352 E10.63246
G1 X76.855 Y79.586 E10.68297
G1 X76.82 Y79.004 E10.72098
G1 X76.795 Y77.756 E10.80235
G1 X76.799 Y74.652 E11.0047
G1 X76.8 Y62.972 E11.76612
G1 X76.794 Y61.012 E11.89389
G1 X76.796 Y60.332 E11.93822
G1 X76.808 Y59.661 E11.98197
G1 X76.862 Y58.887 E12.03255
G1 X76.995 Y58.123 E12.0831
G1 X77.206 Y57.377 E12.13364
G1 X77.51 Y56.621 E12.18676
G1 X77.652 Y56.316 E12.20869
G1 X78.015 Y55.631 E12.25923
G1 X78.446 Y54.987 E12.30975
M204 S3000
M205 X10 Y10
G0 F500 X78.929 Y55.277
M204 S1800
M205 X8 Y8
G1 F2400 X79.412 Y54.708 E12.3584
G1 X79.952 Y54.194 E12.407
G1 X80.545 Y53.742 E12.45561
G1 X81.183 Y53.355 E12.50425
G1 X81.939 Y53.006 E12.55854
G1 X82.203 Y52.903 E12.57701
G1 X82.912 Y52.67 E12.62566
G1 X83.641 Y52.513 E12.67427
G1 X84.605 Y52.428 E12.73736
G1 X85.613 Y52.411 E12.80308
G1 X88.897 Y52.415 E13.01717
G1 X132.074 Y52.416 E15.83187
G1 X134.048 Y52.41 E15.96055
G1 X134.692 Y52.412 E16.00254
G1 X135.359 Y52.423 E16.04602
G1 X136.103 Y52.475 E16.09464
G1 X136.955 Y52.636 E16.15117
G1 X137.16 Y52.688 E16.16495
G1 X137.872 Y52.91 E16.21357
G1 X138.557 Y53.206 E16.26222
G1 X139.205 Y53.575 E16.31083
G1 X139.811 Y54.01 E16.35946
G1 X140.296 Y54.439 E16.40167
G1 X140.464 Y54.602 E16.41693
G1 X140.97 Y55.149 E16.46551
G1 X141.416 Y55.748 E16.51419
G1 X141.794 Y56.39 E16.56276
G1 X142.102 Y57.07 E16.61142
G1 X142.345 Y57.813 E16.66238
G1 X142.402 Y58.028 E16.67688
G1 X142.554 Y58.759 E16.72556
G1 X142.629 Y59.537 E16.77651
G1 X142.643 Y60.276 E16.82469
G1 X142.645 Y61.034 E16.87411
G1 X142.641 Y63.961 E17.06492
G1 X142.64 Y75.641 E17.82634
G1 X142.646 Y77.601 E17.95411
G1 X142.644 Y78.261 E17.99713
G1 X142.632 Y78.936 E18.04114
G1 X142.579 Y79.68 E18.08977
G1 X142.446 Y80.414 E18.1384
G1 X142.299 Y80.942 E18.17413
G1 X142.236 Y81.138 E18.18755
G1 X141.97 Y81.835 E18.23618
G1 X141.631 Y82.499 E18.28478
G1 X141.223 Y83.123 E18.33339
G1 X140.731 Y83.722 E18.38392
G1 X140.592 Y83.873 E18.3973
G1 X140.058 Y84.394 E18.44593
G1 X139.471 Y84.855 E18.49459
G1 X138.839 Y85.25 E18.54317
G1 X138.168 Y85.575 E18.59178
G1 X137.581 Y85.791 E18.63255
G1 X137.361 Y85.861 E18.6476
G1 X136.296 Y86.11 E18.7189
G1 X135.452 Y86.188 E18.77416
G1 X134.921 Y86.201 E18.80878
G1 X134.026 Y86.202 E18.86713
G1 X131.101 Y86.198 E19.05781
G1 X87.926 Y86.197 E21.87238
G1 X85.952 Y86.203 E22.00107
G1 X85.293 Y86.201 E22.04403
G1 X84.621 Y86.189 E22.08784
G1 X83.877 Y86.136 E22.13646
G1 X83.143 Y86.003 E22.18509
G1 X82.659 Y85.87 E22.21781
G1 X82.468 Y85.81 E22.23087
G1 X81.769 Y85.549 E22.27951
G1 X81.103 Y85.214 E22.32811
G1 X80.476 Y84.81 E22.37673
G1 X79.864 Y84.313 E22.42812
G1 X79.705 Y84.168 E22.44215
G1 X79.182 Y83.636 E22.49079
G1 X78.718 Y83.052 E22.53941
G1 X78.32 Y82.421 E22.58804
G1 X77.991 Y81.752 E22.63665
G1 X77.756 Y81.116 E22.68085
G1 X77.699 Y80.935 E22.69322
G1 X77.514 Y80.212 E22.74187
G1 X77.407 Y79.474 E22.79048
G1 X77.38 Y78.992 E22.82195
G1 X77.355 Y77.757 E22.90248
G1 X77.359 Y74.653 E23.10483
G1 X77.36 Y62.972 E23.86631
G1 X77.354 Y61.013 E23.99402
G1 X77.356 Y60.342 E24.03776
G1 X77.368 Y59.671 E24.08151
G1 X77.421 Y58.927 E24.13013
G1 X77.554 Y58.192 E24.17883
G1 X77.764 Y57.477 E24.22741
G1 X78.017 Y56.857 E24.27106
G1 X78.159 Y56.552 E24.29299
G1 X78.51 Y55.894 E24.34161
G1 X78.929 Y55.277 E24.39023
M204 S3000
M205 X10 Y10
G0 F500 X79.411 Y55.569
M204 S1800
M205 X8 Y8
G1 F2400 X79.88 Y55.029 E24.43685
G1 X80.406 Y54.545 E24.48345
G1 X80.983 Y54.123 E24.53005
G1 X81.604 Y53.767 E24.57671
G1 X82.143 Y53.528 E24.61515
G1 X82.407 Y53.425 E24.63363
G1 X83.087 Y53.202 E24.68028
G1 X83.787 Y53.057 E24.72688
G1 X84.616 Y52.988 E24.78111
G1 X85.613 Y52.971 E24.84611
G1 X88.897 Y52.975 E25.0602
G1 X132.076 Y52.976 E27.87503
G1 X134.047 Y52.97 E28.00352
G1 X134.683 Y52.972 E28.04498
G1 X135.35 Y52.983 E28.08847
G1 X136.063 Y53.035 E28.13507
G1 X136.818 Y53.178 E28.18516
G1 X137.023 Y53.23 E28.19895
G1 X137.705 Y53.445 E28.24557
G1 X138.359 Y53.734 E28.29218
G1 X138.977 Y54.094 E28.3388
G1 X139.551 Y54.521 E28.38544
G1 X140.074 Y55.004 E28.43185
G1 X140.558 Y55.53 E28.47845
G1 X140.981 Y56.106 E28.52503
G1 X141.337 Y56.727 E28.5717
G1 X141.622 Y57.383 E28.61832
G1 X141.803 Y57.957 E28.65756
G1 X141.86 Y58.172 E28.67206
G1 X142.005 Y58.872 E28.71866
G1 X142.069 Y59.559 E28.76364
G1 X142.083 Y60.284 E28.81091
G1 X142.085 Y61.033 E28.85974
G1 X142.081 Y63.96 E29.05055
G1 X142.08 Y75.641 E29.81203
G1 X142.086 Y77.6 E29.93974
G1 X142.084 Y78.251 E29.98218
G1 X142.072 Y78.926 E30.02619
G1 X142.019 Y79.639 E30.0728
G1 X141.887 Y80.342 E30.11943
G1 X141.703 Y80.966 E30.16184
G1 X141.446 Y81.634 E30.2085
G1 X141.117 Y82.269 E30.25512
G1 X140.719 Y82.863 E30.30173
G1 X140.319 Y83.343 E30.34246
G1 X140.18 Y83.494 E30.35584
G1 X139.667 Y83.992 E30.40245
G1 X139.101 Y84.43 E30.4491
G1 X138.49 Y84.802 E30.49574
G1 X137.842 Y85.104 E30.54234
G1 X137.192 Y85.328 E30.58716
G1 X136.211 Y85.557 E30.65283
G1 X135.435 Y85.628 E30.70363
G1 X134.92 Y85.641 E30.73721
G1 X134.027 Y85.642 E30.79543
G1 X131.102 Y85.638 E30.98611
G1 X87.924 Y85.637 E33.80088
G1 X85.953 Y85.643 E33.92937
G1 X85.303 Y85.641 E33.97174
G1 X84.631 Y85.629 E34.01555
G1 X83.917 Y85.576 E34.06223
G1 X83.214 Y85.444 E34.10886
G1 X82.636 Y85.276 E34.1481
G1 X81.967 Y85.024 E34.1947
G1 X81.33 Y84.698 E34.24135
G1 X80.733 Y84.304 E34.28798
G1 X80.241 Y83.899 E34.32952
G1 X80.082 Y83.754 E34.34355
G1 X79.582 Y83.243 E34.39015
G1 X79.141 Y82.68 E34.43678
G1 X78.766 Y82.071 E34.4834
G1 X78.461 Y81.424 E34.53003
G1 X78.291 Y80.947 E34.56304
G1 X78.234 Y80.766 E34.57541
G1 X78.057 Y80.073 E34.62204
G1 X77.959 Y79.365 E34.66863
G1 X77.939 Y78.981 E34.6937
G1 X77.916 Y77.903 E34.76399
G1 X77.919 Y74.654 E34.97579
G1 X77.92 Y62.972 E35.73734
G1 X77.914 Y61.014 E35.86498
G1 X77.916 Y60.352 E35.90814
G1 X77.928 Y59.681 E35.95189
G1 X77.981 Y58.967 E35.99856
G1 X78.113 Y58.264 E36.04519
G1 X78.322 Y57.58 E36.09181
G1 X78.525 Y57.094 E36.12615
G1 X78.667 Y56.789 E36.14808
G1 X79.005 Y56.158 E36.19475
G1 X79.411 Y55.569 E36.24138
M204 S3000
M205 X10 Y10
G0 F500 X79.891 Y55.864
M204 S1800
M205 X8 Y8
G1 F2400 X80.346 Y55.354 E36.28594
G1 X80.857 Y54.901 E36.33045
G1 X81.418 Y54.511 E36.37499
G1 X82.02 Y54.188 E36.41953
G1 X82.61 Y53.946 E36.4611
G1 X83.26 Y53.736 E36.50563
G1 X83.93 Y53.602 E36.55017
G1 X84.626 Y53.548 E36.59568
G1 X85.612 Y53.531 E36.65997
G1 X88.896 Y53.535 E36.87405
G1 X132.078 Y53.536 E39.68908
G1 X134.046 Y53.53 E39.81738
G1 X134.673 Y53.532 E39.85825
G1 X135.34 Y53.543 E39.90174
G1 X136.022 Y53.594 E39.94632
G1 X136.68 Y53.721 E39.99001
G1 X136.885 Y53.773 E40.0038
G1 X137.536 Y53.98 E40.04833
G1 X138.159 Y54.261 E40.09288
G1 X138.745 Y54.613 E40.13744
G1 X139.516 Y55.243 E40.20235
G1 X139.684 Y55.406 E40.21761
G1 X140.145 Y55.909 E40.26209
G1 X140.545 Y56.463 E40.30663
G1 X140.877 Y57.06 E40.35117
G1 X141.138 Y57.692 E40.39574
G1 X141.319 Y58.315 E40.43803
G1 X141.455 Y58.985 E40.4826
G1 X141.509 Y59.581 E40.52161
G1 X141.523 Y60.291 E40.56791
G1 X141.525 Y61.032 E40.61621
G1 X141.521 Y63.959 E40.80702
G1 X141.52 Y75.64 E41.56851
G1 X141.526 Y77.599 E41.69622
G1 X141.524 Y78.241 E41.73807
G1 X141.512 Y78.916 E41.78208
G1 X141.46 Y79.597 E41.8266
G1 X141.329 Y80.268 E41.87117
G1 X141.17 Y80.795 E41.90705
G1 X140.923 Y81.432 E41.95159
G1 X140.604 Y82.036 E41.99612
G1 X140.216 Y82.599 E42.04069
G1 X139.768 Y83.114 E42.08519
G1 X139.276 Y83.589 E42.12977
G1 X138.733 Y84.003 E42.17429
G1 X138.145 Y84.351 E42.21883
G1 X137.242 Y84.724 E42.28252
G1 X137.022 Y84.794 E42.29757
G1 X136.126 Y85.003 E42.35755
G1 X135.418 Y85.068 E42.4039
G1 X134.92 Y85.081 E42.43637
G1 X134.028 Y85.082 E42.49452
G1 X131.103 Y85.078 E42.6852
G1 X87.922 Y85.077 E45.50017
G1 X85.954 Y85.083 E45.62846
G1 X85.313 Y85.081 E45.67025
G1 X84.641 Y85.069 E45.71406
G1 X83.959 Y85.017 E45.75865
G1 X82.995 Y84.802 E45.82304
G1 X82.804 Y84.742 E45.83609
G1 X82.165 Y84.499 E45.88066
G1 X81.559 Y84.184 E45.92518
G1 X80.994 Y83.799 E45.96975
G1 X80.46 Y83.34 E46.01565
G1 X79.983 Y82.851 E46.06019
G1 X79.566 Y82.309 E46.10477
G1 X79.216 Y81.723 E46.14926
G1 X78.825 Y80.779 E46.21587
G1 X78.768 Y80.598 E46.22824
G1 X78.601 Y79.936 E46.27275
G1 X78.499 Y78.969 E46.33614
G1 X78.476 Y77.891 E46.40643
G1 X78.479 Y74.654 E46.61745
G1 X78.48 Y62.973 E47.37893
G1 X78.474 Y61.015 E47.50657
G1 X78.476 Y60.362 E47.54914
G1 X78.488 Y59.691 E47.59289
G1 X78.54 Y59.009 E47.63748
G1 X78.671 Y58.339 E47.68198
G1 X78.88 Y57.688 E47.72656
G1 X79.175 Y57.025 E47.77386
G1 X79.499 Y56.424 E47.81837
G1 X79.891 Y55.864 E47.86293
M204 S3000
M205 X10 Y10
G0 F500 X80.37 Y56.162
M204 S1800
M205 X8 Y8
G1 F2400 X80.81 Y55.684 E47.90529
G1 X81.305 Y55.263 E47.94765
G1 X81.848 Y54.907 E47.98998
G1 X82.55 Y54.571 E48.04071
G1 X82.814 Y54.468 E48.05918
G1 X83.432 Y54.27 E48.10149
G1 X84.071 Y54.149 E48.14389
G1 X84.636 Y54.108 E48.18082
G1 X85.611 Y54.091 E48.24438
G1 X88.895 Y54.095 E48.45847
G1 X132.08 Y54.096 E51.27369
G1 X134.045 Y54.09 E51.40179
G1 X134.664 Y54.092 E51.44214
G1 X135.331 Y54.103 E51.48563
G1 X135.979 Y54.153 E51.528
G1 X136.542 Y54.264 E51.56541
G1 X136.747 Y54.316 E51.5792
G1 X137.366 Y54.514 E51.62156
G1 X137.955 Y54.787 E51.66388
G1 X138.507 Y55.13 E51.70625
G1 X139.126 Y55.645 E51.75874
G1 X139.294 Y55.808 E51.774
G1 X139.731 Y56.288 E51.81632
G1 X140.106 Y56.818 E51.85864
G1 X140.414 Y57.39 E51.90099
G1 X140.721 Y58.244 E51.96015
G1 X140.778 Y58.459 E51.97465
G1 X140.905 Y59.096 E52.017
G1 X140.95 Y59.603 E52.05018
G1 X140.964 Y60.298 E52.09549
G1 X140.965 Y61.031 E52.14328
G1 X140.961 Y63.958 E52.33409
G1 X140.96 Y75.64 E53.09564
G1 X140.966 Y77.598 E53.22328
G1 X140.964 Y78.231 E53.26454
G1 X140.952 Y78.906 E53.30855
G1 X140.901 Y79.553 E53.35086
G1 X140.7 Y80.428 E53.40939
G1 X140.637 Y80.624 E53.42281
G1 X140.4 Y81.229 E53.46517
G1 X140.091 Y81.8 E53.50749
G1 X139.714 Y82.329 E53.54984
G1 X139.356 Y82.735 E53.58513
G1 X138.887 Y83.185 E53.6275
G1 X138.367 Y83.574 E53.66983
G1 X137.803 Y83.896 E53.71217
G1 X137.072 Y84.19 E53.76353
G1 X136.852 Y84.26 E53.77858
G1 X136.041 Y84.45 E53.83288
G1 X135.4 Y84.509 E53.87485
G1 X134.919 Y84.521 E53.90621
G1 X134.029 Y84.522 E53.96423
G1 X131.104 Y84.518 E54.15491
G1 X87.92 Y84.517 E56.97007
G1 X85.955 Y84.523 E57.09817
G1 X85.323 Y84.521 E57.13937
G1 X84.651 Y84.509 E57.18319
G1 X84.003 Y84.458 E57.22556
G1 X83.163 Y84.267 E57.28172
G1 X82.972 Y84.207 E57.29477
G1 X82.365 Y83.975 E57.33713
G1 X81.792 Y83.67 E57.37945
G1 X81.26 Y83.296 E57.42184
G1 X80.837 Y82.926 E57.45848
G1 X80.385 Y82.46 E57.5008
G1 X79.994 Y81.941 E57.54316
G1 X79.669 Y81.379 E57.58548
G1 X79.359 Y80.611 E57.63947
G1 X79.302 Y80.43 E57.65184
G1 X79.145 Y79.8 E57.69417
G1 X79.059 Y78.957 E57.74941
G1 X79.035 Y77.759 E57.82752
G1 X79.039 Y74.655 E58.02987
G1 X79.04 Y62.973 E58.79142
G1 X79.034 Y61.016 E58.91899
G1 X79.036 Y60.372 E58.96098
G1 X79.048 Y59.701 E59.00473
G1 X79.099 Y59.053 E59.0471
G1 X79.23 Y58.417 E59.08943
G1 X79.54 Y57.566 E59.14847
G1 X79.682 Y57.261 E59.17041
G1 X79.992 Y56.691 E59.2127
G1 X80.37 Y56.162 E59.25509
M204 S3000
M205 X10 Y10
G1 F2400 E56.25509
;MESH:New_Accelite_Controller_Cover_copy.stl
G0 F500 X83.649 Y61.025
G0 X84.974 Y61.027
G0 X86.131 Y64.559
G0 X89.284 Y70.011
G0 X89.744 Y70.002
M204 S1800
M205 X8 Y8
;TYPE:WALL-OUTER
G1 F2400 E59.25509
G1 F300 X89.858 Y70.942 E59.31682
G1 X90.06 Y71.864 E59.37835
G1 X90.351 Y72.764 E59.44001
G1 X90.728 Y73.632 E59.5017
G1 X91.187 Y74.458 E59.5633
G1 X91.723 Y75.236 E59.62489
G1 X92.331 Y75.96 E59.68652
G1 X93.007 Y76.621 E59.74816
G1 X93.744 Y77.214 E59.80982
G1 X94.535 Y77.733 E59.8715
G1 X95.372 Y78.172 E59.93311
G1 X95.937 Y78.403 E59.9729
G1 X96.252 Y78.531 E59.99507
G1 X97.157 Y78.801 E60.05664
G1 X97.952 Y78.957 E60.10945
G1 X97.157 Y78.957 E60.11647
G1 X96.252 Y78.957 E60.14682
G1 X95.911 Y78.957 E60.16644
G1 X87.906 Y78.957 E60.68829
G1 X85.965 Y78.963 E60.81482
G1 X84.787 Y78.96 E60.89161
G1 X84.631 Y78.875 E60.90319
G1 X84.597 Y78.763 E60.91083
G1 X84.595 Y77.589 E60.98736
G1 X84.599 Y74.796 E61.16943
G1 X84.6 Y62.973 E61.94017
G1 X84.594 Y61.026 E62.0671
G1 X84.597 Y59.83 E62.14507
G1 X84.637 Y59.714 E62.15307
G1 X84.796 Y59.652 E62.16419
G1 X85.964 Y59.651 E62.24033
G1 X88.747 Y59.655 E62.42176
G1 X95.88 Y59.655 E62.88676
G1 X96.708 Y59.655 E62.94073
G1 X97.625 Y59.655 E63.00051
G1 X97.981 Y59.655 E63.02372
G1 X97.625 Y59.707 E63.02496
G1 X96.708 Y59.932 E63.04399
G1 X95.927 Y60.207 E63.08452
G1 X95.816 Y60.246 E63.09219
G1 X94.97 Y60.639 E63.15301
G1 X94.155 Y61.116 E63.21457
G1 X93.389 Y61.67 E63.27619
G1 X92.681 Y62.296 E63.3378
G1 X92.035 Y62.987 E63.39947
G1 X91.46 Y63.739 E63.46118
G1 X90.96 Y64.54 E63.52273
G1 X90.539 Y65.387 E63.58439
G1 X90.203 Y66.271 E63.64604
G1 X89.954 Y67.182 E63.70761
G1 X89.793 Y68.114 E63.76927
G1 X89.724 Y69.058 E63.83097
G1 X89.744 Y70.002 E63.89252
M204 S3000
M205 X10 Y10
G0 F500 X89.768 Y70.2
G0 X89.156 Y70.273
G1 F2400 E60.89252
G0 F500 X89.345 Y69.048
G0 X90.669 Y69.07
G0 X100.018 Y60.453
G0 X100.145 Y58.721
G0 X119.848 Y58.722
