;FLAVOR:Marlin
;TIME:4294
;Filament used: 3.69978m
;Layer height: 0.2
;MINX:33.743
;MINY:78.48
;MINZ:0.2
;MAXX:176.27
;MAXY:131.52
;MAXZ:15
;Generated with Cura_SteamEngine 4.8.0
M140 S60
M105
M190 S60
M104 S200
M105
M109 S200
M82 ;absolute extrusion mode
G21 ;metric values
G90 ;absolute positioning
M82 ;set extruder to absolute mode
M107 ;start with the fan off
G28 X0 Y0 ;move X/Y to min endstops
G28 Z0 ;move Z to min endstops
G1 Z15.0 F100 ;move the platform down 15mm
G92 E0 ;zero the extruded length
G1 F200 E3 ;extrude 3mm of feed stock
G92 E0 ;zero the extruded length again
G1 F100
G0 Y20 F100
M117 Printing...
G5
G92 E0
G92 E0
G1 F2400 E-3
;LAYER_COUNT:50
;LAYER:0
M106 S255
M204 S3000
M205 X10 Y10
G1 F600 Z0.275
G0 F500 X140.185 Y93.411 Z0.275
M204 S1800
M205 X8 Y8
;TYPE:SKIRT
G1 F600 Z0.2
G1 F2400 E0
G1 X140.548 Y92.876 E0.04215
G1 X140.66 Y92.716 E0.05488
G1 X141.154 Y92.027 E0.11015
G1 X141.266 Y91.875 E0.12245
G1 X141.69 Y91.314 E0.1683
G1 X141.803 Y91.168 E0.18033
G1 X142.319 Y90.519 E0.23438
G1 X142.428 Y90.385 E0.24564
G1 X142.878 Y89.845 E0.29147
G1 X143.008 Y89.693 E0.30451
G1 X143.54 Y89.088 E0.35702
G1 X143.666 Y88.948 E0.3693
G1 X144.208 Y88.362 E0.42134
G1 X144.857 Y87.689 E0.48229
G1 X145.011 Y87.534 E0.49653
G1 X145.499 Y87.058 E0.54097
G1 X145.622 Y86.941 E0.55204
G1 X146.391 Y86.226 E0.62049
G1 X146.92 Y85.756 E0.66662
G1 X147.071 Y85.626 E0.67961
G1 X147.673 Y85.119 E0.73092
G1 X147.809 Y85.007 E0.7424
G1 X148.428 Y84.51 E0.79415
G1 X148.581 Y84.391 E0.80679
G1 X149.197 Y83.922 E0.85726
G1 X149.349 Y83.809 E0.86961
G1 X149.954 Y83.372 E0.91826
G1 X150.103 Y83.267 E0.93014
G1 X150.721 Y82.843 E0.979
G1 X150.864 Y82.747 E0.99023
G1 X151.521 Y82.318 E1.04138
G1 X151.692 Y82.21 E1.05457
G1 X152.326 Y81.82 E1.10309
G1 X152.478 Y81.729 E1.11464
G1 X153.14 Y81.343 E1.16459
G1 X153.305 Y81.249 E1.17697
G1 X153.989 Y80.873 E1.22786
G1 X154.15 Y80.787 E1.23976
G1 X154.821 Y80.439 E1.28903
G1 X154.997 Y80.351 E1.30186
G1 X155.894 Y79.917 E1.36682
G1 X156.586 Y79.601 E1.41641
G1 X156.762 Y79.524 E1.42893
G1 X157.365 Y79.267 E1.47167
G1 X157.975 Y79.022 E1.51452
G1 X158.709 Y78.774 E1.56503
G1 X159.465 Y78.602 E1.61557
G1 X160.462 Y78.497 E1.68092
G1 X161.23 Y78.481 E1.731
G1 X168.043 Y78.48 E2.17514
G1 X168.849 Y78.491 E2.22769
G1 X169.622 Y78.542 E2.27819
G1 X170.387 Y78.672 E2.32877
G1 X171.134 Y78.881 E2.37934
G1 X171.855 Y79.165 E2.42986
G1 X172.543 Y79.522 E2.48038
G1 X173.191 Y79.948 E2.53094
G1 X173.792 Y80.439 E2.58153
G1 X174.338 Y80.988 E2.63201
G1 X174.826 Y81.591 E2.68258
G1 X175.248 Y82.241 E2.7331
G1 X175.602 Y82.931 E2.78365
G1 X175.882 Y83.654 E2.83419
G1 X176.087 Y84.402 E2.88475
G1 X176.214 Y85.167 E2.93531
G1 X176.258 Y85.799 E2.97661
G1 X176.27 Y86.33 E3.01123
G1 X176.269 Y92.86 E3.43692
G1 X176.24 Y94.987 E3.57559
G1 X176.245 Y95.075 E3.58134
G1 X176.233 Y95.615 E3.61655
G1 X176.27 Y99.134 E3.84597
G1 X176.269 Y115.867 E4.93679
G1 X176.259 Y116.596 E4.98432
G1 X176.209 Y117.37 E5.03488
G1 X176.079 Y118.134 E5.0854
G1 X175.871 Y118.881 E5.13595
G1 X175.587 Y119.603 E5.18653
G1 X175.23 Y120.291 E5.23706
G1 X174.805 Y120.939 E5.28757
G1 X174.315 Y121.54 E5.33812
G1 X173.765 Y122.087 E5.38869
G1 X173.162 Y122.575 E5.43926
G1 X172.513 Y122.998 E5.48976
G1 X171.94 Y123.298 E5.53193
G1 X169.515 Y124.439 E5.70664
G1 X167.141 Y125.637 E5.87999
G1 X164.866 Y126.868 E6.04861
G1 X162.246 Y128.389 E6.2461
G1 X161.183 Y129.03 E6.32703
G1 X160.436 Y129.44 E6.38258
G1 X160.233 Y129.544 E6.39744
G1 X159.781 Y129.767 E6.4303
G1 X159.03 Y130.1 E6.48386
G1 X158.44 Y130.335 E6.52526
G1 X157.645 Y130.612 E6.58014
G1 X156.958 Y130.823 E6.62699
G1 X156.14 Y131.031 E6.68201
G1 X155.527 Y131.164 E6.7229
G1 X154.982 Y131.263 E6.75901
G1 X154.46 Y131.34 E6.79341
G1 X153.963 Y131.402 E6.82606
G1 X153.136 Y131.472 E6.88016
G1 X152.471 Y131.503 E6.92356
G1 X151.636 Y131.503 E6.978
G1 X151.42 Y131.497 E6.99208
G1 X150.868 Y131.473 E7.0281
G1 X150.137 Y131.412 E7.07592
G1 X149.943 Y131.391 E7.08864
G1 X149.442 Y131.329 E7.12155
G1 X148.596 Y131.188 E7.17746
G1 X147.979 Y131.061 E7.21853
G1 X147.443 Y130.932 E7.25447
G1 X146.954 Y130.796 E7.28755
G1 X146.069 Y130.519 E7.34801
G1 X145.421 Y130.28 E7.39303
G1 X144.949 Y130.092 E7.42615
G1 X144.3 Y129.805 E7.47241
G1 X143.663 Y129.494 E7.51862
G1 X142.906 Y129.08 E7.57487
G1 X142.323 Y128.733 E7.6191
G1 X141.626 Y128.275 E7.67347
G1 X141.427 Y128.135 E7.68933
G1 X141.008 Y127.83 E7.72311
G1 X140.412 Y127.36 E7.77259
G1 X139.918 Y126.941 E7.81482
G1 X139.608 Y126.659 E7.84214
G1 X139.244 Y126.31 E7.87502
G1 X138.785 Y125.847 E7.91752
G1 X138.439 Y125.476 E7.95059
G1 X138.135 Y125.128 E7.98071
G1 X137.804 Y124.732 E8.01436
G1 X137.263 Y124.025 E8.07239
G1 X136.904 Y123.523 E8.11262
G1 X136.424 Y122.773 E8.17067
G1 X136.307 Y122.578 E8.1855
G1 X136.053 Y122.14 E8.2185
G1 X135.705 Y121.483 E8.26697
G1 X135.614 Y121.3 E8.28029
G1 X135.39 Y120.831 E8.31418
G1 X135.063 Y120.064 E8.36853
G1 X134.98 Y119.853 E8.38331
G1 X134.796 Y119.362 E8.41749
G1 X134.561 Y118.653 E8.46619
G1 X134.369 Y117.992 E8.51106
G1 X134.173 Y117.189 E8.56494
G1 X134.027 Y116.46 E8.61341
G1 X133.911 Y115.72 E8.66224
G1 X133.885 Y115.51 E8.67603
G1 X133.828 Y115.006 E8.7091
G1 X133.78 Y114.38 E8.75003
G1 X133.77 Y114.118 E8.76712
G1 X133.752 Y113.31 E8.81981
G1 X133.758 Y112.788 E8.85384
G1 X133.783 Y112.259 E8.88836
G1 X133.831 Y111.585 E8.93241
G1 X133.847 Y111.398 E8.94465
G1 X133.933 Y110.537 E9.00105
G1 X133.955 Y110.342 E9.01385
G1 X134.045 Y109.629 E9.0607
G1 X134.07 Y109.449 E9.07254
G1 X134.19 Y108.654 E9.12495
G1 X134.222 Y108.458 E9.1379
G1 X134.35 Y107.739 E9.18551
G1 X134.383 Y107.566 E9.19699
G1 X134.542 Y106.78 E9.24927
G1 X134.58 Y106.602 E9.26113
G1 X134.745 Y105.877 E9.3096
G1 X134.792 Y105.685 E9.32249
G1 X135.004 Y104.855 E9.37834
G1 X135.053 Y104.671 E9.39075
G1 X135.233 Y104.034 E9.4339
G1 X135.527 Y103.074 E9.49935
G1 X135.587 Y102.886 E9.51222
G1 X135.815 Y102.209 E9.55879
G1 X135.873 Y102.044 E9.57019
G1 X136.16 Y101.253 E9.62504
G1 X136.222 Y101.088 E9.63653
G1 X136.483 Y100.418 E9.68341
G1 X136.563 Y100.221 E9.69727
G1 X136.954 Y99.3 E9.76249
G1 X137.222 Y98.706 E9.80498
G1 X137.302 Y98.535 E9.81728
G1 X137.712 Y97.684 E9.87886
G1 X137.788 Y97.531 E9.89
G1 X138.064 Y96.99 E9.92959
G1 X138.154 Y96.819 E9.94219
G1 X138.578 Y96.038 E10.00012
G1 X138.676 Y95.864 E10.01314
G1 X139.055 Y95.208 E10.06253
G1 X139.149 Y95.05 E10.07451
G1 X139.496 Y94.482 E10.1179
G1 X139.59 Y94.332 E10.12944
G1 X140.085 Y93.563 E10.18906
G1 X140.185 Y93.411 E10.20092
M204 S3000
M205 X10 Y10
G0 F500 X140.649 Y93.725
M204 S1800
M205 X8 Y8
G1 F2400 X141.012 Y93.19 E10.24307
G1 X141.115 Y93.042 E10.25482
G1 X141.712 Y92.212 E10.32147
G1 X142.136 Y91.651 E10.36732
G1 X142.757 Y90.868 E10.43246
G1 X142.858 Y90.743 E10.44294
G1 X143.308 Y90.203 E10.48876
G1 X143.428 Y90.063 E10.50079
G1 X143.96 Y89.458 E10.5533
G1 X144.077 Y89.328 E10.56471
G1 X144.619 Y88.742 E10.61674
G1 X145.26 Y88.078 E10.67691
G1 X145.402 Y87.935 E10.69004
G1 X146.004 Y87.35 E10.74477
G1 X146.64 Y86.757 E10.80145
G1 X146.763 Y86.645 E10.8123
G1 X147.292 Y86.175 E10.85843
G1 X147.432 Y86.054 E10.87049
G1 X148.034 Y85.547 E10.9218
G1 X148.779 Y84.947 E10.98416
G1 X148.92 Y84.836 E10.99586
G1 X149.536 Y84.367 E11.04633
G1 X150.282 Y83.826 E11.1064
G1 X150.419 Y83.729 E11.11734
G1 X151.037 Y83.305 E11.1662
G1 X151.17 Y83.216 E11.17663
G1 X151.827 Y82.787 E11.22779
G1 X151.985 Y82.687 E11.23998
G1 X152.76 Y82.212 E11.29923
G1 X153.422 Y81.826 E11.34919
G1 X154.259 Y81.364 E11.41151
G1 X155.079 Y80.937 E11.47178
G1 X155.242 Y80.854 E11.4837
G1 X155.977 Y80.497 E11.53697
G1 X156.819 Y80.111 E11.59736
G1 X156.981 Y80.039 E11.60891
G1 X157.584 Y79.782 E11.65164
G1 X158.181 Y79.543 E11.69356
G1 X158.888 Y79.305 E11.74219
G1 X159.617 Y79.144 E11.79086
G1 X160.484 Y79.056 E11.84767
G1 X161.237 Y79.041 E11.89677
G1 X168.043 Y79.04 E12.34045
G1 X168.841 Y79.051 E12.39248
G1 X169.585 Y79.101 E12.44109
G1 X170.319 Y79.231 E12.48968
G1 X171.036 Y79.439 E12.53835
G1 X171.726 Y79.723 E12.58699
G1 X172.382 Y80.078 E12.63562
G1 X172.995 Y80.502 E12.68421
G1 X173.561 Y80.989 E12.73288
G1 X174.07 Y81.533 E12.78145
G1 X174.519 Y82.129 E12.8301
G1 X174.901 Y82.77 E12.87874
G1 X175.212 Y83.448 E12.92737
G1 X175.449 Y84.155 E12.97598
G1 X175.609 Y84.884 E13.02463
G1 X175.698 Y85.814 E13.08553
G1 X175.71 Y86.33 E13.11918
G1 X175.709 Y92.853 E13.54442
G1 X175.681 Y94.909 E13.67846
G1 X175.685 Y95.063 E13.6885
G1 X175.673 Y95.615 E13.72449
G1 X175.71 Y99.139 E13.95424
G1 X175.709 Y115.859 E15.04421
G1 X175.699 Y116.588 E15.09174
G1 X175.649 Y117.333 E15.14041
G1 X175.52 Y118.067 E15.189
G1 X175.312 Y118.784 E15.23766
G1 X175.029 Y119.474 E15.28628
G1 X174.674 Y120.13 E15.33491
G1 X174.251 Y120.744 E15.38351
G1 X173.764 Y121.309 E15.43214
G1 X173.22 Y121.819 E15.48075
G1 X172.624 Y122.268 E15.52939
G1 X171.702 Y122.791 E15.5985
G1 X169.26 Y123.939 E15.7744
G1 X166.915 Y125.124 E15.94568
G1 X164.582 Y126.386 E16.1186
G1 X161.973 Y127.901 E16.31527
G1 X160.894 Y128.551 E16.39739
G1 X160.173 Y128.945 E16.45095
G1 X159.985 Y129.042 E16.46474
G1 X159.533 Y129.265 E16.4976
G1 X158.81 Y129.585 E16.54914
G1 X158.235 Y129.814 E16.58949
G1 X157.467 Y130.081 E16.64249
G1 X156.797 Y130.286 E16.68817
G1 X156.009 Y130.487 E16.74118
G1 X155.411 Y130.616 E16.78106
G1 X154.897 Y130.71 E16.81513
G1 X154.391 Y130.784 E16.84847
G1 X153.894 Y130.846 E16.88112
G1 X153.096 Y130.913 E16.93332
G1 X152.448 Y130.944 E16.97561
G1 X151.644 Y130.943 E17.02802
G1 X151.445 Y130.937 E17.041
G1 X150.893 Y130.913 E17.07702
G1 X150.191 Y130.855 E17.12294
G1 X150.012 Y130.835 E17.13468
G1 X149.511 Y130.773 E17.16759
G1 X148.696 Y130.637 E17.22146
G1 X148.094 Y130.513 E17.26152
G1 X147.59 Y130.391 E17.29533
G1 X146.642 Y130.119 E17.35962
G1 X145.83 Y129.837 E17.41566
G1 X145.629 Y129.76 E17.42969
G1 X145.157 Y129.572 E17.46281
G1 X144.534 Y129.296 E17.50723
G1 X143.911 Y128.992 E17.55242
G1 X143.182 Y128.592 E17.60663
G1 X142.61 Y128.253 E17.64997
G1 X141.941 Y127.811 E17.70224
G1 X141.757 Y127.682 E17.71689
G1 X141.338 Y127.377 E17.75068
G1 X140.764 Y126.924 E17.79835
G1 X140.282 Y126.515 E17.83956
G1 X139.995 Y126.255 E17.8648
G1 X139.631 Y125.906 E17.89768
G1 X139.185 Y125.455 E17.93902
G1 X138.691 Y124.915 E17.98673
G1 X138.565 Y124.769 E17.99931
G1 X138.234 Y124.373 E18.03295
G1 X137.711 Y123.69 E18.08903
G1 X137.362 Y123.2 E18.12825
G1 X136.899 Y122.478 E18.18416
G1 X136.791 Y122.298 E18.19785
G1 X136.537 Y121.86 E18.23085
G1 X136.203 Y121.228 E18.27745
G1 X136.12 Y121.059 E18.28973
G1 X135.896 Y120.59 E18.32361
G1 X135.581 Y119.852 E18.37592
G1 X135.505 Y119.656 E18.38962
G1 X135.321 Y119.165 E18.4238
G1 X135.095 Y118.483 E18.47064
G1 X134.907 Y117.838 E18.51444
G1 X134.719 Y117.063 E18.56643
G1 X134.576 Y116.353 E18.61364
G1 X134.466 Y115.641 E18.66061
G1 X134.441 Y115.447 E18.67336
G1 X134.384 Y114.943 E18.70642
G1 X134.339 Y114.348 E18.74532
G1 X134.33 Y114.106 E18.76111
G1 X134.312 Y113.298 E18.8138
G1 X134.318 Y112.814 E18.84535
G1 X134.343 Y112.285 E18.87987
G1 X134.389 Y111.627 E18.92287
G1 X134.404 Y111.453 E18.93426
G1 X134.49 Y110.592 E18.99067
G1 X134.601 Y109.699 E19.04933
G1 X134.624 Y109.532 E19.06032
G1 X134.744 Y108.737 E19.11273
G1 X134.774 Y108.556 E19.12469
G1 X134.932 Y107.677 E19.18291
G1 X135.091 Y106.891 E19.23519
G1 X135.292 Y106.001 E19.29467
G1 X135.334 Y105.824 E19.30653
G1 X135.546 Y104.994 E19.36237
G1 X135.592 Y104.823 E19.37392
G1 X135.772 Y104.186 E19.41707
G1 X136.062 Y103.239 E19.48163
G1 X136.118 Y103.065 E19.49355
G1 X136.399 Y102.235 E19.55067
G1 X136.686 Y101.444 E19.60553
G1 X137.005 Y100.622 E19.66301
G1 X137.079 Y100.439 E19.67588
G1 X137.398 Y99.684 E19.72931
G1 X137.465 Y99.531 E19.7402
G1 X137.733 Y98.937 E19.78268
G1 X137.807 Y98.778 E19.79411
G1 X138.287 Y97.785 E19.86601
G1 X138.563 Y97.244 E19.9056
G1 X138.646 Y97.086 E19.91724
G1 X139.07 Y96.305 E19.97517
G1 X139.16 Y96.144 E19.98719
G1 X139.539 Y95.488 E20.03658
G1 X139.974 Y94.774 E20.09108
G1 X140.061 Y94.635 E20.10177
G1 X140.556 Y93.866 E20.16139
G1 X140.649 Y93.725 E20.1724
M204 S3000
M205 X10 Y10
G0 F500 X141.112 Y94.04
M204 S1800
M205 X8 Y8
G1 F2400 X141.475 Y93.505 E20.21455
G1 X141.57 Y93.369 E20.22537
G1 X142.159 Y92.55 E20.29113
G1 X142.583 Y91.989 E20.33697
G1 X142.679 Y91.865 E20.34719
G1 X143.195 Y91.216 E20.40125
G1 X143.738 Y90.562 E20.45666
G1 X143.849 Y90.433 E20.46775
G1 X144.381 Y89.828 E20.52027
G1 X144.489 Y89.708 E20.5308
G1 X145.129 Y89.018 E20.59215
G1 X145.662 Y88.467 E20.64212
G1 X145.793 Y88.336 E20.6542
G1 X146.281 Y87.86 E20.69864
G1 X147.022 Y87.167 E20.76478
G1 X147.135 Y87.064 E20.77475
G1 X147.664 Y86.594 E20.82088
G1 X147.792 Y86.483 E20.83192
G1 X148.394 Y85.976 E20.88323
G1 X149.129 Y85.384 E20.94475
G1 X149.259 Y85.282 E20.95553
G1 X149.875 Y84.813 E21.006
G1 X150.61 Y84.28 E21.06518
G1 X150.736 Y84.191 E21.07524
G1 X151.476 Y83.685 E21.13368
G1 X152.133 Y83.256 E21.18483
G1 X152.279 Y83.164 E21.19608
G1 X153.042 Y82.696 E21.25443
G1 X153.704 Y82.31 E21.30439
G1 X154.529 Y81.855 E21.36581
G1 X154.665 Y81.782 E21.37587
G1 X155.336 Y81.434 E21.42515
G1 X155.487 Y81.358 E21.43617
G1 X156.222 Y81.001 E21.48943
G1 X156.36 Y80.936 E21.49938
G1 X157.052 Y80.62 E21.54897
G1 X157.201 Y80.554 E21.55959
G1 X157.804 Y80.297 E21.60232
G1 X158.388 Y80.063 E21.64334
G1 X159.067 Y79.837 E21.68999
G1 X159.766 Y79.687 E21.73659
G1 X160.505 Y79.616 E21.78499
G1 X161.244 Y79.601 E21.83318
G1 X168.043 Y79.6 E22.2764
G1 X168.833 Y79.611 E22.32791
G1 X169.546 Y79.661 E22.3745
G1 X170.25 Y79.79 E22.42116
G1 X170.934 Y79.998 E22.46777
G1 X171.591 Y80.28 E22.51437
G1 X172.213 Y80.634 E22.56103
G1 X172.791 Y81.055 E22.60764
G1 X173.319 Y81.538 E22.65429
G1 X173.789 Y82.076 E22.70086
G1 X174.197 Y82.664 E22.74752
G1 X174.536 Y83.294 E22.79416
G1 X174.803 Y83.957 E22.84075
G1 X174.994 Y84.647 E22.88742
G1 X175.107 Y85.353 E22.93403
G1 X175.147 Y86.15 E22.98606
G1 X175.15 Y86.33 E22.99779
G1 X175.149 Y92.845 E23.4225
G1 X175.121 Y94.938 E23.55896
G1 X175.126 Y95.051 E23.56633
G1 X175.113 Y95.653 E23.60559
G1 X175.15 Y99.145 E23.83324
G1 X175.149 Y115.852 E24.92237
G1 X175.139 Y116.581 E24.9699
G1 X175.09 Y117.294 E25.01649
G1 X174.961 Y117.998 E25.06314
G1 X174.754 Y118.683 E25.10979
G1 X174.472 Y119.34 E25.1564
G1 X174.118 Y119.962 E25.20306
G1 X173.698 Y120.54 E25.24963
G1 X173.215 Y121.068 E25.29628
G1 X172.677 Y121.539 E25.3429
G1 X172.089 Y121.947 E25.38955
G1 X171.464 Y122.285 E25.43587
G1 X168.991 Y123.448 E25.61402
G1 X166.632 Y124.639 E25.7863
G1 X164.337 Y125.881 E25.95641
G1 X161.643 Y127.445 E26.15948
G1 X160.605 Y128.071 E26.2385
G1 X159.91 Y128.451 E26.29014
G1 X159.738 Y128.539 E26.30273
G1 X159.286 Y128.762 E26.33559
G1 X158.591 Y129.069 E26.38512
G1 X158.03 Y129.293 E26.4245
G1 X157.288 Y129.55 E26.47569
G1 X156.636 Y129.75 E26.52015
G1 X155.879 Y129.942 E26.57106
G1 X155.295 Y130.068 E26.61001
G1 X154.499 Y130.204 E26.66265
G1 X154.321 Y130.229 E26.67437
G1 X153.824 Y130.291 E26.70702
G1 X153.056 Y130.355 E26.75726
G1 X152.424 Y130.384 E26.7985
G1 X151.652 Y130.383 E26.84883
G1 X151.469 Y130.378 E26.86076
G1 X150.917 Y130.354 E26.89678
G1 X150.246 Y130.298 E26.94068
G1 X150.081 Y130.28 E26.9515
G1 X149.58 Y130.218 E26.9844
G1 X148.795 Y130.086 E27.0363
G1 X148.209 Y129.965 E27.0753
G1 X147.431 Y129.768 E27.12762
G1 X146.802 Y129.582 E27.17038
G1 X146.021 Y129.31 E27.22429
G1 X145.836 Y129.24 E27.23719
G1 X145.364 Y129.052 E27.27031
G1 X144.767 Y128.787 E27.31289
G1 X144.159 Y128.49 E27.357
G1 X143.457 Y128.105 E27.4092
G1 X142.898 Y127.772 E27.45161
G1 X142.256 Y127.348 E27.50177
G1 X142.086 Y127.229 E27.5153
G1 X141.667 Y126.924 E27.54908
G1 X141.116 Y126.489 E27.59484
G1 X140.647 Y126.09 E27.63499
G1 X140.383 Y125.851 E27.6582
G1 X140.019 Y125.502 E27.69108
G1 X139.585 Y125.063 E27.73132
G1 X139.11 Y124.544 E27.77718
G1 X138.994 Y124.409 E27.78879
G1 X138.663 Y124.013 E27.82243
G1 X138.16 Y123.355 E27.87642
G1 X137.819 Y122.877 E27.9147
G1 X137.375 Y122.183 E27.96841
G1 X137.276 Y122.017 E27.98101
G1 X137.022 Y121.579 E28.01402
