;FLAVOR:Marlin
;TIME:3783
;Filament used: 3.06741m
;Layer height: 0.2
;MINX:56.48
;MINY:82.556
;MINZ:0.2
;MAXX:153.52
;MAXY:127.52
;MAXZ:14.6
;Generated with Cura_SteamEngine 4.7.1
M140 S60
M105
M190 S60
M104 S200
M105
M109 S200
M82 ;absolute extrusion mode
G21 ;metric values
G90 ;absolute positioning
M82 ;set extruder to absolute mode
M107 ;start with the fan off
G28 X0 Y0 ;move X/Y to min endstops
G28 Z0 ;move Z to min endstops
G1 Z15.0 F100 ;move the platform down 15mm
G92 E0 ;zero the extruded length
G1 F200 E3 ;extrude 3mm of feed stock
G92 E0 ;zero the extruded length again
G1 F100
G0 Y20 F100
M117 Printing...
G5
G92 E0
G92 E0
G1 F2400 E-3
;LAYER_COUNT:73
;LAYER:0
M106 S255
M204 S3000
M205 X10 Y10
G1 F600 Z0.275
G0 F500 X61.154 Y85.319 Z0.275
M204 S1800
M205 X8 Y8
;TYPE:SKIRT
G1 F600 Z0.2
G1 F2400 E0
G1 X61.8 Y84.89 E0.05055
G1 X62.487 Y84.529 E0.10115
G1 X63.207 Y84.242 E0.15167
G1 X63.953 Y84.03 E0.20223
G1 X64.716 Y83.896 E0.25273
G1 X65.156 Y83.855 E0.28154
G1 X66.006 Y83.802 E0.33706
G1 X67.05 Y83.751 E0.4052
G1 X69.689 Y83.547 E0.57775
G1 X72.504 Y83.245 E0.76231
G1 X73.667 Y83.104 E0.83868
G1 X74.226 Y83.039 E0.87537
G1 X75.314 Y82.92 E0.94672
G1 X75.549 Y82.896 E0.96212
G1 X76.715 Y82.789 E1.03845
G1 X76.866 Y82.777 E1.04832
G1 X77.902 Y82.703 E1.11603
G1 X78.045 Y82.694 E1.12537
G1 X79.171 Y82.635 E1.19888
G1 X79.607 Y82.618 E1.22732
G1 X80.409 Y82.592 E1.27963
G1 X80.917 Y82.58 E1.31276
G1 X81.536 Y82.57 E1.35311
G1 X82.18 Y82.562 E1.3951
G1 X83.842 Y82.556 E1.50344
G1 X126.514 Y82.557 E4.28523
G1 X127.807 Y82.563 E4.36952
G1 X128.622 Y82.572 E4.42265
G1 X129.711 Y82.595 E4.49366
G1 X130.461 Y82.62 E4.54258
G1 X131.29 Y82.656 E4.59667
G1 X132.361 Y82.72 E4.66661
G1 X133.249 Y82.785 E4.72466
G1 X134.083 Y82.859 E4.77924
G1 X134.597 Y82.913 E4.81293
G1 X135.604 Y83.037 E4.87907
G1 X137.072 Y83.197 E4.97534
G1 X138.283 Y83.344 E5.05486
G1 X140.998 Y83.637 E5.23288
G1 X143.179 Y83.814 E5.37553
G1 X143.856 Y83.875 E5.41984
G1 X144.281 Y83.926 E5.44775
G1 X145.35 Y84.084 E5.51819
G1 X145.76 Y84.152 E5.54528
G1 X146.516 Y84.323 E5.59581
G1 X147.251 Y84.571 E5.64638
G1 X147.956 Y84.893 E5.69691
G1 X148.624 Y85.287 E5.74746
G1 X149.248 Y85.747 E5.798
G1 X149.822 Y86.268 E5.84853
G1 X150.339 Y86.846 E5.89909
G1 X150.793 Y87.474 E5.94961
G1 X151.181 Y88.146 E6.00019
G1 X151.445 Y88.722 E6.0415
G1 X151.556 Y88.994 E6.06065
G1 X151.811 Y89.726 E6.11118
G1 X152.026 Y90.697 E6.17601
G1 X152.075 Y91.017 E6.19712
G1 X152.155 Y91.831 E6.25044
G1 X152.172 Y92.617 E6.30169
G1 X152.177 Y97.624 E6.62809
G1 X152.214 Y100.297 E6.80236
G1 X152.325 Y102.909 E6.97279
G1 X152.511 Y105.529 E7.14402
G1 X152.767 Y108.115 E7.31342
G1 X153.101 Y110.72 E7.48463
G1 X153.322 Y112.129 E7.57761
G1 X153.433 Y112.901 E7.62845
G1 X153.507 Y113.744 E7.68362
G1 X153.52 Y114.302 E7.72001
G1 X153.519 Y115.283 E7.78396
G1 X153.509 Y115.985 E7.82972
G1 X153.458 Y116.759 E7.88029
G1 X153.328 Y117.523 E7.93081
G1 X153.119 Y118.27 E7.98138
G1 X152.835 Y118.991 E8.0319
G1 X152.478 Y119.68 E8.08248
G1 X152.052 Y120.328 E8.13304
G1 X151.562 Y120.928 E8.18354
G1 X151.088 Y121.41 E8.22761
G1 X150.441 Y121.971 E8.28343
G1 X150.279 Y122.096 E8.29677
G1 X148.233 Y123.724 E8.46722
G1 X146.605 Y125.088 E8.60568
G1 X145.883 Y125.705 E8.66759
G1 X145.269 Y126.178 E8.71811
G1 X144.609 Y126.585 E8.76866
G1 X143.911 Y126.922 E8.81919
G1 X143.181 Y127.185 E8.86977
G1 X142.429 Y127.372 E8.92029
G1 X141.661 Y127.481 E8.97086
G1 X140.901 Y127.516 E9.02045
G1 X140.67 Y127.52 E9.03552
G1 X126.165 Y127.519 E9.98109
G1 X125.466 Y127.509 E10.02667
G1 X124.693 Y127.458 E10.07717
G1 X124.205 Y127.384 E10.10934
G1 X123.558 Y127.264 E10.15224
G1 X121.857 Y126.924 E10.26532
G1 X119.303 Y126.487 E10.43424
G1 X116.707 Y126.118 E10.60517
G1 X114.117 Y125.825 E10.77509
G1 X111.502 Y125.603 E10.94617
G1 X108.892 Y125.456 E11.11659
G1 X106.285 Y125.384 E11.2866
G1 X103.662 Y125.385 E11.4576
G1 X101.052 Y125.459 E11.62781
G1 X98.444 Y125.608 E11.7981
G1 X95.829 Y125.831 E11.96919
G1 X93.209 Y126.129 E12.14109
G1 X90.677 Y126.491 E12.30783
G1 X86.91 Y127.161 E12.55726
G1 X85.938 Y127.354 E12.62186
G1 X85.171 Y127.466 E12.67239
G1 X84.625 Y127.496 E12.70804
G1 X83.376 Y127.52 E12.78947
G1 X69.6 Y127.519 E13.68753
G1 X68.897 Y127.509 E13.73336
G1 X68.123 Y127.458 E13.78393
G1 X67.359 Y127.328 E13.83445
G1 X66.612 Y127.119 E13.88502
G1 X65.891 Y126.835 E13.93553
G1 X65.202 Y126.478 E13.98612
G1 X64.555 Y126.052 E14.03662
G1 X63.894 Y125.522 E14.09185
G1 X62.343 Y124.198 E14.22479
G1 X60.3 Y122.55 E14.3959
G1 X59.489 Y121.914 E14.46309
G1 X58.835 Y121.337 E14.51995
G1 X58.715 Y121.218 E14.53096
G1 X58.193 Y120.644 E14.58154
G1 X57.733 Y120.02 E14.63208
G1 X57.34 Y119.351 E14.68266
G1 X57.018 Y118.646 E14.73318
G1 X56.77 Y117.911 E14.78375
G1 X56.599 Y117.155 E14.83428
G1 X56.494 Y116.132 E14.90132
G1 X56.481 Y115.413 E14.9482
G1 X56.48 Y114.664 E14.99703
G1 X56.492 Y113.852 E15.04997
G1 X56.581 Y112.809 E15.11821
G1 X56.702 Y112.036 E15.16921
G1 X57.075 Y109.418 E15.3416
G1 X57.366 Y106.861 E15.50937
G1 X57.59 Y104.239 E15.68092
G1 X57.739 Y101.619 E15.85199
G1 X57.815 Y98.99 E16.02345
G1 X57.824 Y97.624 E16.1125
G1 X57.828 Y92.722 E16.43206
G1 X57.838 Y92.06 E16.47522
G1 X57.898 Y91.219 E16.53019
G1 X57.935 Y90.93 E16.54918
G1 X58.15 Y89.868 E16.61982
G1 X58.216 Y89.631 E16.63585
G1 X58.462 Y88.895 E16.68644
G1 X58.783 Y88.189 E16.737
G1 X59.141 Y87.558 E16.78429
G1 X59.568 Y86.911 E16.83483
G1 X60.011 Y86.364 E16.88072
G1 X60.556 Y85.812 E16.93128
G1 X61.154 Y85.319 E16.98181
M204 S3000
M205 X10 Y10
G0 F500 X61.533 Y85.735
M204 S1800
M205 X8 Y8
G1 F2400 X62.159 Y85.329 E17.03045
G1 X62.824 Y84.992 E17.07905
G1 X63.522 Y84.728 E17.1277
G1 X64.244 Y84.54 E17.17633
G1 X65.191 Y84.414 E17.23861
G1 X66.033 Y84.361 E17.29361
G1 X67.123 Y84.308 E17.36475
G1 X69.72 Y84.107 E17.53456
G1 X72.57 Y83.802 E17.72141
G1 X73.732 Y83.66 E17.79772
G1 X74.287 Y83.595 E17.83415
G1 X75.37 Y83.477 E17.90517
G1 X75.6 Y83.454 E17.92024
G1 X76.766 Y83.347 E17.99657
G1 X77.942 Y83.262 E18.07343
G1 X79.297 Y83.19 E18.16189
G1 X80.423 Y83.152 E18.23533
G1 X80.926 Y83.14 E18.26813
G1 X81.543 Y83.13 E18.30836
G1 X82.182 Y83.122 E18.35002
G1 X83.842 Y83.116 E18.45824
G1 X126.512 Y83.117 E21.23989
G1 X127.801 Y83.123 E21.32392
G1 X128.682 Y83.133 E21.38135
G1 X129.609 Y83.152 E21.4418
G1 X130.437 Y83.179 E21.4958
G1 X131.258 Y83.215 E21.54938
G1 X132.321 Y83.278 E21.61879
G1 X133.199 Y83.343 E21.67619
G1 X134.134 Y83.427 E21.73739
G1 X134.528 Y83.469 E21.76322
G1 X135.537 Y83.593 E21.82949
G1 X137.005 Y83.753 E21.92575
G1 X138.234 Y83.902 E22.00646
G1 X140.929 Y84.193 E22.18317
G1 X143.129 Y84.372 E22.32706
G1 X143.806 Y84.433 E22.37137
G1 X144.199 Y84.48 E22.39717
G1 X145.268 Y84.638 E22.46762
G1 X145.665 Y84.704 E22.49385
G1 X146.392 Y84.87 E22.54246
G1 X147.097 Y85.113 E22.59108
G1 X147.772 Y85.43 E22.63969
G1 X148.41 Y85.817 E22.68834
G1 X149.002 Y86.271 E22.73697
G1 X149.543 Y86.785 E22.78562
G1 X150.025 Y87.354 E22.83423
G1 X150.444 Y87.971 E22.88285
G1 X150.926 Y88.933 E22.95299
G1 X151.037 Y89.205 E22.97215
G1 X151.281 Y89.91 E23.02078
G1 X151.473 Y90.782 E23.07899
G1 X151.522 Y91.102 E23.10009
G1 X151.596 Y91.855 E23.14942
G1 X151.612 Y92.625 E23.19962
G1 X151.617 Y97.628 E23.52577
G1 X151.654 Y100.294 E23.69958
G1 X151.767 Y102.938 E23.8721
G1 X151.954 Y105.586 E24.04515
G1 X152.211 Y108.171 E24.2145
G1 X152.548 Y110.809 E24.38787
G1 X152.768 Y112.208 E24.48019
G1 X152.879 Y112.98 E24.53103
G1 X152.947 Y113.761 E24.58214
G1 X152.96 Y114.302 E24.61742
G1 X152.959 Y115.275 E24.68085
G1 X152.949 Y115.977 E24.72661
G1 X152.899 Y116.721 E24.77522
G1 X152.769 Y117.456 E24.82388
G1 X152.561 Y118.172 E24.87249
G1 X152.278 Y118.862 E24.92111
G1 X151.922 Y119.518 E24.96976
G1 X151.499 Y120.132 E25.01837
G1 X150.842 Y120.868 E25.08268
G1 X150.697 Y121.009 E25.09587
G1 X150.099 Y121.528 E25.14749
G1 X149.947 Y121.645 E25.15999
G1 X147.836 Y123.325 E25.33587
G1 X146.299 Y124.613 E25.46659
G1 X145.519 Y125.28 E25.5335
G1 X144.927 Y125.733 E25.58209
G1 X144.29 Y126.121 E25.63071
G1 X143.615 Y126.438 E25.67933
G1 X142.91 Y126.682 E25.72796
G1 X142.183 Y126.848 E25.77658
G1 X141.209 Y126.947 E25.8404
G1 X140.67 Y126.96 E25.87555
G1 X126.173 Y126.959 E26.8206
G1 X125.474 Y126.949 E26.86617
G1 X124.73 Y126.899 E26.91479
G1 X124.307 Y126.834 E26.94268
G1 X123.668 Y126.715 E26.98506
G1 X121.958 Y126.373 E27.09874
G1 X119.402 Y125.935 E27.26779
G1 X116.779 Y125.563 E27.4405
G1 X114.155 Y125.266 E27.61265
G1 X111.547 Y125.045 E27.78327
G1 X108.905 Y124.896 E27.95578
G1 X106.3 Y124.824 E28.12566
G1 X103.646 Y124.825 E28.29868
G1 X101.04 Y124.899 E28.46863
G1 X98.399 Y125.049 E28.64107
G1 X95.752 Y125.276 E28.81426
G1 X93.174 Y125.569 E28.98341
G1 X90.587 Y125.939 E29.15377
G1 X86.803 Y126.612 E29.40432
G1 X85.829 Y126.805 E29.46905
G1 X85.091 Y126.911 E29.51765
G1 X84.613 Y126.937 E29.54886
G1 X83.515 Y126.959 E29.62045
G1 X69.707 Y126.96 E30.52059
G1 X68.905 Y126.949 E30.57288
G1 X68.161 Y126.899 E30.62149
G1 X67.426 Y126.769 E30.67015
G1 X66.71 Y126.561 E30.71875
G1 X66.02 Y126.278 E30.76737
G1 X65.364 Y125.922 E30.81603
G1 X64.565 Y125.351 E30.88005
G1 X64.169 Y125.022 E30.91361
G1 X62.699 Y123.766 E31.03965
G1 X60.638 Y122.104 E31.21225
G1 X59.834 Y121.473 E31.27888
G1 X59.229 Y120.939 E31.33149
G1 X59.109 Y120.82 E31.3425
G1 X58.608 Y120.267 E31.39115
G1 X58.17 Y119.664 E31.43973
G1 X57.798 Y119.017 E31.48839
G1 X57.498 Y118.334 E31.53702
G1 X57.272 Y117.623 E31.58565
G1 X57.124 Y116.892 E31.63427
G1 X57.054 Y116.113 E31.68526
G1 X57.041 Y115.406 E31.73136
G1 X57.04 Y114.664 E31.77973
G1 X57.052 Y113.861 E31.83208
G1 X57.135 Y112.896 E31.89522
G1 X57.249 Y112.166 E31.94339
G1 X57.626 Y109.522 E32.11749
G1 X57.925 Y106.906 E32.28914
G1 X58.148 Y104.281 E32.46088
G1 X58.299 Y101.632 E32.63385
G1 X58.374 Y99.01 E32.80484
G1 X58.384 Y97.628 E32.89494
G1 X58.388 Y92.731 E33.21417
G1 X58.398 Y92.069 E33.25733
G1 X58.453 Y91.29 E33.30824
G1 X58.49 Y91.001 E33.32724
G1 X58.689 Y90.018 E33.39262
G1 X58.755 Y89.781 E33.40866
G1 X58.993 Y89.074 E33.45729
G1 X59.46 Y88.121 E33.52647
G1 X59.624 Y87.842 E33.54757
G1 X60.036 Y87.22 E33.59621
G1 X60.43 Y86.736 E33.63689
G1 X60.955 Y86.206 E33.68552
G1 X61.533 Y85.735 E33.73413
M204 S3000
M205 X10 Y10
G0 F500 X61.911 Y86.153
M204 S1800
M205 X8 Y8
G1 F2400 X62.515 Y85.77 E33.78075
G1 X63.158 Y85.457 E33.82737
G1 X63.832 Y85.218 E33.87399
G1 X64.529 Y85.056 E33.92064
G1 X65.227 Y84.973 E33.96646
G1 X66.061 Y84.921 E34.02094
G1 X67.122 Y84.869 E34.09018
G1 X69.757 Y84.665 E34.26247
G1 X72.696 Y84.351 E34.45516
G1 X73.797 Y84.216 E34.52747
G1 X74.348 Y84.152 E34.56363
G1 X75.426 Y84.034 E34.63432
G1 X75.651 Y84.012 E34.64906
G1 X76.946 Y83.894 E34.73383
G1 X77.982 Y83.82 E34.80154
G1 X79.318 Y83.75 E34.88875
G1 X79.643 Y83.737 E34.90996
G1 X80.436 Y83.712 E34.96168
G1 X80.936 Y83.7 E34.99428
G1 X81.55 Y83.689 E35.03432
G1 X82.184 Y83.682 E35.07565
G1 X83.842 Y83.676 E35.18374
G1 X126.509 Y83.677 E37.96519
G1 X127.795 Y83.683 E38.04903
G1 X128.67 Y83.693 E38.10607
G1 X129.674 Y83.714 E38.17154
G1 X130.414 Y83.739 E38.2198
G1 X131.225 Y83.774 E38.27272
G1 X132.28 Y83.837 E38.34162
G1 X133.15 Y83.901 E38.39849
G1 X134.077 Y83.984 E38.45916
G1 X134.46 Y84.025 E38.48427
G1 X135.416 Y84.143 E38.54707
G1 X136.856 Y84.299 E38.64149
G1 X138.176 Y84.46 E38.72818
G1 X140.864 Y84.749 E38.90442
G1 X143.078 Y84.93 E39.04923
G1 X143.755 Y84.991 E39.09354
G1 X144.117 Y85.034 E39.11731
G1 X145.186 Y85.192 E39.18775
G1 X145.569 Y85.256 E39.21307
G1 X146.266 Y85.417 E39.2597
G1 X146.941 Y85.654 E39.30634
G1 X147.585 Y85.966 E39.35299
G1 X148.19 Y86.347 E39.39959
G1 X148.749 Y86.793 E39.44621
G1 X149.255 Y87.299 E39.49286
G1 X149.701 Y87.858 E39.53948
G1 X150.082 Y88.464 E39.58614
G1 X150.408 Y89.145 E39.63536
G1 X150.519 Y89.417 E39.65452
G1 X150.751 Y90.093 E39.70111
G1 X150.919 Y90.866 E39.75267
G1 X150.968 Y91.186 E39.77378
G1 X151.036 Y91.879 E39.81917
G1 X151.052 Y92.632 E39.86827
G1 X151.057 Y97.632 E40.19422
G1 X151.095 Y100.325 E40.36979
G1 X151.207 Y102.965 E40.54205
G1 X151.394 Y105.61 E40.71491
G1 X151.658 Y108.267 E40.88897
G1 X151.989 Y110.859 E41.05931
G1 X152.214 Y112.288 E41.15362
G1 X152.325 Y113.06 E41.20446
G1 X152.387 Y113.778 E41.25144
G1 X152.4 Y114.302 E41.28561
G1 X152.399 Y115.267 E41.34852
G1 X152.389 Y115.969 E41.39429
G1 X152.339 Y116.683 E41.44095
G1 X152.21 Y117.386 E41.48754
G1 X152.003 Y118.071 E41.53419
G1 X151.72 Y118.728 E41.58083
G1 X151.367 Y119.35 E41.62745
G1 X150.946 Y119.928 E41.67406
G1 X150.452 Y120.466 E41.72168
G1 X150.307 Y120.607 E41.73486
G1 X149.757 Y121.084 E41.78232
G1 X149.623 Y121.187 E41.79334
G1 X147.502 Y122.876 E41.97009
G1 X145.886 Y124.229 E42.10749
G1 X145.155 Y124.854 E42.17019
G1 X144.587 Y125.288 E42.21679
G1 X143.973 Y125.655 E42.26342
G1 X143.322 Y125.952 E42.31006
G1 X142.643 Y126.175 E42.35665
G1 X141.942 Y126.32 E42.40332
G1 X141.192 Y126.387 E42.45241
G1 X140.67 Y126.4 E42.48645
G1 X126.181 Y126.399 E43.43098
G1 X125.482 Y126.389 E43.47655
G1 X124.769 Y126.339 E43.52315
G1 X124.409 Y126.283 E43.5469
G1 X123.778 Y126.166 E43.58874
G1 X122.053 Y125.821 E43.70342
G1 X119.471 Y125.379 E43.87418
G1 X116.852 Y125.007 E44.04663
G1 X114.23 Y124.71 E44.21865
G1 X111.591 Y124.486 E44.39131
G1 X108.952 Y124.338 E44.56361
G1 X106.279 Y124.264 E44.73793
G1 X103.63 Y124.265 E44.91062
G1 X101.027 Y124.339 E45.08038
G1 X98.354 Y124.491 E45.25491
G1 X95.714 Y124.717 E45.42764
G1 X93.097 Y125.015 E45.59935
G1 X90.473 Y125.39 E45.77214
G1 X86.744 Y126.053 E46.01905
G1 X85.72 Y126.256 E46.0871
G1 X85.012 Y126.355 E46.1337
G1 X84.602 Y126.377 E46.16047
G1 X83.504 Y126.399 E46.23206
G1 X69.707 Y126.4 E47.13149
G1 X68.913 Y126.389 E47.18325
G1 X68.199 Y126.339 E47.22991
G1 X67.496 Y126.21 E47.27651
G1 X66.811 Y126.003 E47.32316
G1 X66.154 Y125.72 E47.36979
G1 X65.533 Y125.367 E47.41636
G1 X64.922 Y124.919 E47.46575
G1 X64.533 Y124.596 E47.49871
G1 X63.056 Y123.335 E47.62531
G1 X61.015 Y121.688 E47.79628
G1 X60.18 Y121.033 E47.86547
G1 X59.623 Y120.541 E47.91391
G1 X59.503 Y120.422 E47.92493
G1 X59.025 Y119.891 E47.97151
G1 X58.608 Y119.31 E48.01813
G1 X58.259 Y118.686 E48.06473
G1 X57.981 Y118.026 E48.11142
G1 X57.779 Y117.34 E48.15804
G1 X57.655 Y116.636 E48.20464
G1 X57.614 Y116.094 E48.24007
G1 X57.6 Y115.399 E48.28539
G1 X57.601 Y114.562 E48.33995
G1 X57.612 Y113.87 E48.38507
G1 X57.688 Y112.982 E48.44317
G1 X57.802 Y112.252 E48.49134
G1 X58.181 Y109.595 E48.6663
G1 X58.484 Y106.944 E48.84024
G1 X58.707 Y104.326 E49.01153
G1 X58.859 Y101.645 E49.18658
G1 X58.934 Y99.03 E49.35712
G1 X58.944 Y97.632 E49.44826
G1 X58.948 Y92.739 E49.76724
G1 X58.958 Y92.077 E49.8104
G1 X59.009 Y91.361 E49.85719
G1 X59.046 Y91.072 E49.87618
G1 X59.229 Y90.168 E49.93631
G1 X59.295 Y89.931 E49.95235
G1 X59.525 Y89.254 E49.99896
G1 X59.943 Y88.405 E50.06065
G1 X60.107 Y88.126 E50.08175
G1 X60.503 Y87.53 E50.1284
G1 X60.849 Y87.108 E50.16397
G1 X61.353 Y86.601 E50.21057
G1 X61.911 Y86.153 E50.25722
M204 S3000
M205 X10 Y10
G0 F500 X62.286 Y86.573
M204 S1800
M205 X8 Y8
G1 F2400 X62.868 Y86.215 E50.30177
G1 X63.488 Y85.928 E50.34631
G1 X64.137 Y85.715 E50.39083
G1 X64.807 Y85.579 E50.4354
G1 X65.262 Y85.532 E50.46522
G1 X66.088 Y85.48 E50.51917
G1 X67.157 Y85.428 E50.58894
G1 X69.828 Y85.221 E50.76359
G1 X72.754 Y84.908 E50.95542
G1 X73.862 Y84.772 E51.0282
G1 X74.409 Y84.709 E51.06409
G1 X75.482 Y84.591 E51.13446
G1 X75.702 Y84.569 E51.14887
G1 X76.868 Y84.462 E51.2252
G1 X78.132 Y84.372 E51.30781
G1 X79.34 Y84.309 E51.38667
G1 X79.661 Y84.297 E51.40761
G1 X80.45 Y84.272 E51.45907
G1 X80.945 Y84.26 E51.49135
G1 X81.557 Y84.249 E51.53125
G1 X82.187 Y84.242 E51.57232
G1 X83.842 Y84.236 E51.68021
G1 X126.506 Y84.237 E54.46147
G1 X127.788 Y84.243 E54.54505
G1 X128.659 Y84.253 E54.60183
G1 X129.656 Y84.274 E54.66684
G1 X130.39 Y84.298 E54.71472
G1 X131.192 Y84.333 E54.76705
G1 X132.239 Y84.395 E54.83542
G1 X133.008 Y84.451 E54.88569
G1 X134.019 Y84.541 E54.95185
G1 X134.392 Y84.581 E54.97631
G1 X135.357 Y84.7 E55.03969
G1 X136.796 Y84.856 E55.13405
