;FLAVOR:Marlin
;TIME:12780
;Filament used: 10.1816m
;Layer height: 0.2
;MINX:32.432
;MINY:68.453
;MINZ:0.2
;MAXX:172.558
;MAXY:138.02
;MAXZ:34.8
;Generated with Cura_SteamEngine 4.8.0
M140 S60
M105
M190 S60
M104 S200
M105
M109 S200
M82 ;absolute extrusion mode
G21 ;metric values
G90 ;absolute positioning
M82 ;set extruder to absolute mode
M107 ;start with the fan off
G28 X0 Y0 ;move X/Y to min endstops
G28 Z0 ;move Z to min endstops
G1 Z15.0 F100 ;move the platform down 15mm
G92 E0 ;zero the extruded length
G1 F200 E3 ;extrude 3mm of feed stock
G92 E0 ;zero the extruded length again
G1 F100
G0 Y20 F100
M117 Printing...
G5
G92 E0
G92 E0
G1 F2400 E-3
;LAYER_COUNT:174
;LAYER:0
M106 S255
M204 S3000
M205 X10 Y10
G1 F600 Z0.275
G0 F500 X43.525 Y72.788 Z0.275
M204 S1800
M205 X8 Y8
;TYPE:SKIRT
G1 F600 Z0.2
G1 F2400 E0
G1 X44.191 Y72.39 E0.05058
G1 X44.894 Y72.063 E0.10112
G1 X45.627 Y71.81 E0.15167
G1 X46.274 Y71.654 E0.19506
G1 X46.671 Y71.577 E0.22142
G1 X49.305 Y71.021 E0.39692
G1 X51.776 Y70.428 E0.56257
G1 X54.369 Y69.725 E0.73771
G1 X56.12 Y69.202 E0.85684
G1 X56.327 Y69.143 E0.87088
G1 X57.082 Y68.969 E0.92138
G1 X57.852 Y68.874 E0.97196
G1 X58.266 Y68.856 E0.99897
G1 X59.246 Y68.841 E1.06287
G1 X62.034 Y68.839 E1.24462
G1 X65.802 Y68.709 E1.4904
G1 X67.063 Y68.628 E1.57277
G1 X67.626 Y68.603 E1.60951
G1 X69.456 Y68.571 E1.72883
G1 X69.581 Y68.562 E1.737
G1 X70.705 Y68.546 E1.81028
G1 X72.677 Y68.471 E1.93892
G1 X73.717 Y68.453 E2.00673
G1 X73.96 Y68.453 E2.02257
G1 X74.627 Y68.463 E2.06606
G1 X75.4 Y68.514 E2.11656
G1 X75.825 Y68.577 E2.14457
G1 X76.333 Y68.683 E2.1784
G1 X77.102 Y68.873 E2.23004
G1 X78.285 Y69.182 E2.30974
G1 X80.797 Y69.76 E2.47778
G1 X83.412 Y70.288 E2.65169
G1 X85.951 Y70.721 E2.8196
G1 X88.543 Y71.091 E2.99028
G1 X91.144 Y71.387 E3.16094
G1 X93.759 Y71.61 E3.33203
G1 X96.368 Y71.759 E3.50239
G1 X98.979 Y71.834 E3.67267
G1 X101.594 Y71.834 E3.84314
G1 X104.21 Y71.761 E4.01374
G1 X106.818 Y71.614 E4.18403
G1 X109.433 Y71.392 E4.35511
G1 X112.023 Y71.099 E4.52503
G1 X114.618 Y70.73 E4.6959
G1 X117.167 Y70.294 E4.86448
G1 X119.738 Y69.781 E5.03539
G1 X121.013 Y69.483 E5.12074
G1 X122.32 Y69.191 E5.20805
G1 X123.085 Y69.061 E5.25863
G1 X123.827 Y69.011 E5.30711
G1 X124.734 Y68.995 E5.36625
G1 X125.164 Y68.998 E5.39428
G1 X126.923 Y68.994 E5.50895
G1 X127.086 Y69.002 E5.51959
G1 X128.466 Y69.002 E5.60955
G1 X129.693 Y68.998 E5.68954
G1 X129.816 Y69.004 E5.69757
G1 X132.366 Y69.001 E5.8638
G1 X132.485 Y69.007 E5.87157
G1 X133.831 Y69.007 E5.95932
G1 X133.909 Y69.002 E5.96441
G1 X134.774 Y69 E6.0208
G1 X134.957 Y69.009 E6.03275
G1 X136.296 Y69.009 E6.12003
G1 X137.104 Y69.004 E6.17271
G1 X137.215 Y69.009 E6.17995
G1 X143.066 Y69.01 E6.56138
G1 X145.835 Y69.028 E6.74189
G1 X146.639 Y69.039 E6.79431
G1 X148.674 Y69.083 E6.927
G1 X149.655 Y69.118 E6.99099
G1 X149.876 Y69.129 E7.00542
G1 X151.199 Y69.216 E7.09185
G1 X151.85 Y69.268 E7.13443
G1 X152.618 Y69.369 E7.18492
G1 X153.373 Y69.549 E7.23552
G1 X154.104 Y69.806 E7.28603
G1 X154.52 Y69.992 E7.31574
G1 X155.384 Y70.41 E7.37831
G1 X157.395 Y71.424 E7.52513
G1 X158.011 Y71.747 E7.57047
G1 X158.678 Y72.142 E7.62101
G1 X159.24 Y72.554 E7.66643
G1 X160.229 Y73.352 E7.74928
G1 X160.469 Y73.551 E7.7696
G1 X162.497 Y75.143 E7.93767
G1 X164.634 Y76.723 E8.11093
G1 X166.071 Y77.735 E8.2255
G1 X166.681 Y78.214 E8.27606
G1 X167.238 Y78.753 E8.32659
G1 X167.737 Y79.346 E8.37712
G1 X168.173 Y79.988 E8.42771
G1 X168.539 Y80.671 E8.47822
G1 X168.834 Y81.388 E8.52876
G1 X169.053 Y82.132 E8.57932
G1 X169.195 Y82.894 E8.62985
G1 X169.256 Y83.652 E8.67943
G1 X169.27 Y84.208 E8.71568
G1 X169.27 Y97.72 E9.59653
G1 X169.307 Y100.334 E9.76695
G1 X169.418 Y102.946 E9.93738
G1 X169.604 Y105.566 E10.10861
G1 X169.86 Y108.152 E10.27801
G1 X170.192 Y110.746 E10.4485
G1 X170.602 Y113.356 E10.62073
G1 X171.073 Y115.888 E10.78862
G1 X171.631 Y118.481 E10.96153
G1 X172.099 Y120.422 E11.09169
G1 X172.335 Y121.357 E11.15455
G1 X172.486 Y122.118 E11.20513
G1 X172.558 Y122.89 E11.25567
G1 X172.549 Y123.665 E11.3062
G1 X172.461 Y124.436 E11.35679
G1 X172.233 Y125.405 E11.42168
G1 X172.043 Y126.024 E11.46389
G1 X171.759 Y126.795 E11.51745
G1 X171.547 Y127.261 E11.55083
G1 X170.44 Y129.498 E11.71354
G1 X169.047 Y132.552 E11.93236
G1 X168.64 Y133.488 E11.9989
G1 X168.294 Y134.182 E12.04945
G1 X167.879 Y134.837 E12.1
G1 X167.399 Y135.446 E12.15055
G1 X166.859 Y136.002 E12.20107
G1 X166.264 Y136.499 E12.25161
G1 X165.621 Y136.933 E12.30218
G1 X164.937 Y137.298 E12.35273
G1 X164.219 Y137.591 E12.40328
G1 X163.475 Y137.808 E12.4538
G1 X162.712 Y137.947 E12.50436
G1 X161.976 Y138.006 E12.55249
G1 X161.42 Y138.02 E12.58875
G1 X43.85 Y138.019 E20.25312
G1 X43.15 Y138.009 E20.29876
G1 X42.376 Y137.958 E20.34933
G1 X41.612 Y137.828 E20.39985
G1 X40.865 Y137.619 E20.45041
G1 X40.143 Y137.335 E20.50099
G1 X39.455 Y136.978 E20.55152
G1 X38.807 Y136.552 E20.60208
G1 X38.207 Y136.062 E20.65258
G1 X37.66 Y135.512 E20.70314
G1 X37.172 Y134.909 E20.75371
G1 X36.75 Y134.259 E20.80423
G1 X36.365 Y133.497 E20.85989
G1 X35.321 Y131.104 E21.03009
G1 X34.195 Y128.709 E21.20261
G1 X33.474 Y127.267 E21.30771
G1 X33.374 Y127.057 E21.32287
G1 X33.053 Y126.27 E21.37828
G1 X32.858 Y125.689 E21.41823
G1 X32.764 Y125.383 E21.4391
G1 X32.574 Y124.631 E21.48966
G1 X32.464 Y123.864 E21.54018
G1 X32.432 Y123.089 E21.59074
G1 X32.481 Y122.315 E21.6413
G1 X32.632 Y121.453 E21.69835
G1 X32.761 Y120.907 E21.73492
G1 X33.219 Y119.095 E21.85676
G1 X33.795 Y116.515 E22.02909
G1 X34.294 Y113.938 E22.20021
G1 X34.711 Y111.39 E22.36852
G1 X35.06 Y108.804 E22.53863
G1 X35.339 Y106.181 E22.71059
G1 X35.541 Y103.6 E22.87936
G1 X35.67 Y100.986 E23.04997
G1 X35.73 Y97.614 E23.26983
G1 X35.731 Y84.476 E24.12629
G1 X35.741 Y83.774 E24.17206
G1 X35.792 Y83 E24.22262
G1 X35.922 Y82.236 E24.27315
G1 X36.131 Y81.489 E24.32371
G1 X36.415 Y80.768 E24.37423
G1 X36.772 Y80.079 E24.42482
G1 X37.206 Y79.421 E24.4762
G1 X37.742 Y78.693 E24.53514
G1 X38.491 Y77.707 E24.61585
G1 X39.746 Y75.966 E24.75576
G1 X39.849 Y75.826 E24.76709
G1 X40.34 Y75.226 E24.81764
G1 X40.89 Y74.679 E24.8682
G1 X41.551 Y74.151 E24.92335
G1 X42.222 Y73.676 E24.97695
G1 X42.961 Y73.166 E25.03548
G1 X43.525 Y72.788 E25.07974
M204 S3000
M205 X10 Y10
G0 F500 X43.837 Y73.253
M204 S1800
M205 X8 Y8
G1 F2400 X44.478 Y72.872 E25.12835
G1 X45.156 Y72.561 E25.17698
G1 X45.864 Y72.325 E25.22563
G1 X46.381 Y72.203 E25.26026
G1 X46.82 Y72.117 E25.28942
G1 X49.406 Y71.572 E25.46171
G1 X51.958 Y70.96 E25.63279
G1 X54.512 Y70.267 E25.8053
G1 X56.273 Y69.741 E25.92511
G1 X56.48 Y69.682 E25.93915
G1 X57.207 Y69.516 E25.98776
G1 X58.275 Y69.416 E26.05769
G1 X59.246 Y69.401 E26.12099
G1 X62.054 Y69.399 E26.30405
G1 X65.869 Y69.266 E26.5529
G1 X66.991 Y69.193 E26.62619
G1 X67.636 Y69.163 E26.66829
G1 X69.312 Y69.133 E26.77756
G1 X69.588 Y69.122 E26.79557
G1 X70.693 Y69.107 E26.86761
G1 X72.537 Y69.035 E26.98791
G1 X73.727 Y69.013 E27.0655
G1 X73.951 Y69.013 E27.0801
G1 X74.618 Y69.023 E27.12359
G1 X75.707 Y69.125 E27.19489
G1 X76.199 Y69.227 E27.22765
G1 X76.961 Y69.415 E27.27881
G1 X78.154 Y69.726 E27.35918
G1 X80.678 Y70.308 E27.52804
G1 X83.304 Y70.837 E27.70267
G1 X85.888 Y71.278 E27.87355
G1 X88.47 Y71.647 E28.04358
G1 X91.071 Y71.943 E28.21424
G1 X93.714 Y72.169 E28.38716
G1 X96.355 Y72.319 E28.55961
G1 X98.963 Y72.394 E28.72969
G1 X101.61 Y72.394 E28.90225
G1 X104.222 Y72.321 E29.07259
G1 X106.863 Y72.172 E29.24503
G1 X109.471 Y71.951 E29.41566
G1 X112.095 Y71.654 E29.58781
G1 X114.716 Y71.282 E29.76038
G1 X117.303 Y70.839 E29.93148
G1 X119.825 Y70.336 E30.09913
G1 X121.135 Y70.029 E30.18684
G1 X122.442 Y69.737 E30.27415
G1 X123.178 Y69.614 E30.32279
G1 X123.837 Y69.571 E30.36584
G1 X124.744 Y69.555 E30.42498
G1 X125.156 Y69.558 E30.45184
G1 X126.924 Y69.554 E30.56709
G1 X127.081 Y69.562 E30.57734
G1 X128.468 Y69.562 E30.66776
G1 X129.695 Y69.558 E30.74775
G1 X129.81 Y69.564 E30.75526
G1 X132.366 Y69.561 E30.92188
G1 X132.481 Y69.567 E30.92939
G1 X133.772 Y69.567 E31.01355
G1 X133.91 Y69.562 E31.02255
G1 X134.775 Y69.56 E31.07894
G1 X134.951 Y69.569 E31.09043
G1 X136.3 Y69.569 E31.17837
G1 X137.108 Y69.564 E31.23104
G1 X137.215 Y69.569 E31.23803
G1 X143.063 Y69.57 E31.61926
G1 X145.827 Y69.588 E31.79945
G1 X146.627 Y69.599 E31.8516
G1 X148.654 Y69.642 E31.98377
G1 X149.635 Y69.677 E32.04776
G1 X149.839 Y69.688 E32.06108
G1 X151.154 Y69.774 E32.14699
G1 X151.805 Y69.826 E32.18956
G1 X152.544 Y69.925 E32.23817
G1 X153.269 Y70.103 E32.28684
G1 X154.276 Y70.496 E32.3573
G1 X155.132 Y70.91 E32.41929
G1 X157.135 Y71.92 E32.56553
G1 X157.751 Y72.243 E32.61087
G1 X158.392 Y72.624 E32.65948
G1 X158.889 Y72.99 E32.69972
G1 X159.871 Y73.783 E32.782
G1 X160.106 Y73.978 E32.80191
G1 X162.155 Y75.586 E32.9717
G1 X164.328 Y77.193 E33.14789
G1 X165.748 Y78.193 E33.26111
G1 X166.334 Y78.655 E33.30975
G1 X166.867 Y79.176 E33.35834
G1 X167.342 Y79.752 E33.40701
G1 X167.751 Y80.375 E33.4556
G1 X168.092 Y81.039 E33.50426
G1 X168.36 Y81.735 E33.55288
G1 X168.552 Y82.456 E33.60152
G1 X168.666 Y83.193 E33.65013
G1 X168.707 Y83.994 E33.70242
G1 X168.71 Y84.208 E33.71637
G1 X168.71 Y97.72 E34.59722
G1 X168.747 Y100.331 E34.76744
G1 X168.86 Y102.975 E34.93996
G1 X169.047 Y105.623 E35.11302
G1 X169.304 Y108.208 E35.28236
G1 X169.64 Y110.835 E35.45501
G1 X170.048 Y113.435 E35.62658
G1 X170.532 Y116.039 E35.79924
G1 X171.084 Y118.604 E35.97028
G1 X171.536 Y120.48 E36.09608
G1 X171.792 Y121.494 E36.16425
G1 X171.936 Y122.226 E36.21289
G1 X172 Y122.969 E36.2615
G1 X171.985 Y123.715 E36.31014
G1 X171.89 Y124.455 E36.35878
G1 X171.698 Y125.24 E36.41146
G1 X171.508 Y125.859 E36.45367
G1 X171.245 Y126.573 E36.50328
G1 X171.045 Y127.013 E36.53478
G1 X169.923 Y129.28 E36.69968
G1 X168.535 Y132.324 E36.91777
G1 X168.126 Y133.264 E36.9846
G1 X167.793 Y133.932 E37.03326
G1 X167.389 Y134.559 E37.08188
G1 X166.922 Y135.14 E37.13048
G1 X166.394 Y135.668 E37.17915
G1 X165.813 Y136.136 E37.22779
G1 X165.186 Y136.539 E37.27638
G1 X164.519 Y136.873 E37.32501
G1 X163.82 Y137.133 E37.37362
G1 X163.097 Y137.317 E37.42226
G1 X162.358 Y137.423 E37.47093
G1 X161.635 Y137.457 E37.51811
G1 X161.42 Y137.46 E37.53213
G1 X43.858 Y137.459 E45.19598
G1 X43.158 Y137.449 E45.24162
G1 X42.413 Y137.399 E45.29029
G1 X41.679 Y137.269 E45.33889
G1 X40.962 Y137.061 E45.38756
G1 X40.272 Y136.778 E45.43617
G1 X39.617 Y136.422 E45.48477
G1 X39.003 Y135.998 E45.53341
G1 X38.438 Y135.512 E45.582
G1 X37.928 Y134.967 E45.63066
G1 X37.479 Y134.371 E45.6793
G1 X37.097 Y133.73 E45.72794
G1 X36.878 Y133.273 E45.76098
G1 X35.826 Y130.863 E45.9324
G1 X34.71 Y128.487 E46.10353
G1 X34.041 Y127.152 E46.20087
G1 X33.88 Y126.816 E46.22516
G1 X33.583 Y126.088 E46.27642
G1 X33.393 Y125.525 E46.31515
G1 X33.299 Y125.219 E46.33602
G1 X33.118 Y124.495 E46.38467
G1 X33.016 Y123.756 E46.4333
G1 X32.994 Y123.011 E46.48189
G1 X33.052 Y122.267 E46.53054
G1 X33.177 Y121.581 E46.576
G1 X33.304 Y121.044 E46.61197
G1 X33.768 Y119.21 E46.7353
G1 X34.341 Y116.64 E46.90695
G1 X34.841 Y114.059 E47.07833
G1 X35.267 Y111.451 E47.2506
G1 X35.617 Y108.869 E47.42046
G1 X35.896 Y106.246 E47.59242
G1 X36.102 Y103.602 E47.7653
G1 X36.23 Y101.024 E47.93357
G1 X36.29 Y97.622 E48.15538
G1 X36.291 Y84.484 E49.01184
G1 X36.301 Y83.782 E49.05761
G1 X36.351 Y83.038 E49.10622
G1 X36.481 Y82.303 E49.15488
G1 X36.689 Y81.587 E49.20348
G1 X36.972 Y80.897 E49.2521
G1 X37.328 Y80.241 E49.30076
G1 X37.656 Y79.753 E49.33909
G1 X38.188 Y79.032 E49.3975
G1 X38.921 Y78.067 E49.4765
G1 X40.197 Y76.297 E49.61874
G1 X40.3 Y76.157 E49.63007
G1 X40.773 Y75.581 E49.67866
G1 X41.306 Y75.059 E49.72729
G1 X41.875 Y74.608 E49.77463
G1 X42.54 Y74.137 E49.82775
G1 X43.273 Y73.631 E49.88581
G1 X43.837 Y73.253 E49.93007
M204 S3000
M205 X10 Y10
G0 F500 X44.149 Y73.719
M204 S1800
M205 X8 Y8
G1 F2400 X44.764 Y73.354 E49.97669
G1 X45.417 Y73.061 E50.02335
G1 X46.098 Y72.842 E50.06999
G1 X49.543 Y72.116 E50.2995
G1 X52.068 Y71.51 E50.46878
G1 X54.655 Y70.808 E50.64352
G1 X56.427 Y70.279 E50.76408
G1 X56.634 Y70.22 E50.77811
G1 X57.331 Y70.063 E50.82468
G1 X58.284 Y69.976 E50.88707
G1 X59.247 Y69.961 E50.94985
G1 X62.074 Y69.959 E51.13414
G1 X65.787 Y69.831 E51.37634
G1 X67.027 Y69.752 E51.45734
G1 X67.646 Y69.723 E51.49773
G1 X69.458 Y69.691 E51.61588
G1 X69.596 Y69.682 E51.62489
G1 X70.723 Y69.666 E51.69837
G1 X72.696 Y69.591 E51.82708
G1 X73.736 Y69.573 E51.89489
G1 X73.943 Y69.573 E51.90838
G1 X74.61 Y69.583 E51.95187
G1 X75.611 Y69.677 E52.01741
G1 X76.065 Y69.771 E52.04764
G1 X76.819 Y69.957 E52.09826
G1 X77.99 Y70.262 E52.17715
G1 X80.586 Y70.86 E52.35081
G1 X83.196 Y71.387 E52.52439
G1 X85.789 Y71.83 E52.69588
G1 X88.402 Y72.202 E52.86794
G1 X91.029 Y72.501 E53.0403
G1 X93.669 Y72.727 E53.21303
G1 X96.342 Y72.879 E53.38756
G1 X98.947 Y72.954 E53.55745
G1 X101.59 Y72.954 E53.72975
G1 X104.269 Y72.879 E53.90446
G1 X106.907 Y72.731 E54.0767
G1 X109.546 Y72.507 E54.24935
G1 X112.163 Y72.211 E54.42104
G1 X114.791 Y71.837 E54.59409
G1 X117.39 Y71.392 E54.76598
G1 X119.941 Y70.883 E54.93556
G1 X121.258 Y70.576 E55.02372
G1 X122.565 Y70.284 E55.11102
G1 X123.27 Y70.167 E55.15761
G1 X123.847 Y70.131 E55.1953
G1 X124.754 Y70.115 E55.25443
G1 X125.147 Y70.118 E55.28005
G1 X126.925 Y70.114 E55.39596
G1 X127.075 Y70.122 E55.40575
G1 X128.47 Y70.122 E55.49669
G1 X129.697 Y70.118 E55.57668
G1 X129.808 Y70.124 E55.58393
G1 X132.367 Y70.121 E55.75075
G1 X132.477 Y70.127 E55.75793
G1 X133.828 Y70.127 E55.846
G1 X133.911 Y70.122 E55.85142
G1 X134.776 Y70.12 E55.90781
G1 X134.945 Y70.129 E55.91885
G1 X136.303 Y70.129 E56.00737
G1 X137.111 Y70.124 E56.06005
G1 X137.211 Y70.129 E56.06657
G1 X143.059 Y70.13 E56.4478
G1 X145.82 Y70.148 E56.6278
G1 X146.615 Y70.158 E56.67963
G1 X148.634 Y70.202 E56.81128
G1 X149.615 Y70.237 E56.87527
G1 X149.803 Y70.247 E56.88754
G1 X151.11 Y70.332 E56.97293
G1 X151.761 Y70.384 E57.0155
G1 X152.469 Y70.481 E57.06208
G1 X153.163 Y70.656 E57.10874
G1 X154.033 Y71 E57.16973
G1 X154.88 Y71.41 E57.23108
G1 X156.875 Y72.416 E57.37673
G1 X157.491 Y72.739 E57.42207
G1 X158.105 Y73.106 E57.4687
G1 X158.537 Y73.426 E57.50375
G1 X159.513 Y74.214 E57.58552
G1 X159.739 Y74.402 E57.60469
G1 X161.84 Y76.05 E57.77876
G1 X163.974 Y77.628 E57.95178
G1 X165.426 Y78.651 E58.06757
G1 X165.987 Y79.095 E58.11421
G1 X166.494 Y79.599 E58.16081
G1 X166.943 Y80.156 E58.20745
G1 X167.326 Y80.76 E58.25407
G1 X167.64 Y81.402 E58.30066
G1 X167.88 Y82.076 E58.3473
G1 X168.043 Y82.773 E58.39397
G1 X168.137 Y83.686 E58.4538
G1 X168.15 Y84.208 E58.48784
G1 X168.15 Y97.72 E59.36868
G1 X168.188 Y100.362 E59.54093
G1 X168.3 Y103.002 E59.71319
G1 X168.487 Y105.647 E59.88605
G1 X168.751 Y108.304 E60.06011
G1 X169.085 Y110.919 E60.23197
G1 X169.493 Y113.515 E60.40328
G1 X169.978 Y116.122 E60.57614
G1 X170.538 Y118.727 E60.74984
G1 X171.01 Y120.684 E60.88108
G1 X171.249 Y121.631 E60.94475
G1 X171.385 Y122.334 E60.99142
G1 X171.442 Y123.047 E61.03805
G1 X171.419 Y123.761 E61.08462
G1 X171.316 Y124.469 E61.13126
G1 X171.162 Y125.076 E61.17209
G1 X170.972 Y125.695 E61.2143
G1 X170.731 Y126.351 E61.25986
G1 X170.543 Y126.765 E61.2895
G1 X169.425 Y129.024 E61.45381
G1 X168.024 Y132.096 E61.67392
G1 X167.613 Y133.041 E61.74109
G1 X167.291 Y133.68 E61.78774
G1 X166.901 Y134.279 E61.83434
G1 X166.446 Y134.831 E61.88097
G1 X165.932 Y135.329 E61.92763
G1 X165.366 Y135.766 E61.97424
G1 X164.754 Y136.137 E62.0209
G1 X164.105 Y136.438 E62.06753
G1 X163.427 Y136.665 E62.11414
G1 X162.727 Y136.814 E62.1608
G1 X161.941 Y136.887 E62.21226
G1 X161.42 Y136.9 E62.24623
G1 X43.866 Y136.899 E69.90956
G1 X43.166 Y136.889 E69.9552
G1 X42.452 Y136.839 E70.00186
G1 X41.749 Y136.71 E70.04845
G1 X41.064 Y136.503 E70.0951
G1 X40.407 Y136.22 E70.14174
G1 X39.785 Y135.866 E70.18839
G1 X39.207 Y135.446 E70.23497
G1 X38.679 Y134.963 E70.28162
G1 X38.209 Y134.424 E70.32824
G1 X37.801 Y133.836 E70.37489
G1 X37.391 Y133.049 E70.43274
G1 X36.332 Y130.621 E70.60542
G1 X35.209 Y128.232 E70.77751
G1 X34.486 Y126.786 E70.8829
G1 X34.386 Y126.576 E70.89806
G1 X34.112 Y125.906 E70.94525
G1 X33.928 Y125.36 E70.98281
G1 X33.834 Y125.054 E71.00368
G1 X33.663 Y124.36 E71.05028
