;FLAVOR:Marlin
;TIME:2094
;Filament used: 0.739597m
;Layer height: 0.1
;MINX:42.48
;MINY:88.23
;MINZ:0.2
;MAXX:172.145
;MAXY:121.77
;MAXZ:16.5
;Generated with Cura_SteamEngine 4.8.0
M140 S60
M105
M190 S60
M104 S200
M105
M109 S200
M82 ;absolute extrusion mode
G21 ;metric values
G90 ;absolute positioning
M82 ;set extruder to absolute mode
M107 ;start with the fan off
G28 X0 Y0 ;move X/Y to min endstops
G28 Z0 ;move Z to min endstops
G1 Z15.0 F100 ;move the platform down 15mm
G92 E0 ;zero the extruded length
G1 F200 E3 ;extrude 3mm of feed stock
G92 E0 ;zero the extruded length again
G1 F100
G0 Y20 F100
M117 Printing...
G5
G92 E0
G92 E0
G1 F2400 E-3
;LAYER_COUNT:164
;LAYER:0
M106 S255
M204 S3000
M205 X10 Y10
G1 F600 Z0.275
G0 F500 X120.143 Y100.867 Z0.275
M204 S1800
M205 X8 Y8
;TYPE:SKIRT
G1 F600 Z0.2
G1 F2400 E0
G1 X120.645 Y100.358 E0.0466
G1 X121.2 Y99.907 E0.09322
G1 X121.803 Y99.521 E0.1399
G1 X122.444 Y99.205 E0.18649
G1 X123.162 Y98.949 E0.23618
G1 X124.312 Y98.615 E0.31425
G1 X126.847 Y97.798 E0.48787
G1 X129.332 Y96.921 E0.65966
G1 X131.776 Y95.978 E0.83043
G1 X134.243 Y94.947 E1.00474
G1 X136.677 Y93.848 E1.17883
G1 X139.051 Y92.692 E1.35097
G1 X141.38 Y91.478 E1.52218
G1 X142.086 Y91.082 E1.57495
G1 X143.198 Y90.474 E1.65757
G1 X143.733 Y90.212 E1.6964
G1 X144.359 Y89.942 E1.74085
G1 X145.031 Y89.696 E1.7875
G1 X145.966 Y89.487 E1.84996
G1 X146.703 Y89.398 E1.89835
G1 X147.249 Y89.366 E1.934
G1 X148.161 Y89.351 E1.99347
G1 X148.357 Y89.351 E2.00624
G1 X149.063 Y89.361 E2.05227
G1 X149.246 Y89.366 E2.06421
G1 X150.444 Y89.418 E2.14238
G1 X151.131 Y89.456 E2.18723
G1 X153.819 Y89.529 E2.36253
G1 X156.463 Y89.525 E2.53489
G1 X159.095 Y89.448 E2.70654
G1 X160.465 Y89.375 E2.79598
G1 X161.09 Y89.354 E2.83674
G1 X161.916 Y89.35 E2.89059
G1 X162.706 Y89.361 E2.9421
G1 X163.416 Y89.41 E2.98849
G1 X164.161 Y89.516 E3.03755
G1 X164.86 Y89.668 E3.08418
G1 X165.412 Y89.848 E3.12203
G1 X166.138 Y90.143 E3.17311
G1 X166.779 Y90.46 E3.21973
G1 X167.363 Y90.833 E3.26491
G1 X168.043 Y91.359 E3.32095
G1 X168.575 Y91.837 E3.36757
G1 X169.064 Y92.39 E3.4157
G1 X169.372 Y92.787 E3.44845
G1 X169.497 Y92.957 E3.46221
G1 X169.888 Y93.556 E3.50884
G1 X170.217 Y94.213 E3.55674
G1 X170.469 Y94.803 E3.59856
G1 X170.495 Y94.869 E3.60319
G1 X170.719 Y95.548 E3.6498
G1 X170.872 Y96.285 E3.69887
G1 X170.956 Y96.866 E3.73713
G1 X170.968 Y96.964 E3.74357
G1 X171.013 Y97.585 E3.78416
G1 X171.025 Y98.149 E3.82094
G1 X171.024 Y98.718 E3.85803
G1 X171.01 Y99.604 E3.91579
G1 X170.955 Y100.927 E4.00211
G1 X170.959 Y101.029 E4.00877
G1 X170.899 Y102.476 E4.10318
G1 X170.864 Y105.118 E4.27543
G1 X170.904 Y107.752 E4.44716
G1 X170.961 Y108.971 E4.52671
G1 X171.02 Y110.664 E4.63714
G1 X171.025 Y111.536 E4.69399
G1 X171.014 Y112.329 E4.74569
G1 X170.965 Y113.039 E4.79209
G1 X170.893 Y113.574 E4.82728
G1 X170.854 Y113.814 E4.84313
G1 X170.7 Y114.512 E4.88972
G1 X170.497 Y115.119 E4.93145
G1 X170.229 Y115.769 E4.97728
G1 X169.909 Y116.409 E5.02393
G1 X169.487 Y117.053 E5.07412
G1 X169.152 Y117.5 E5.11054
G1 X169.089 Y117.581 E5.11723
G1 X168.619 Y118.12 E5.16385
G1 X168.015 Y118.665 E5.21688
G1 X167.605 Y118.987 E5.25087
G1 X167.442 Y119.108 E5.2641
G1 X166.844 Y119.501 E5.31075
G1 X166.122 Y119.863 E5.3634
G1 X165.657 Y120.057 E5.39624
G1 X165.46 Y120.134 E5.41003
G1 X164.78 Y120.357 E5.45669
G1 X164.063 Y120.505 E5.50441
G1 X163.33 Y120.6 E5.5526
G1 X162.803 Y120.637 E5.58704
G1 X162.321 Y120.649 E5.61847
G1 X161.647 Y120.649 E5.6624
G1 X160.942 Y120.639 E5.70837
G1 X160.76 Y120.634 E5.72024
G1 X159.578 Y120.583 E5.79736
G1 X158.911 Y120.546 E5.84091
G1 X156.228 Y120.473 E6.01588
G1 X153.587 Y120.475 E6.18805
G1 X150.942 Y120.553 E6.36055
G1 X149.917 Y120.609 E6.42747
G1 X149.2 Y120.638 E6.47425
G1 X148.386 Y120.65 E6.52732
G1 X147.981 Y120.649 E6.55372
G1 X147.284 Y120.639 E6.59916
G1 X146.65 Y120.599 E6.64057
G1 X145.879 Y120.494 E6.6913
G1 X145.18 Y120.346 E6.73788
G1 X144.498 Y120.12 E6.78472
G1 X143.802 Y119.831 E6.83384
G1 X143.334 Y119.603 E6.86778
G1 X142.068 Y118.923 E6.96146
G1 X141.742 Y118.742 E6.98577
G1 X139.381 Y117.521 E7.15905
G1 X137.005 Y116.376 E7.33099
G1 X134.591 Y115.296 E7.50338
G1 X132.122 Y114.274 E7.67758
G1 X129.664 Y113.338 E7.84904
G1 X127.195 Y112.476 E8.01953
G1 X124.636 Y111.664 E8.19454
G1 X123.181 Y111.246 E8.29323
G1 X122.506 Y111.011 E8.33982
G1 X121.861 Y110.701 E8.38648
G1 X121.255 Y110.322 E8.43307
G1 X120.695 Y109.877 E8.4797
G1 X120.188 Y109.373 E8.5263
G1 X119.74 Y108.815 E8.57295
G1 X119.357 Y108.21 E8.61963
G1 X119.045 Y107.567 E8.66622
G1 X118.806 Y106.893 E8.71284
G1 X118.643 Y106.196 E8.7595
G1 X118.56 Y105.486 E8.8061
G1 X118.556 Y104.771 E8.85272
G1 X118.632 Y104.06 E8.89933
G1 X118.787 Y103.361 E8.946
G1 X119.019 Y102.685 E8.9926
G1 X119.325 Y102.038 E9.03925
G1 X119.701 Y101.43 E9.08586
G1 X120.143 Y100.867 E9.13252
M204 S3000
M205 X10 Y10
G0 F500 X120.477 Y101.338
M204 S1800
M205 X8 Y8
G1 F2400 X120.946 Y100.841 E9.17706
G1 X121.471 Y100.403 E9.22164
G1 X122.042 Y100.029 E9.26613
G1 X122.654 Y99.724 E9.31071
G1 X123.319 Y99.487 E9.35673
G1 X124.464 Y99.154 E9.43447
G1 X127.029 Y98.328 E9.61013
G1 X129.531 Y97.445 E9.7831
G1 X131.986 Y96.498 E9.95463
G1 X134.482 Y95.454 E10.13101
G1 X136.903 Y94.361 E10.30417
G1 X139.277 Y93.206 E10.47628
G1 X141.649 Y91.968 E10.6507
G1 X142.354 Y91.573 E10.70338
G1 X143.466 Y90.965 E10.786
G1 X143.955 Y90.727 E10.82145
G1 X144.581 Y90.457 E10.8659
G1 X145.223 Y90.223 E10.91044
G1 X146.047 Y90.041 E10.96545
G1 X146.76 Y89.955 E11.01227
G1 X147.258 Y89.926 E11.04479
G1 X148.17 Y89.911 E11.10425
G1 X148.349 Y89.911 E11.11592
G1 X149.222 Y89.925 E11.17284
G1 X150.414 Y89.977 E11.25062
G1 X151.122 Y90.016 E11.29684
G1 X153.805 Y90.089 E11.47181
G1 X156.481 Y90.085 E11.64626
G1 X159.1 Y90.008 E11.81707
G1 X160.485 Y89.935 E11.90748
G1 X161.096 Y89.914 E11.94733
G1 X161.916 Y89.91 E12.00079
G1 X162.698 Y89.921 E12.05177
G1 X163.346 Y89.966 E12.09412
G1 X164.074 Y90.069 E12.14205
G1 X164.741 Y90.216 E12.18657
G1 X165.377 Y90.433 E12.23038
G1 X165.918 Y90.658 E12.26858
G1 X166.53 Y90.962 E12.31313
G1 X167.036 Y91.288 E12.35236
G1 X167.693 Y91.795 E12.40646
G1 X168.199 Y92.254 E12.451
G1 X168.624 Y92.736 E12.49289
G1 X169.046 Y93.288 E12.53819
G1 X169.418 Y93.862 E12.58278
G1 X169.703 Y94.435 E12.6245
G1 X169.948 Y95.008 E12.66512
G1 X169.974 Y95.074 E12.66975
G1 X170.186 Y95.724 E12.71432
G1 X170.318 Y96.366 E12.75704
G1 X170.4 Y96.934 E12.79446
G1 X170.412 Y97.032 E12.80089
G1 X170.453 Y97.599 E12.83795
G1 X170.465 Y98.149 E12.87381
G1 X170.464 Y98.71 E12.91039
G1 X170.454 Y99.421 E12.95674
G1 X170.45 Y99.581 E12.96717
G1 X170.399 Y100.806 E13.0471
G1 X170.4 Y101.006 E13.06014
G1 X170.34 Y102.446 E13.15409
G1 X170.305 Y105.154 E13.33064
G1 X170.344 Y107.749 E13.49983
G1 X170.401 Y108.991 E13.58088
G1 X170.46 Y110.67 E13.6904
G1 X170.465 Y111.536 E13.74686
G1 X170.454 Y112.321 E13.79804
G1 X170.409 Y112.969 E13.84038
G1 X170.34 Y113.484 E13.87425
G1 X170.301 Y113.724 E13.8901
G1 X170.153 Y114.391 E13.93464
G1 X169.975 Y114.915 E13.97072
G1 X169.715 Y115.547 E14.01527
G1 X169.407 Y116.157 E14.05982
G1 X169.038 Y116.719 E14.10365
G1 X168.71 Y117.156 E14.13927
G1 X168.647 Y117.237 E14.14596
G1 X168.197 Y117.751 E14.19049
G1 X167.667 Y118.227 E14.23693
G1 X167.271 Y118.537 E14.26971
G1 X167.108 Y118.658 E14.28295
G1 X166.536 Y119.033 E14.32753
G1 X165.904 Y119.347 E14.37354
G1 X165.256 Y119.612 E14.41918
G1 X164.606 Y119.823 E14.46373
G1 X163.982 Y119.951 E14.50525
G1 X163.267 Y120.043 E14.55225
G1 X162.483 Y120.086 E14.60343
G1 X162.32 Y120.089 E14.61406
G1 X161.655 Y120.089 E14.65741
G1 X160.784 Y120.075 E14.7142
G1 X159.609 Y120.024 E14.79087
G1 X158.922 Y119.986 E14.83573
G1 X156.243 Y119.913 E15.01043
G1 X153.569 Y119.915 E15.18475
G1 X150.934 Y119.992 E15.3566
G1 X149.894 Y120.049 E15.4245
G1 X149.015 Y120.083 E15.48184
G1 X148.46 Y120.09 E15.51803
G1 X147.989 Y120.089 E15.54873
G1 X147.292 Y120.079 E15.59417
G1 X146.714 Y120.042 E15.63193
G1 X145.964 Y119.94 E15.68127
G1 X145.296 Y119.797 E15.72581
G1 X144.704 Y119.599 E15.7665
G1 X144.026 Y119.317 E15.81437
G1 X143.599 Y119.11 E15.8453
G1 X142.34 Y118.433 E15.93849
G1 X142.008 Y118.249 E15.96324
G1 X139.646 Y117.027 E16.1366
G1 X137.254 Y115.874 E16.30971
G1 X134.813 Y114.782 E16.48403
G1 X132.327 Y113.753 E16.65943
G1 X129.871 Y112.818 E16.83074
G1 X127.33 Y111.931 E17.00619
G1 X124.816 Y111.133 E17.17814
G1 X123.336 Y110.708 E17.27852
G1 X122.691 Y110.481 E17.3231
G1 X122.078 Y110.181 E17.36759
G1 X121.503 Y109.811 E17.41216
G1 X120.976 Y109.376 E17.45671
G1 X120.503 Y108.883 E17.50125
G1 X120.091 Y108.338 E17.54578
G1 X119.746 Y107.749 E17.59028
G1 X119.471 Y107.123 E17.63486
G1 X119.272 Y106.47 E17.67936
G1 X119.15 Y105.797 E17.72394
G1 X119.108 Y105.115 E17.76849
G1 X119.146 Y104.433 E17.81302
G1 X119.263 Y103.76 E17.85755
G1 X119.457 Y103.105 E17.90208
G1 X119.727 Y102.478 E17.94658
G1 X120.069 Y101.886 E17.99115
G1 X120.477 Y101.338 E18.03569
M204 S3000
M205 X10 Y10
G0 F500 X120.838 Y101.781
M204 S1800
M205 X8 Y8
G1 F2400 X121.276 Y101.301 E18.07805
G1 X121.77 Y100.879 E18.12041
G1 X122.312 Y100.52 E18.16279
G1 X122.893 Y100.231 E18.20509
G1 X123.475 Y100.025 E18.24534
G1 X124.625 Y99.691 E18.3234
G1 X127.199 Y98.862 E18.49969
G1 X129.722 Y97.971 E18.67412
G1 X132.214 Y97.01 E18.84823
G1 X134.692 Y95.974 E19.02332
G1 X137.129 Y94.873 E19.19765
G1 X139.559 Y93.691 E19.37381
G1 X141.919 Y92.46 E19.54733
G1 X142.623 Y92.064 E19.59998
G1 X143.735 Y91.456 E19.6826
G1 X144.177 Y91.241 E19.71464
G1 X144.803 Y90.971 E19.75909
G1 X145.414 Y90.751 E19.80142
G1 X146.129 Y90.595 E19.84913
G1 X146.817 Y90.512 E19.89431
G1 X147.267 Y90.486 E19.92369
G1 X148.179 Y90.471 E19.98315
G1 X148.341 Y90.471 E19.99371
G1 X149.047 Y90.481 E20.03974
G1 X149.198 Y90.485 E20.04959
G1 X150.383 Y90.536 E20.12691
G1 X151.112 Y90.576 E20.1745
G1 X153.791 Y90.649 E20.34921
G1 X156.462 Y90.645 E20.52333
G1 X159.188 Y90.565 E20.70112
G1 X160.506 Y90.495 E20.78716
G1 X161.102 Y90.474 E20.82604
G1 X161.916 Y90.47 E20.8791
G1 X162.69 Y90.481 E20.92956
G1 X163.276 Y90.522 E20.96786
G1 X163.986 Y90.622 E21.0146
G1 X164.62 Y90.764 E21.05695
G1 X165.18 Y90.957 E21.09557
G1 X165.698 Y91.173 E21.13216
G1 X166.279 Y91.464 E21.17452
G1 X166.709 Y91.743 E21.20793
G1 X167.342 Y92.232 E21.26007
G1 X167.822 Y92.669 E21.30239
G1 X168.184 Y93.083 E21.33824
G1 X168.595 Y93.62 E21.38233
G1 X168.947 Y94.166 E21.42468
G1 X169.189 Y94.656 E21.4603
G1 X169.427 Y95.214 E21.49985
G1 X169.453 Y95.28 E21.50447
G1 X169.653 Y95.898 E21.54682
G1 X169.764 Y96.448 E21.58339
G1 X169.844 Y97.002 E21.61988
G1 X169.856 Y97.1 E21.62632
G1 X169.893 Y97.612 E21.65978
G1 X169.905 Y98.149 E21.6948
G1 X169.904 Y98.702 E21.73085
G1 X169.894 Y99.413 E21.77721
G1 X169.89 Y99.558 E21.78666
G1 X169.837 Y100.847 E21.87076
G1 X169.84 Y100.982 E21.87956
G1 X169.78 Y102.414 E21.973
G1 X169.745 Y105.155 E22.1517
G1 X169.785 Y107.791 E22.32356
G1 X169.842 Y109.011 E22.40318
G1 X169.897 Y110.55 E22.50357
G1 X169.905 Y111.102 E22.53956
G1 X169.904 Y111.611 E22.57274
G1 X169.894 Y112.313 E22.61851
G1 X169.853 Y112.899 E22.6568
G1 X169.749 Y113.634 E22.70519
G1 X169.605 Y114.267 E22.74751
G1 X169.373 Y114.918 E22.79257
G1 X169.201 Y115.325 E22.82137
G1 X168.907 Y115.904 E22.8637
G1 X168.588 Y116.384 E22.90127
G1 X168.268 Y116.813 E22.93616
G1 X168.205 Y116.894 E22.94285
G1 X167.775 Y117.381 E22.9852
G1 X167.319 Y117.788 E23.02505
G1 X166.774 Y118.209 E23.06994
G1 X166.23 Y118.563 E23.11225
G1 X165.685 Y118.831 E23.15185
G1 X165.052 Y119.091 E23.19646
G1 X164.434 Y119.29 E23.23878
G1 X163.9 Y119.397 E23.27428
G1 X163.205 Y119.487 E23.31997
G1 X162.467 Y119.527 E23.36815
G1 X161.747 Y119.53 E23.41509
G1 X160.958 Y119.519 E23.46653
G1 X160.808 Y119.515 E23.47631
G1 X159.64 Y119.465 E23.55252
G1 X158.933 Y119.426 E23.59868
G1 X156.257 Y119.353 E23.77319
G1 X153.588 Y119.355 E23.94718
G1 X150.886 Y119.434 E24.1234
G1 X149.871 Y119.49 E24.18967
G1 X149.154 Y119.519 E24.23645
G1 X149.008 Y119.523 E24.24597
G1 X148.453 Y119.53 E24.28216
G1 X147.997 Y119.529 E24.31188
G1 X147.3 Y119.519 E24.35732
G1 X146.777 Y119.486 E24.39149
G1 X146.049 Y119.387 E24.43938
G1 X145.415 Y119.249 E24.48168
G1 X144.91 Y119.078 E24.51644
G1 X144.25 Y118.804 E24.56302
G1 X143.864 Y118.617 E24.59098
G1 X142.612 Y117.944 E24.68364
G1 X142.26 Y117.749 E24.70988
G1 X139.882 Y116.519 E24.88441
G1 X137.504 Y115.373 E25.05649
G1 X135.018 Y114.261 E25.23403
G1 X132.533 Y113.232 E25.40936
G1 X130.066 Y112.293 E25.58144
G1 X127.518 Y111.403 E25.75739
G1 X124.986 Y110.599 E25.93057
G1 X123.491 Y110.17 E26.03196
G1 X122.878 Y109.952 E26.07438
G1 X122.298 Y109.662 E26.11665
G1 X121.757 Y109.302 E26.15901
G1 X121.264 Y108.878 E26.2014
G1 X120.828 Y108.397 E26.24372
G1 X120.454 Y107.866 E26.28606
G1 X120.147 Y107.293 E26.32844
G1 X119.914 Y106.687 E26.37076
G1 X119.756 Y106.057 E26.41311
G1 X119.678 Y105.412 E26.45546
G1 X119.679 Y104.762 E26.49783
G1 X119.759 Y104.118 E26.54014
G1 X119.919 Y103.488 E26.58251
G1 X120.154 Y102.882 E26.62488
G1 X120.462 Y102.31 E26.66723
G1 X120.838 Y101.781 E26.70954
M204 S3000
M205 X10 Y10
G0 F500 X75.335 Y104.602
M204 S1800
M205 X8 Y8
G1 F2400 X75.375 Y105.284 E26.75408
G1 X75.336 Y105.966 E26.79861
G1 X75.217 Y106.638 E26.8431
G1 X75.02 Y107.293 E26.88769
G1 X74.748 Y107.92 E26.93224
G1 X74.405 Y108.511 E26.97679
G1 X73.996 Y109.057 E27.02126
G1 X73.525 Y109.552 E27.0658
G1 X73 Y109.989 E27.11033
G1 X72.427 Y110.362 E27.1549
G1 X71.814 Y110.665 E27.19948
G1 X71.185 Y110.89 E27.24303
G1 X69.701 Y111.327 E27.34388
G1 X67.167 Y112.152 E27.5176
G1 X64.655 Y113.048 E27.69147
G1 X62.232 Y113.991 E27.86096
G1 X60.742 Y114.61 E27.96614
G1 X60.08 Y114.891 E28.01303
G1 X59.437 Y115.121 E28.05755
G1 X58.771 Y115.274 E28.10209
G1 X57.996 Y115.353 E28.15288
G1 X57.337 Y115.366 E28.19584
G1 X52.851 Y115.365 E28.48829
G1 X52.151 Y115.355 E28.53392
G1 X51.469 Y115.306 E28.5785
G1 X50.798 Y115.177 E28.62304
G1 X50.147 Y114.97 E28.66757
G1 X49.524 Y114.689 E28.71213
G1 X49.006 Y114.383 E28.75135
G1 X48.911 Y114.32 E28.75878
G1 X48.365 Y113.91 E28.80329
G1 X47.87 Y113.439 E28.84783
G1 X47.434 Y112.913 E28.89237
G1 X47.062 Y112.34 E28.93691
G1 X46.741 Y111.681 E28.98469
G1 X46.547 Y111.204 E29.01826
G1 X46.333 Y110.631 E29.05814
G1 X45.763 Y109.046 E29.16794
G1 X44.78 Y106.535 E29.34373
G1 X44.579 Y106.031 E29.3791
G1 X44.366 Y105.382 E29.42363
G1 X44.229 Y104.712 E29.46821
G1 X44.173 Y104.074 E29.50996
G1 X44.16 Y103.343 E29.55762
G1 X44.161 Y102.754 E29.59602
G1 X44.171 Y102.084 E29.6397
G1 X44.221 Y101.402 E29.68428
G1 X44.35 Y100.732 E29.72876
G1 X44.557 Y100.08 E29.77335
G1 X44.838 Y99.458 E29.81785
G1 X45.191 Y98.872 E29.86244
G1 X45.609 Y98.332 E29.90696
G1 X45.985 Y97.936 E29.94256
G1 X46.496 Y97.482 E29.98712
G1 X47.056 Y97.091 E30.03164
G1 X47.658 Y96.768 E30.07618
G1 X48.263 Y96.527 E30.11863
G1 X49.255 Y96.195 E30.18683
G1 X51.407 Y95.433 E30.33565
G1 X51.967 Y95.242 E30.37422
G1 X52.131 Y95.188 E30.38548
G1 X52.76 Y94.994 E30.42839
G1 X53.008 Y94.923 E30.44521
G1 X53.676 Y94.779 E30.48975
G1 X54.19 Y94.722 E30.52347
G1 X54.822 Y94.685 E30.56474
G1 X54.954 Y94.681 E30.57335
G1 X55.637 Y94.7 E30.61789
G1 X56.128 Y94.764 E30.65017
G1 X56.74 Y94.87 E30.69066
G1 X57.565 Y95.076 E30.74609
G1 X57.781 Y95.147 E30.76091
G1 X60.155 Y95.964 E30.92458
G1 X61.483 Y96.387 E31.01544
G1 X62.114 Y96.608 E31.05902
G1 X64.333 Y97.461 E31.214
G1 X66.816 Y98.337 E31.38564
G1 X69.382 Y99.163 E31.56137
G1 X71.162 Y99.679 E31.68219
G1 X71.806 Y99.908 E31.72675
G1 X72.419 Y100.21 E31.77129
G1 X72.992 Y100.581 E31.81579
G1 X73.518 Y101.017 E31.86033
G1 X73.99 Y101.512 E31.90492
G1 X74.4 Y102.058 E31.94943
G1 X74.744 Y102.648 E31.99395
G1 X75.017 Y103.275 E32.03853
G1 X75.215 Y103.929 E32.08308
G1 X75.335 Y104.602 E32.12764
M204 S3000
M205 X10 Y10
G0 F500 X74.806 Y104.986
M204 S1800
M205 X8 Y8
G1 F2400 X74.804 Y105.635 E32.16995
G1 X74.721 Y106.28 E32.21235
G1 X74.56 Y106.909 E32.25467
G1 X74.323 Y107.514 E32.29703
G1 X74.013 Y108.085 E32.33939
G1 X73.636 Y108.614 E32.38173
G1 X73.197 Y109.092 E32.42404
